/* XPM */
static char * ugly_door_xpm[] = {
"64 64 3 1",
" 	c #45150A",
".	c #B83C1D",
"+	c #5E1D0D",
"                                                                ",
"                                                                ",
"  ............................    ............................  ",
"  ............................    ............................  ",
"  ............................    ............................  ",
"  ............................    ............................  ",
"  ............................    ............................  ",
"  ............................    ............................  ",
"  ............................    ............................  ",
"  ............................    ............................  ",
"  ............................    ............................  ",
"  ............................    ............................  ",
"  ............................    ............................  ",
"  ............................    ............................  ",
"  ............................    ............................  ",
"  ............................    ............................  ",
"  ............................    ............................  ",
"  ............................    ............................  ",
"  ............................    ............................  ",
"  ............................    ............................  ",
"  ............................    ............................  ",
"  ............................    ............................  ",
"  ............................    ............................  ",
"  ............................    ............................  ",
"  ............................    ............................  ",
"  ............................    ............................  ",
"  ............................    ............................  ",
"  ............................    ............................  ",
"  ............................    ............................  ",
"  ....................+++++...    ...+++++....................  ",
"  ............................    ............................  ",
"  ............................    ............................  ",
"  ............................    ............................  ",
"  ............................    ............................  ",
"  ............................    ............................  ",
"  ............................    ............................  ",
"  ............................    ............................  ",
"  ............................    ............................  ",
"  ............................    ............................  ",
"  ............................    ............................  ",
"  ............................    ............................  ",
"  ............................    ............................  ",
"  ............................    ............................  ",
"  ............................    ............................  ",
"  ............................    ............................  ",
"  ............................    ............................  ",
"  ............................    ............................  ",
"  ............................    ............................  ",
"  ............................    ............................  ",
"  ............................    ............................  ",
"  ............................    ............................  ",
"  ............................    ............................  ",
"  ............................    ............................  ",
"  ............................    ............................  ",
"  ............................    ............................  ",
"  ............................    ............................  ",
"  ............................    ............................  ",
"  ............................    ............................  ",
"  ............................    ............................  ",
"  ............................    ............................  ",
"  ............................    ............................  ",
"  ............................    ............................  ",
"                                                                ",
"                                                                "};
