/* XPM */
static char * black_wall64_xpm[] = {
"64 64 1761 2",
"  	c #282731",
". 	c #292832",
"+ 	c #2A2933",
"@ 	c #2C2B35",
"# 	c #2F2D39",
"$ 	c #32303C",
"% 	c #312F3B",
"& 	c #34313E",
"* 	c #373441",
"= 	c #3C3A47",
"- 	c #373541",
"; 	c #26232F",
"> 	c #1D1825",
", 	c #272432",
"' 	c #292632",
") 	c #2D2B36",
"! 	c #2C2933",
"~ 	c #28242F",
"{ 	c #241F2A",
"] 	c #231F29",
"^ 	c #221D27",
"/ 	c #211C26",
"( 	c #1F1B25",
"_ 	c #1E1A24",
": 	c #191721",
"< 	c #15121E",
"[ 	c #100D18",
"} 	c #2C2B3B",
"| 	c #3A394C",
"1 	c #23222E",
"2 	c #22212D",
"3 	c #23222D",
"4 	c #25252F",
"5 	c #2B2A34",
"6 	c #2F2D38",
"7 	c #302E39",
"8 	c #2E2D38",
"9 	c #363440",
"0 	c #33313D",
"a 	c #3D3B48",
"b 	c #43424F",
"c 	c #494754",
"d 	c #312F3A",
"e 	c #1F1B28",
"f 	c #282431",
"g 	c #302F3A",
"h 	c #32313C",
"i 	c #2D2B35",
"j 	c #25212C",
"k 	c #25212B",
"l 	c #231F2A",
"m 	c #231E28",
"n 	c #201C26",
"o 	c #211D27",
"p 	c #1D1A24",
"q 	c #181621",
"r 	c #13101D",
"s 	c #0F0C17",
"t 	c #232231",
"u 	c #3B3A4E",
"v 	c #252331",
"w 	c #23232E",
"x 	c #262630",
"y 	c #272731",
"z 	c #262631",
"A 	c #282832",
"B 	c #2E2D37",
"C 	c #363340",
"D 	c #383642",
"E 	c #3B3945",
"F 	c #393643",
"G 	c #393743",
"H 	c #3B3845",
"I 	c #43414E",
"J 	c #494855",
"K 	c #4D4B59",
"L 	c #1A1622",
"M 	c #231E2C",
"N 	c #2F2B3A",
"O 	c #231F2C",
"P 	c #2D2A36",
"Q 	c #393943",
"R 	c #34333E",
"S 	c #2B2732",
"T 	c #292530",
"U 	c #2A2631",
"V 	c #27232E",
"W 	c #24202B",
"X 	c #221E28",
"Y 	c #221D28",
"Z 	c #231E29",
"` 	c #181620",
" .	c #191623",
"..	c #201E2E",
"+.	c #21202D",
"@.	c #24242E",
"#.	c #292934",
"$.	c #292935",
"%.	c #2A2B37",
"&.	c #2A2A35",
"*.	c #3C3A46",
"=.	c #3C3B46",
"-.	c #3E3D49",
";.	c #42404D",
">.	c #474652",
",.	c #454451",
"'.	c #3E3C48",
").	c #3F3D49",
"!.	c #413F4C",
"~.	c #474653",
"{.	c #4C4A58",
"].	c #1A1623",
"^.	c #221E2C",
"/.	c #2E2B39",
"(.	c #272431",
"_.	c #22202A",
":.	c #3A3944",
"<.	c #363540",
"[.	c #2E2C36",
"}.	c #2D2A35",
"|.	c #2B2833",
"1.	c #26222C",
"2.	c #18151E",
"3.	c #120F1A",
"4.	c #262331",
"5.	c #2C2B3A",
"6.	c #24232E",
"7.	c #2B2C38",
"8.	c #22222D",
"9.	c #2F303A",
"0.	c #30313B",
"a.	c #2F303B",
"b.	c #272732",
"c.	c #2F303C",
"d.	c #3D3C48",
"e.	c #444550",
"f.	c #474853",
"g.	c #41414C",
"h.	c #4E4F5A",
"i.	c #4F505B",
"j.	c #4A4956",
"k.	c #464451",
"l.	c #454350",
"m.	c #484653",
"n.	c #4B4957",
"o.	c #4E4C5A",
"p.	c #4C4958",
"q.	c #1B1625",
"r.	c #211D2B",
"s.	c #2F2D3A",
"t.	c #302D3B",
"u.	c #292734",
"v.	c #373741",
"w.	c #393843",
"x.	c #2C2934",
"y.	c #2B2832",
"z.	c #26222D",
"A.	c #130F1A",
"B.	c #1C1A25",
"C.	c #1B1923",
"D.	c #1A1823",
"E.	c #15131F",
"F.	c #211E2B",
"G.	c #2B2A38",
"H.	c #252530",
"I.	c #21202C",
"J.	c #2F313B",
"K.	c #32343E",
"L.	c #333540",
"M.	c #2C2D37",
"N.	c #31313C",
"O.	c #31323E",
"P.	c #302E3A",
"Q.	c #393A43",
"R.	c #3D3E48",
"S.	c #444652",
"T.	c #23212D",
"U.	c #393944",
"V.	c #3B3A45",
"W.	c #3A3945",
"X.	c #3D3D48",
"Y.	c #3F3E4A",
"Z.	c #42414E",
"`.	c #3F3E4B",
" +	c #3A3745",
".+	c #403D4C",
"++	c #2F2C3A",
"@+	c #140F1B",
"#+	c #1D1925",
"$+	c #2C2936",
"%+	c #2D2A37",
"&+	c #2C2A36",
"*+	c #32323C",
"=+	c #373540",
"-+	c #373641",
";+	c #1C1923",
">+	c #2B2933",
",+	c #1E1A26",
"'+	c #110D18",
")+	c #201F2A",
"!+	c #201E2B",
"~+	c #16141E",
"{+	c #0E0B16",
"]+	c #1A1723",
"^+	c #292735",
"/+	c #1C1B26",
"(+	c #1D1B26",
"_+	c #1C1B25",
":+	c #1D1C26",
"<+	c #120F19",
"[+	c #120E19",
"}+	c #15131D",
"|+	c #35353F",
"1+	c #1B1620",
"2+	c #1C1821",
"3+	c #1C1822",
"4+	c #19151F",
"5+	c #16121D",
"6+	c #1A1722",
"7+	c #1F1C27",
"8+	c #1D1A26",
"9+	c #16111D",
"0+	c #211D2A",
"a+	c #221C2B",
"b+	c #282233",
"c+	c #2F283A",
"d+	c #2E273A",
"e+	c #271D32",
"f+	c #261931",
"g+	c #17111F",
"h+	c #191521",
"i+	c #120D18",
"j+	c #15101C",
"k+	c #1B1722",
"l+	c #1D1924",
"m+	c #1D1824",
"n+	c #1C1723",
"o+	c #1A1521",
"p+	c #18131E",
"q+	c #15111B",
"r+	c #100D17",
"s+	c #12101A",
"t+	c #14121C",
"u+	c #100E18",
"v+	c #110F1A",
"w+	c #191724",
"x+	c #16131F",
"y+	c #171520",
"z+	c #1B1824",
"A+	c #1F1C28",
"B+	c #23202C",
"C+	c #25222E",
"D+	c #26222F",
"E+	c #201D29",
"F+	c #1C1825",
"G+	c #181420",
"H+	c #24212B",
"I+	c #1E1B24",
"J+	c #18141E",
"K+	c #17131D",
"L+	c #45454C",
"M+	c #48484F",
"N+	c #414047",
"O+	c #333038",
"P+	c #2E2E38",
"Q+	c #474952",
"R+	c #3D3E49",
"S+	c #34333F",
"T+	c #221F2B",
"U+	c #1B1622",
"V+	c #302B3A",
"W+	c #535163",
"X+	c #514F62",
"Y+	c #5C5972",
"Z+	c #6C6382",
"`+	c #9086A6",
" @	c #857A9B",
".@	c #564569",
"+@	c #362840",
"@@	c #2E2334",
"#@	c #291F30",
"$@	c #281E2F",
"%@	c #271E2E",
"&@	c #2F2636",
"*@	c #231C2A",
"=@	c #241E2E",
"-@	c #231D2E",
";@	c #272031",
">@	c #282034",
",@	c #261F32",
"'@	c #241E30",
")@	c #211B2B",
"!@	c #201A2A",
"~@	c #2B283B",
"{@	c #232232",
"]@	c #211F2F",
"^@	c #1D1B2B",
"/@	c #1A1827",
"(@	c #191625",
"_@	c #191725",
":@	c #130F1B",
"<@	c #2E2F3C",
"[@	c #282937",
"}@	c #181623",
"|@	c #1E1C28",
"1@	c #24222E",
"2@	c #2E2B37",
"3@	c #322E3C",
"4@	c #34303F",
"5@	c #353140",
"6@	c #363241",
"7@	c #33303E",
"8@	c #201D2A",
"9@	c #403F4B",
"0@	c #3D3B46",
"a@	c #37343E",
"b@	c #312E37",
"c@	c #2C2831",
"d@	c #3B3A42",
"e@	c #444046",
"f@	c #4C494D",
"g@	c #5B5B61",
"h@	c #57565C",
"i@	c #424046",
"j@	c #53555C",
"k@	c #676A71",
"l@	c #51535C",
"m@	c #383844",
"n@	c #2D2B37",
"o@	c #2C2735",
"p@	c #444252",
"q@	c #2D2B3E",
"r@	c #28233D",
"s@	c #8A81A9",
"t@	c #B2A9C8",
"u@	c #817693",
"v@	c #554A66",
"w@	c #3D3146",
"x@	c #382B3D",
"y@	c #342738",
"z@	c #322536",
"A@	c #2E2333",
"B@	c #2A2130",
"C@	c #231C29",
"D@	c #130E1A",
"E@	c #2F2739",
"F@	c #2D2537",
"G@	c #2E2537",
"H@	c #2D2438",
"I@	c #2D2538",
"J@	c #282134",
"K@	c #251E30",
"L@	c #241E2F",
"M@	c #201C2D",
"N@	c #252132",
"O@	c #2A283A",
"P@	c #282638",
"Q@	c #272537",
"R@	c #242334",
"S@	c #252334",
"T@	c #15111E",
"U@	c #656C70",
"V@	c #2D2F3C",
"W@	c #1D1B29",
"X@	c #282432",
"Y@	c #302C39",
"Z@	c #312E3B",
"`@	c #322D3B",
" #	c #302B39",
".#	c #2F2A38",
"+#	c #2A2733",
"@#	c #43424E",
"##	c #3B3943",
"$#	c #38353E",
"%#	c #37343C",
"&#	c #3D3C43",
"*#	c #454146",
"=#	c #4B484C",
"-#	c #535156",
";#	c #59575D",
">#	c #4A474C",
",#	c #4B494E",
"'#	c #515157",
")#	c #66686F",
"!#	c #52545D",
"~#	c #3A3A46",
"{#	c #3C3843",
"]#	c #575563",
"^#	c #2F2C40",
"/#	c #9389B2",
"(#	c #AAA0C0",
"_#	c #796C89",
":#	c #504461",
"<#	c #3E3649",
"[#	c #3B2E41",
"}#	c #3A2D40",
"|#	c #36293A",
"1#	c #2C2231",
"2#	c #140F1A",
"3#	c #2D2436",
"4#	c #2F2538",
"5#	c #362C41",
"6#	c #302639",
"7#	c #2C2437",
"8#	c #2C2336",
"9#	c #221C2D",
"0#	c #242132",
"a#	c #2A273B",
"b#	c #232233",
"c#	c #14101D",
"d#	c #2A2735",
"e#	c #363141",
"f#	c #34303E",
"g#	c #332F3C",
"h#	c #332F3D",
"i#	c #2E2834",
"j#	c #2E2936",
"k#	c #2C2835",
"l#	c #35333F",
"m#	c #38353D",
"n#	c #36333B",
"o#	c #3C3A41",
"p#	c #4A474B",
"q#	c #4F4C50",
"r#	c #504D51",
"s#	c #4D4A4E",
"t#	c #4E4C52",
"u#	c #53545A",
"v#	c #56575E",
"w#	c #19141F",
"x#	c #433F4B",
"y#	c #47455D",
"z#	c #86809E",
"A#	c #635C7B",
"B#	c #5E5071",
"C#	c #574868",
"D#	c #443B52",
"E#	c #3D3347",
"F#	c #392C3E",
"G#	c #2D2232",
"H#	c #231C2B",
"I#	c #2E2436",
"J#	c #2F2638",
"K#	c #33293C",
"L#	c #33293D",
"M#	c #292136",
"N#	c #251F31",
"O#	c #262234",
"P#	c #29273A",
"Q#	c #2A283C",
"R#	c #2B283D",
"S#	c #272638",
"T#	c #242234",
"U#	c #1B1928",
"V#	c #150F1F",
"W#	c #282335",
"X#	c #393444",
"Y#	c #342F3E",
"Z#	c #302B38",
"`#	c #2D2733",
" $	c #2B2430",
".$	c #2D2632",
"+$	c #2F2A37",
"@$	c #383640",
"#$	c #37333B",
"$$	c #36323A",
"%$	c #353138",
"&$	c #3E3D44",
"*$	c #3E393E",
"=$	c #49464A",
"-$	c #4A484D",
";$	c #504F54",
">$	c #4B494F",
",$	c #4A4953",
"'$	c #201B27",
")$	c #312D3D",
"!$	c #646077",
"~$	c #59506E",
"{$	c #4B405D",
"]$	c #4D4261",
"^$	c #493F59",
"/$	c #3F374B",
"($	c #36293B",
"_$	c #322535",
":$	c #2A202F",
"<$	c #2C2334",
"[$	c #2E2435",
"}$	c #302638",
"|$	c #31273A",
"1$	c #2F2639",
"2$	c #282135",
"3$	c #292237",
"4$	c #272437",
"5$	c #15101E",
"6$	c #140E1D",
"7$	c #1E182B",
"8$	c #3B3647",
"9$	c #312C3A",
"0$	c #2D2633",
"a$	c #2A232F",
"b$	c #2E2835",
"c$	c #332E37",
"d$	c #322C35",
"e$	c #343138",
"f$	c #343037",
"g$	c #353239",
"h$	c #37343B",
"i$	c #3D383D",
"j$	c #4E4B4F",
"k$	c #474448",
"l$	c #48454A",
"m$	c #4C4A50",
"n$	c #4F4E53",
"o$	c #39363E",
"p$	c #1F1A26",
"q$	c #3A3749",
"r$	c #595570",
"s$	c #473E55",
"t$	c #484156",
"u$	c #4A4159",
"v$	c #453E52",
"w$	c #41394C",
"x$	c #372B3D",
"y$	c #332536",
"z$	c #2F2334",
"A$	c #302434",
"B$	c #2D2332",
"C$	c #2F2537",
"D$	c #302739",
"E$	c #2C263C",
"F$	c #2A263C",
"G$	c #231D33",
"H$	c #1D152D",
"I$	c #201A2D",
"J$	c #403C4F",
"K$	c #332E3C",
"L$	c #2C2531",
"M$	c #2F2833",
"N$	c #312B34",
"O$	c #332E36",
"P$	c #36333A",
"Q$	c #454247",
"R$	c #4A464A",
"S$	c #413D43",
"T$	c #413D44",
"U$	c #4A484C",
"V$	c #434045",
"W$	c #322E36",
"X$	c #3A3746",
"Y$	c #4F4A5E",
"Z$	c #463F53",
"`$	c #4B4558",
" %	c #494256",
".%	c #41394D",
"+%	c #332636",
"@%	c #302334",
"#%	c #2B2239",
"$%	c #2A2137",
"%%	c #2D233C",
"&%	c #2C263D",
"*%	c #2D283F",
"=%	c #37304C",
"-%	c #322D46",
";%	c #332C47",
">%	c #211931",
",%	c #130D1A",
"'%	c #201B2E",
")%	c #413E53",
"!%	c #383343",
"~%	c #2C2632",
"{%	c #302A34",
"]%	c #332F36",
"^%	c #464347",
"/%	c #494549",
"(%	c #3D3940",
"_%	c #3B373E",
":%	c #423E44",
"<%	c #2E2A33",
"[%	c #18131F",
"}%	c #322D3D",
"|%	c #464053",
"1%	c #443D51",
"2%	c #433C4F",
"3%	c #3C3246",
"4%	c #352839",
"5%	c #312435",
"6%	c #2A2136",
"7%	c #2C233B",
"8%	c #2A2238",
"9%	c #292137",
"0%	c #302641",
"a%	c #322842",
"b%	c #3F3855",
"c%	c #393152",
"d%	c #393350",
"e%	c #372F4B",
"f%	c #221B32",
"g%	c #120C19",
"h%	c #1D172B",
"i%	c #3B384B",
"j%	c #2E2732",
"k%	c #2F2933",
"l%	c #322E35",
"m%	c #312D33",
"n%	c #343038",
"o%	c #3C373C",
"p%	c #444146",
"q%	c #37333A",
"r%	c #3B363D",
"s%	c #3A363D",
"t%	c #332F37",
"u%	c #26212C",
"v%	c #191421",
"w%	c #2D2837",
"x%	c #3B3446",
"y%	c #484155",
"z%	c #3E3549",
"A%	c #3C3145",
"B%	c #372A3C",
"C%	c #322435",
"D%	c #342636",
"E%	c #302435",
"F%	c #302538",
"G%	c #2C2337",
"H%	c #2C233A",
"I%	c #2E243C",
"J%	c #2F253F",
"K%	c #322843",
"L%	c #342A46",
"M%	c #3B3353",
"N%	c #352C4E",
"O%	c #3A314F",
"P%	c #150F1C",
"Q%	c #322C3B",
"R%	c #2E2734",
"S%	c #26202C",
"T%	c #322D35",
"U%	c #322E34",
"V%	c #3B363B",
"W%	c #464348",
"X%	c #363239",
"Y%	c #2D2832",
"Z%	c #1B1621",
"`%	c #1C1724",
" &	c #312C3C",
".&	c #393344",
"+&	c #40384B",
"@&	c #413A4D",
"#&	c #474053",
"$&	c #4A4457",
"%&	c #3F384B",
"&&	c #3D3448",
"*&	c #3C3144",
"=&	c #392C3F",
"-&	c #352738",
";&	c #332638",
">&	c #34283B",
",&	c #32273B",
"'&	c #31273B",
")&	c #30263C",
"!&	c #33283D",
"~&	c #342A40",
"{&	c #342A3F",
"]&	c #31273D",
"^&	c #312740",
"/&	c #362B47",
"(&	c #392F4C",
"_&	c #39304F",
":&	c #382F4F",
"<&	c #372E4F",
"[&	c #39314D",
"}&	c #241C34",
"|&	c #140E1B",
"1&	c #1E1928",
"2&	c #3B3949",
"3&	c #3F3B4B",
"4&	c #322B3B",
"5&	c #2A2431",
"6&	c #322C39",
"7&	c #2D2631",
"8&	c #302933",
"9&	c #342F37",
"0&	c #393439",
"a&	c #3E3A3F",
"b&	c #454147",
"c&	c #464248",
"d&	c #3A353C",
"e&	c #15101B",
"f&	c #1F1A28",
"g&	c #312A3B",
"h&	c #383143",
"i&	c #40394C",
"j&	c #423B4E",
"k&	c #484255",
"l&	c #443D50",
"m&	c #3A2E40",
"n&	c #332738",
"o&	c #34283A",
"p&	c #33283E",
"q&	c #352B41",
"r&	c #34293E",
"s&	c #352A46",
"t&	c #382D49",
"u&	c #3A314E",
"v&	c #3B3250",
"w&	c #3D3453",
"x&	c #55516A",
"y&	c #3D3552",
"z&	c #302842",
"A&	c #1F1928",
"B&	c #2E2838",
"C&	c #373040",
"D&	c #312A39",
"E&	c #2E2733",
"F&	c #413D42",
"G&	c #49454B",
"H&	c #403C43",
"I&	c #373239",
"J&	c #2C2731",
"K&	c #221D2B",
"L&	c #2F2839",
"M&	c #352F3F",
"N&	c #3F374A",
"O&	c #3B3144",
"P&	c #382D3F",
"Q&	c #332739",
"R&	c #31283C",
"S&	c #32283D",
"T&	c #352B46",
"U&	c #3F3B52",
"V&	c #373248",
"W&	c #332D44",
"X&	c #2B253C",
"Y&	c #161020",
"Z&	c #1A1422",
"`&	c #292433",
" *	c #342D3C",
".*	c #312A38",
"+*	c #2F2935",
"@*	c #2E2833",
"#*	c #353038",
"$*	c #4B474D",
"%*	c #474349",
"&*	c #3D383F",
"**	c #363139",
"=*	c #27222D",
"-*	c #241F2D",
";*	c #302A3A",
">*	c #332C3D",
",*	c #3D3548",
"'*	c #392F41",
")*	c #362B3D",
"!*	c #32283A",
"~*	c #322739",
"{*	c #2F2536",
"]*	c #31283B",
"^*	c #32283E",
"/*	c #362F43",
"(*	c #383048",
"_*	c #3A344D",
":*	c #3C354F",
"<*	c #383349",
"[*	c #39354A",
"}*	c #363247",
"|*	c #2E293D",
"1*	c #191425",
"2*	c #231D2C",
"3*	c #332C3B",
"4*	c #302935",
"5*	c #302A36",
"6*	c #29232F",
"7*	c #2D2731",
"8*	c #38343B",
"9*	c #4C484E",
"0*	c #4C494F",
"a*	c #4A464C",
"b*	c #454148",
"c*	c #3F3A41",
"d*	c #38333B",
"e*	c #201B26",
"f*	c #17121E",
"g*	c #26202F",
"h*	c #2E2837",
"i*	c #312B3B",
"j*	c #373242",
"k*	c #3B3346",
"l*	c #373142",
"m*	c #352E3F",
"n*	c #332A3B",
"o*	c #302738",
"p*	c #312638",
"q*	c #302537",
"r*	c #32283C",
"s*	c #32273C",
"t*	c #342B3F",
"u*	c #332B3E",
"v*	c #363042",
"w*	c #3B374C",
"x*	c #423D51",
"y*	c #443E53",
"z*	c #443F53",
"A*	c #403B50",
"B*	c #342F44",
"C*	c #1D1828",
"D*	c #1D1726",
"E*	c #2F2837",
"F*	c #312B38",
"G*	c #231D2A",
"H*	c #29242D",
"I*	c #39353C",
"J*	c #3A363E",
"K*	c #39353D",
"L*	c #4A464D",
"M*	c #4E4B55",
"N*	c #51505C",
"O*	c #4D4B56",
"P*	c #3F3E4C",
"Q*	c #1E1B25",
"R*	c #110C17",
"S*	c #1A1522",
"T*	c #2C2635",
"U*	c #2D2836",
"V*	c #342D3E",
"W*	c #373141",
"X*	c #342C3D",
"Y*	c #332A3C",
"Z*	c #2E2434",
"`*	c #312639",
" =	c #332A3D",
".=	c #373143",
"+=	c #322A3D",
"@=	c #373144",
"#=	c #3E384D",
"$=	c #474256",
"%=	c #4D4A5D",
"&=	c #535062",
"*=	c #4F4B5E",
"==	c #3A364A",
"-=	c #1C1828",
";=	c #1D1725",
">=	c #2F2936",
",=	c #2F2834",
"'=	c #332D3B",
")=	c #342F3D",
"!=	c #1F1A27",
"~=	c #211C27",
"{=	c #3B373F",
"]=	c #3D3942",
"^=	c #403E47",
"/=	c #4A464E",
"(=	c #4E4C55",
"_=	c #504E59",
":=	c #565562",
"<=	c #545461",
"[=	c #575765",
"}=	c #4E4D5C",
"|=	c #211D2C",
"1=	c #201B29",
"2=	c #3A3447",
"3=	c #3D374A",
"4=	c #373043",
"5=	c #332C3E",
"6=	c #352E41",
"7=	c #373245",
"8=	c #3F394E",
"9=	c #4B475A",
"0=	c #565366",
"a=	c #5C596B",
"b=	c #514E60",
"c=	c #312D40",
"d=	c #1B1624",
"e=	c #2B2532",
"f=	c #312B39",
"g=	c #322F3C",
"h=	c #1E1926",
"i=	c #37333C",
"j=	c #38343D",
"k=	c #3E3B43",
"l=	c #3F3C44",
"m=	c #413F48",
"n=	c #2C2935",
"o=	c #3B3946",
"p=	c #434250",
"q=	c #51505F",
"r=	c #626270",
"s=	c #363442",
"t=	c #2C2736",
"u=	c #252130",
"v=	c #2F2938",
"w=	c #302839",
"x=	c #31283A",
"y=	c #31293A",
"z=	c #302637",
"A=	c #2B2233",
"B=	c #33293E",
"C=	c #3C3648",
"D=	c #403A4C",
"E=	c #454153",
"F=	c #3E394B",
"G=	c #484458",
"H=	c #626071",
"I=	c #6B6A7A",
"J=	c #3C384C",
"K=	c #282436",
"L=	c #1E1A2A",
"M=	c #140E1C",
"N=	c #17111E",
"O=	c #25202E",
"P=	c #282330",
"Q=	c #241F2B",
"R=	c #15101D",
"S=	c #25222C",
"T=	c #302D36",
"U=	c #2D293B",
"V=	c #2E2A3B",
"W=	c #2B2838",
"X=	c #272333",
"Y=	c #1D1927",
"Z=	c #191422",
"`=	c #17121F",
" -	c #24202E",
".-	c #1D1826",
"+-	c #262130",
"@-	c #282332",
"#-	c #2E2938",
"$-	c #241C2B",
"%-	c #2A2335",
"&-	c #342C3F",
"*-	c #352D40",
"=-	c #383244",
"--	c #3C3649",
";-	c #413C4E",
">-	c #474355",
",-	c #4C495B",
"'-	c #494658",
")-	c #3C374B",
"!-	c #4C485B",
"~-	c #636271",
"{-	c #3B374B",
"]-	c #2C273B",
"^-	c #1F1B2B",
"/-	c #171120",
"(-	c #1E1825",
"_-	c #201A26",
":-	c #231E2A",
"<-	c #28222E",
"[-	c #251F2B",
"}-	c #27212D",
"|-	c #2A2330",
"1-	c #2D2734",
"2-	c #312B3A",
"3-	c #3C3948",
"4-	c #3E3B4A",
"5-	c #1F192D",
"6-	c #3E3F55",
"7-	c #4E4E66",
"8-	c #494961",
"9-	c #43435A",
"0-	c #3C3B4F",
"a-	c #353245",
"b-	c #302D3E",
"c-	c #252131",
"d-	c #25212F",
"e-	c #1E1A27",
"f-	c #231F2D",
"g-	c #262231",
"h-	c #272332",
"i-	c #322C3C",
"j-	c #312839",
"k-	c #312739",
"l-	c #32283B",
"m-	c #352C3F",
"n-	c #362D41",
"o-	c #221A29",
"p-	c #292435",
"q-	c #3D3749",
"r-	c #3E384A",
"s-	c #4D4A5C",
"t-	c #555365",
"u-	c #4D4B5E",
"v-	c #383345",
"w-	c #363143",
"x-	c #363043",
"y-	c #423F52",
"z-	c #4B495C",
"A-	c #363348",
"B-	c #211C2E",
"C-	c #2A2539",
"D-	c #211D2E",
"E-	c #150F1E",
"F-	c #3C3A43",
"G-	c #35323D",
"H-	c #3E3C46",
"I-	c #3A3841",
"J-	c #35333C",
"K-	c #302B37",
"L-	c #3A3843",
"M-	c #434251",
"N-	c #454555",
"O-	c #4B4D5D",
"P-	c #535666",
"Q-	c #696C79",
"R-	c #1C182B",
"S-	c #464861",
"T-	c #43445A",
"U-	c #3D3D51",
"V-	c #3B3A4D",
"W-	c #383548",
"X-	c #363345",
"Y-	c #2D2B3B",
"Z-	c #201C2B",
"`-	c #2D2736",
" ;	c #2E2637",
".;	c #2F2637",
"+;	c #3A3348",
"@;	c #3C344A",
"#;	c #1C1523",
"$;	c #332E40",
"%;	c #484557",
"&;	c #464254",
"*;	c #474456",
"=;	c #4F4C5E",
"-;	c #565568",
";;	c #5D5D70",
">;	c #342E40",
",;	c #393549",
"';	c #3E3C4F",
");	c #3C384D",
"!;	c #2E2A3F",
"~;	c #181324",
"{;	c #282337",
"];	c #130D1B",
"^;	c #282531",
"/;	c #3F3F46",
"(;	c #38363F",
"_;	c #37353E",
":;	c #36353D",
"<;	c #35343C",
"[;	c #3B3944",
"};	c #41404E",
"|;	c #434352",
"1;	c #484858",
"2;	c #535565",
"3;	c #252434",
"4;	c #424258",
"5;	c #3C3B4E",
"6;	c #3C3C4E",
"7;	c #3A3A4B",
"8;	c #363545",
"9;	c #343342",
"0;	c #343341",
"a;	c #2F2E3C",
"b;	c #1F1B2A",
"c;	c #15111D",
"d;	c #1A1621",
"e;	c #1C1924",
"f;	c #100B16",
"g;	c #120D19",
"h;	c #1A1523",
"i;	c #1B1523",
"j;	c #191321",
"k;	c #221D2C",
"l;	c #413F50",
"m;	c #454254",
"n;	c #3F3D4E",
"o;	c #2C2938",
"p;	c #444353",
"q;	c #464657",
"r;	c #49495A",
"s;	c #282533",
"t;	c #1F1A2A",
"u;	c #241F31",
"v;	c #231F31",
"w;	c #231F32",
"x;	c #272436",
"y;	c #221E2F",
"z;	c #1C172A",
"A;	c #1A1526",
"B;	c #130E1C",
"C;	c #16111E",
"D;	c #302D39",
"E;	c #2E2B34",
"F;	c #35323B",
"G;	c #37363E",
"H;	c #38373F",
"I;	c #3C3A45",
"J;	c #3D3B47",
"K;	c #3E3D4A",
"L;	c #403F4D",
"M;	c #434351",
"N;	c #494A5A",
"O;	c #363648",
"P;	c #3C3C4F",
"Q;	c #3A3A4C",
"R;	c #393849",
"S;	c #383748",
"T;	c #363544",
"U;	c #31303F",
"V;	c #323140",
"W;	c #41424F",
"X;	c #2F2D3B",
"Y;	c #32313F",
"Z;	c #333240",
"`;	c #32303E",
" >	c #272331",
".>	c #3C3A4A",
"+>	c #444352",
"@>	c #3A3848",
"#>	c #363344",
"$>	c #343142",
"%>	c #242130",
"&>	c #1F1A29",
"*>	c #1C1725",
"=>	c #181320",
"->	c #16111F",
";>	c #1D172A",
">>	c #1C1729",
",>	c #1B1527",
"'>	c #191325",
")>	c #1B1526",
"!>	c #2D2043",
"~>	c #44315B",
"{>	c #3E2E55",
"]>	c #261D37",
"^>	c #312E3A",
"/>	c #312E38",
"(>	c #393740",
"_>	c #3D3D43",
":>	c #3F3D4A",
"<>	c #3D3C47",
"[>	c #3D3D4C",
"}>	c #39394A",
"|>	c #373646",
"1>	c #302F3E",
"2>	c #302F3D",
"3>	c #312F3D",
"4>	c #2C2937",
"5>	c #292533",
"6>	c #221E2B",
"7>	c #1A1625",
"8>	c #2E2A3C",
"9>	c #555463",
"0>	c #3D3D49",
"a>	c #40404C",
"b>	c #464855",
"c>	c #444552",
"d>	c #3E3D4C",
"e>	c #464754",
"f>	c #464A58",
"g>	c #414352",
"h>	c #3D3F4D",
"i>	c #393947",
"j>	c #32303F",
"k>	c #272232",
"l>	c #231E2D",
"m>	c #38384A",
"n>	c #343246",
"o>	c #333144",
"p>	c #343045",
"q>	c #39304D",
"r>	c #3E3254",
"s>	c #3E2C56",
"t>	c #594076",
"u>	c #543C6E",
"v>	c #3B2B50",
"w>	c #1E1927",
"x>	c #312E39",
"y>	c #3C3C43",
"z>	c #3D3E43",
"A>	c #3B3B42",
"B>	c #41414F",
"C>	c #3D3C4B",
"D>	c #383849",
"E>	c #2F2D3C",
"F>	c #2E2C3A",
"G>	c #353442",
"H>	c #3A3B47",
"I>	c #3A3A47",
"J>	c #40404D",
"K>	c #2E2D39",
"L>	c #2D2A38",
"M>	c #25212E",
"N>	c #322E40",
"O>	c #4E4D5B",
"P>	c #363541",
"Q>	c #32333E",
"R>	c #424652",
"S>	c #2F2E3B",
"T>	c #5A5E6B",
"U>	c #4E525D",
"V>	c #3F414D",
"W>	c #3E404B",
"X>	c #3F414C",
"Y>	c #40434F",
"Z>	c #171622",
"`>	c #404451",
" ,	c #484C5A",
".,	c #474C59",
"+,	c #444854",
"@,	c #353247",
"#,	c #36304A",
"$,	c #44355B",
"%,	c #543E71",
"&,	c #705693",
"*,	c #55406F",
"=,	c #3C2C52",
"-,	c #1A1425",
";,	c #191520",
">,	c #2C2B32",
",,	c #393A40",
"',	c #36353E",
"),	c #3E3C47",
"!,	c #3E3D48",
"~,	c #3F3D4B",
"{,	c #3D3C4A",
"],	c #393748",
"^,	c #363546",
"/,	c #353443",
"(,	c #2E2D3B",
"_,	c #363543",
":,	c #3C3D49",
"<,	c #2A2A34",
"[,	c #33323F",
"},	c #24202D",
"|,	c #1B1626",
"1,	c #393648",
"2,	c #393844",
"3,	c #33323C",
"4,	c #464A56",
"5,	c #3B3B46",
"6,	c #3A3A45",
"7,	c #3D3F4A",
"8,	c #474B58",
"9,	c #424552",
"0,	c #444553",
"a,	c #444053",
"b,	c #3D344E",
"c,	c #3D324F",
"d,	c #423556",
"e,	c #544171",
"f,	c #705A8F",
"g,	c #43365D",
"h,	c #211A2E",
"i,	c #181220",
"j,	c #1D1A27",
"k,	c #31303A",
"l,	c #34333C",
"m,	c #35343D",
"n,	c #36353F",
"o,	c #37363F",
"p,	c #3A3842",
"q,	c #3B3947",
"r,	c #373546",
"s,	c #474856",
"t,	c #434451",
"u,	c #3B3C48",
"v,	c #393946",
"w,	c #201C2A",
"x,	c #383742",
"y,	c #4E515D",
"z,	c #41434E",
"A,	c #35333E",
"B,	c #35343F",
"C,	c #383842",
"D,	c #3C3C47",
"E,	c #403F4C",
"F,	c #41434F",
"G,	c #454755",
"H,	c #4A4B5A",
"I,	c #454154",
"J,	c #3E3350",
"K,	c #45365C",
"L,	c #45385B",
"M,	c #44365D",
"N,	c #20192C",
"O,	c #211F2C",
"P,	c #40404B",
"Q,	c #31303C",
"R,	c #312F3C",
"S,	c #33313C",
"T,	c #383544",
"U,	c #383647",
"V,	c #393647",
"W,	c #383546",
"X,	c #373545",
"Y,	c #2E2C3B",
"Z,	c #2D2937",
"`,	c #333140",
" '	c #484857",
".'	c #1A1524",
"+'	c #464355",
"@'	c #3F404B",
"#'	c #444651",
"$'	c #3B3A46",
"%'	c #3B3B45",
"&'	c #36343F",
"*'	c #34323D",
"='	c #373640",
"-'	c #41414E",
";'	c #494A59",
">'	c #484756",
",'	c #413952",
"''	c #403452",
")'	c #433756",
"!'	c #413752",
"~'	c #372E4B",
"{'	c #20192B",
"]'	c #16101E",
"^'	c #3C3C48",
"/'	c #33323D",
"('	c #2E2C39",
"_'	c #302E3B",
":'	c #322F3E",
"<'	c #33303F",
"['	c #333040",
"}'	c #343141",
"|'	c #302E3D",
"1'	c #2C2836",
"2'	c #40404E",
"3'	c #1B1623",
"4'	c #292534",
"5'	c #383743",
"6'	c #383643",
"7'	c #393744",
"8'	c #35343E",
"9'	c #363640",
"0'	c #41404D",
"a'	c #484856",
"b'	c #464253",
"c'	c #443A55",
"d'	c #423755",
"e'	c #363047",
"f'	c #1F182A",
"g'	c #150E1D",
"h'	c #2D2B38",
"i'	c #2F2E3D",
"j'	c #2A2634",
"k'	c #3D3A49",
"l'	c #3A3845",
"m'	c #34323E",
"n'	c #32303B",
"o'	c #474654",
"p'	c #453F53",
"q'	c #443C54",
"r'	c #413B51",
"s'	c #373148",
"t'	c #1E1729",
"u'	c #140D1C",
"v'	c #201D2B",
"w'	c #2B2936",
"x'	c #2A2833",
"y'	c #2A2834",
"z'	c #2B2935",
"A'	c #2B2735",
"B'	c #373443",
"C'	c #34303C",
"D'	c #332F3B",
"E'	c #33303B",
"F'	c #373542",
"G'	c #32303A",
"H'	c #34333D",
"I'	c #3A3A44",
"J'	c #464452",
"K'	c #464353",
"L'	c #454053",
"M'	c #3F394F",
"N'	c #322C41",
"O'	c #1D1627",
"P'	c #282632",
"Q'	c #292732",
"R'	c #201C29",
"S'	c #140F1C",
"T'	c #1D1827",
"U'	c #322F3D",
"V'	c #35313D",
"W'	c #34313C",
"X'	c #383741",
"Y'	c #42414F",
"Z'	c #434050",
"`'	c #403A4F",
" )	c #2F2A3D",
".)	c #1D1628",
"+)	c #130E1B",
"@)	c #1F1C2A",
"#)	c #23232F",
"$)	c #252531",
"%)	c #292733",
"&)	c #2A2934",
"*)	c #302E3C",
"=)	c #302F3C",
"-)	c #262230",
";)	c #363341",
">)	c #373440",
",)	c #36323E",
"')	c #34313D",
"))	c #393842",
"!)	c #3F3C49",
"~)	c #42404E",
"{)	c #444051",
"])	c #423E4F",
"^)	c #14101C",
"/)	c #1E1B28",
"()	c #22222E",
"_)	c #292833",
":)	c #2B2B36",
"<)	c #2B2C37",
"[)	c #2B2D38",
"})	c #2E2D3A",
"|)	c #333440",
"1)	c #31303D",
"2)	c #32333F",
"3)	c #33333F",
"4)	c #31313D",
"5)	c #343042",
"6)	c #1A1323",
"7)	c #3B3747",
"8)	c #383542",
"9)	c #37333F",
"0)	c #393540",
"a)	c #3F3E49",
"b)	c #403D4A",
"c)	c #3A3744",
"d)	c #191622",
"e)	c #272631",
"f)	c #292A35",
"g)	c #2A2A36",
"h)	c #2B2E39",
"i)	c #2C2F39",
"j)	c #31333E",
"k)	c #323540",
"l)	c #343641",
"m)	c #353742",
"n)	c #363742",
"o)	c #363843",
"p)	c #312B3E",
"q)	c #1A1423",
"r)	c #2F2C38",
"s)	c #342F3C",
"t)	c #38333F",
"u)	c #383440",
"v)	c #36333E",
"w)	c #35323E",
"x)	c #3E3B48",
"y)	c #393543",
"z)	c #383442",
"A)	c #120F1B",
"B)	c #14111D",
"C)	c #282732",
"D)	c #262632",
"E)	c #252631",
"F)	c #2C303A",
"G)	c #31353F",
"H)	c #383944",
"I)	c #393A45",
"J)	c #3A3B46",
"K)	c #373944",
"L)	c #353642",
"M)	c #302B3E",
"N)	c #3F3A49",
"O)	c #393542",
"P)	c #37323F",
"Q)	c #342E3C",
"R)	c #342E3B",
"S)	c #393440",
"T)	c #3B3742",
"U)	c #3A3641",
"V)	c #110D19",
"W)	c #282635",
"X)	c #242430",
"Y)	c #24232F",
"Z)	c #2A2B36",
"`)	c #2C2F3A",
" !	c #2D313B",
".!	c #333641",
"+!	c #333640",
"@!	c #393B46",
"#!	c #3A3C47",
"$!	c #383547",
"%!	c #2D283A",
"&!	c #191322",
"*!	c #5E5B6B",
"=!	c #3F3949",
"-!	c #383240",
";!	c #332C3A",
">!	c #363240",
",!	c #100C18",
"'!	c #2E2D3D",
")!	c #24242F",
"!!	c #2A2C37",
"~!	c #32353F",
"{!	c #383A45",
"]!	c #333241",
"^!	c #251F2E",
"/!	c #4E495D",
"(!	c #403A4A",
"_!	c #3D3746",
":!	c #38343F",
"<!	c #37343F",
"[!	c #34303B",
"}!	c #332E39",
"|!	c #312C37",
"1!	c #36333F",
"2!	c #373340",
"3!	c #36323F",
"4!	c #312C38",
"5!	c #181421",
"6!	c #252332",
"7!	c #22212E",
"8!	c #272833",
"9!	c #2E323C",
"0!	c #373844",
"a!	c #343242",
"b!	c #31303E",
"c!	c #292635",
"d!	c #211A29",
"e!	c #2E293A",
"f!	c #403A4B",
"g!	c #3E3848",
"h!	c #35303C",
"i!	c #322D38",
"j!	c #302B36",
"k!	c #332F3A",
"l!	c #322E39",
"m!	c #201C28",
"n!	c #0F0C18",
"o!	c #211F2E",
"p!	c #292B36",
"q!	c #2E333C",
"r!	c #363643",
"s!	c #353342",
"t!	c #343241",
"u!	c #1F1827",
"v!	c #3A3643",
"w!	c #342F3A",
"x!	c #2F2934",
"y!	c #2F2A35",
"z!	c #231F2B",
"A!	c #2B2E38",
"B!	c #3C3E49",
"C!	c #373744",
"D!	c #4F4F5D",
"E!	c #221F2D",
"F!	c #65606C",
"G!	c #5A5662",
"H!	c #3D3846",
"I!	c #3B3643",
"J!	c #342F3B",
"K!	c #302A35",
"L!	c #2A2632",
"M!	c #15121F",
"N!	c #1A1826",
"O!	c #262732",
"P!	c #2E303C",
"Q!	c #3B3D48",
"R!	c #464655",
"S!	c #181321",
"T!	c #272231",
"U!	c #6E6A77",
"V!	c #433C4C",
"W!	c #302A37",
"X!	c #2D2833",
"Y!	c #272430",
"Z!	c #1B1927",
"`!	c #1E1C29",
" ~	c #21212D",
".~	c #2F343D",
"+~	c #30343E",
"@~	c #353741",
"#~	c #444650",
"$~	c #41444E",
"%~	c #3E414B",
"&~	c #40414E",
"*~	c #333141",
"=~	c #191523",
"-~	c #221D2A",
";~	c #5F5A68",
">~	c #3D3546",
",~	c #2E2933",
"'~	c #2C252F",
")~	c #2E2934",
"!~	c #2B2632",
"~~	c #25222F",
"{~	c #1C1A27",
"]~	c #282934",
"^~	c #42454F",
"/~	c #464953",
"(~	c #42444F",
"_~	c #595B67",
":~	c #494958",
"<~	c #232030",
"[~	c #16121F",
"}~	c #504B59",
"|~	c #352E3D",
"1~	c #2C2630",
"2~	c #2D2630",
"3~	c #2C2732",
"4~	c #292531",
"5~	c #23202D",
"6~	c #120F1C",
"7~	c #1F1E2B",
"8~	c #252732",
"9~	c #30353E",
"0~	c #373843",
"a~	c #40434D",
"b~	c #434650",
"c~	c #484A54",
"d~	c #434550",
"e~	c #4C4F5A",
"f~	c #40414D",
"g~	c #2D2C38",
"h~	c #1C1927",
"i~	c #494452",
"j~	c #2F2A34",
"k~	c #2B242E",
"l~	c #2A242E",
"m~	c #29222C",
"n~	c #29232D",
"o~	c #2A242D",
"p~	c #2A232D",
"q~	c #2B252F",
"r~	c #2C2530",
"s~	c #2B2631",
"t~	c #110E1B",
"u~	c #110E19",
"v~	c #201F2C",
"w~	c #23222F",
"x~	c #292A36",
"y~	c #2C313A",
"z~	c #2D313A",
"A~	c #2E323B",
"B~	c #353641",
"C~	c #42444E",
"D~	c #50535E",
"E~	c #32313D",
"F~	c #211B27",
"G~	c #504B58",
"H~	c #28222C",
"I~	c #28232E",
"J~	c #25212D",
"K~	c #110E1A",
"L~	c #292737",
"M~	c #2C2F38",
"N~	c #3F424C",
"O~	c #1E1A29",
"P~	c #28232F",
"Q~	c #46414D",
"R~	c #27212A",
"S~	c #27202A",
"T~	c #27212B",
"U~	c #272029",
"V~	c #262029",
"W~	c #26212B",
"X~	c #201D27",
"Y~	c #2E2C3D",
"Z~	c #272733",
"`~	c #3C3D48",
" {	c #2B242F",
".{	c #261F29",
"+{	c #261F28",
"@{	c #28212B",
"#{	c #251E28",
"${	c #241E27",
"%{	c #231D27",
"&{	c #1D1B25",
"*{	c #1C1A24",
"={	c #13111C",
"-{	c #272535",
";{	c #252532",
">{	c #2D323B",
",{	c #343540",
"'{	c #2A2430",
"){	c #221D26",
"!{	c #201C25",
"~{	c #0E0B17",
"{{	c #171522",
"]{	c #1C1A28",
"^{	c #1E1D2A",
"/{	c #2E303B",
"({	c #2F313C",
"_{	c #31303B",
":{	c #32323D",
"<{	c #33333E",
"[{	c #27212E",
"}{	c #332D39",
"|{	c #241D27",
"1{	c #221C26",
"2{	c #14111E",
"3{	c #1B1826",
"4{	c #1E1C2A",
"5{	c #2D2F3A",
"6{	c #2C2D38",
"7{	c #2F323C",
"8{	c #34343F",
"9{	c #2F2C39",
"0{	c #2E2C38",
"a{	c #23212E",
"b{	c #241E2A",
"c{	c #251F28",
"d{	c #1F1C25",
"e{	c #191722",
"f{	c #272635",
"g{	c #2A2938",
"h{	c #282834",
"i{	c #2C2E37",
"j{	c #2C2E38",
"k{	c #2D2C37",
"l{	c #282633",
"m{	c #211B28",
"n{	c #2A242F",
"o{	c #29232E",
"p{	c #181622",
"q{	c #211F2D",
"r{	c #343244",
"s{	c #262532",
"t{	c #2B2C35",
"u{	c #2B2C36",
"v{	c #2B2B35",
"w{	c #2B2A35",
"x{	c #1D1928",
"y{	c #1F1B24",
"z{	c #1D1B24",
"A{	c #242231",
"B{	c #333143",
"C{	c #2C2E39",
"D{	c #292933",
"E{	c #2C2B36",
"F{	c #2E2B38",
"G{	c #231F2E",
"H{	c #1B1726",
"I{	c #1E1A23",
"J{	c #211C25",
"K{	c #1A1822",
"L{	c #181522",
"M{	c #302E3F",
"N{	c #252330",
"O{	c #272630",
"P{	c #26252F",
"Q{	c #120E1A",
"R{	c #221E2A",
"S{	c #171521",
"T{	c #161420",
"U{	c #242330",
"V{	c #22212C",
"W{	c #272433",
"X{	c #13101C",
"Y{	c #292835",
"Z{	c #33313E",
"`{	c #29242E",
" ]	c #2F2D3E",
".]	c #22202B",
"+]	c #2C2C36",
"@]	c #33303D",
"#]	c #1A1624",
"$]	c #171320",
"%]	c #251E27",
"&]	c #181521",
"*]	c #24242D",
"=]	c #1B1924",
"-]	c #262433",
";]	c #312F40",
">]	c #23212C",
"    . . + @ # $ $ % % % % & * = - ; > , ' ) ! ~ { ] ^ / ( ( ( ( ( ( / ^ ^ _ : : : : : : < [ } | 1 2 2 2 1 3 4 4 4 4 4 4 4 4 4 4 ",
". 5 6 7 7 8 % * 9 $ 0 0 0 * a b c d e a f g h i ~ j k l m ^ / n / o m ^ ^ p : : : : : q r s t u v 2 2 w 4 4 4 x y y 4 x z 4 x A ",
"B 0 C 9 D 9 - E E * 9 F G H I J K L M N O P Q R 6 S T U V W X Y ] W W Z ^ _ : : : : : ` r s  ...+.2 2 @.x #.$.%.z #.&.#.#.#.#.#.",
"0 G *.=.a -.;.>.,.'.-.).!.;.~.K {.].^./.(._.R :.<.d [.}.|.V 1.W W W W Z W 2.: : : : : : r 3.4.5.3 w 2 6.y &.7.8.7.9.9.0.a.0.b.c.",
"D d.e.e.f.g.h.i.h.j.k.!.l.m.n.o.p.q.r.s.t.u.g v.w.<.h x.[.y.~ j j j z.j j A.B.C.: : D.: E.s F.G.1 @.4 4 #.7.H.3.I.&.J.K.L.M.N.O.",
"}.P.Q.R.S.T.U.V.W.X.Y.Z.`. +a .+++@+#+$+%+&+6 *+=+-+;+>+[.[.x.T U U S j ,+'+)+B.B.B.!+~+< {+]+^+/+(+_+_+:+/+<+'+[+3.<+3.[+}+|+b.",
"1+2+3+2+4+5+6+7+8+5+9+0+a+b+c+d+e+f+g+h+i+i+i+i+@+j+j+k+l+l+m+n+o+p+q+'+r+s r+s r+s+t+r+u+v+w+x+y+z+A+B+C+D+; E+F+G+H+] I+J+q+K+",
"L+M+M+N+O+P+Q+R+S+T+U+V+W+X+Y+Z+`+ @.@+@@@#@$@%@#@&@*@=@-@;@>@,@'@-@)@!@~@{@]@^@/@(@/@_@:@<@[@}@|@1@2@2@3@4@5@6@7@8@9@0@a@b@c@d@",
"e@f@g@h@i@j@k@l@m@n@n+o@p@q@r@s@t@u@v@w@x@y@z@A@B@C@D@E@F@G@H@I@J@K@L@M@N@O@P@Q@R@R@P@S@T@U@V@W@X@Y@2@Z@`@ #.#.#o@+#@###$#$#%#&#",
"*#=#-#;#>#,#'#)#!#~#o+{#]#^#/#(#_#:#<#[#}#|#A@1#B@C@2#3#G@4#5#5#6#7#8#9#0#P@P@P@a#P@Q@b#c#T@ .d#e#f#g#h# #i#j#.#k#l###m#%#n#%#o#",
"*#p#q#r#s#,#t#u#v#=+w#x#y#z#A#B#C#D#E#}#F#y@G#1#1#C@H#I#G@J#K#L#J#G@M#N#O#P@P#Q#R#Q#S#T#U#V#W#X#X#Y# #Z#`# $.$+$.#@$#$%#$$%$m#&$",
"*$e@q#s#=$-$t#;$>$,$'$)$!$~${$]$^$/$[#($($_$1#1#1#:$<$1#[$}$|$6#|$1$2$,@3$R#R#R#R#R#a#4$5$6$7$8$X#9$0$.$ $a$ $b$.#c$d$%$e$f$g$h$",
"i$*#j$j$k$l$m$n$>#o$p$q$r$s$t$u$v$w$[#x$($y$z$A$z$B$1#1#G#C$|$D$|$H@M#M#M#E$R#R#R#R#F$G$H$6$I$J$X#K$.$L$a$ $ $L$.$M$N$O$f$f$P$h$",
"*$Q$R$R$S$T$>#U$V$W$U+X$Y$Z$`$`$ %.%[#[#F#|#y$+%@%A@1#1#A@J#|$D$4##%$%M#M##%%%&%*%=%-%;%>%,%'%)%!%`@~%a$a$a$a$L$.$.${%O$f$]%e$%#",
"*$^%=$/%(%_%S$:%_%<%[%}%|%1%`$`$`$2%3%[#[#}#4%+%5%z$G#G#z$}$|$4#6%#%7%8%9%7%0%a%b%c%d%e%f%g%h%i%Y#j#.$a$a$a$a$ $j%k%N$]%l%m%n%#$",
"o%Q$=$p%(%q%r%s%t%u%v%w%x%.%y%`$`$v$z%E#A%[#B%C%D%A$z$z$E%F%1$G%H%I%I%%%%%J%K%L%M%N%N%O%f%g%V#P%f Q%R%S% $a$a$ ${%O$N$T%l%m%U%]%",
"V%:%W%S$r%X%q%X%Y%Z%`% &.&+&@&#&$&v$%&&&*&=&-&5%z$E%;&>&,&6#'&)&!&~&{&]&^&K%/&(&_&:&<&[&}&|&1&2&3&4&5&6&L$ $7&L$8&9&N$N$l%U%f$f$",
"0&a&b&c&S$d&%$n%c@e&f&g&h&i&i&j&k&l&%&3%m&($($4%n&o&}$,&!&!&!&!&p&q&q&r&a%s&t&u&v&w&x&y&z&6$A&B&C&D&R%E&.$.$.$.$E&]%N$N$T%%$X%f$",
"0&F&G&G&H&d&I&]%J&9+K&L&M&<#%&i&j&@&N&O&P&($($($($Q&@@}$!&!&!&!&p&q&{&R&S&T&(&v&v&U&V&W&X&Y&Z&`& *.*.$.$.$.$+*.$@*]%N$O$#*q%X%%$",
"V%c&$*$*%*&*s%**=*j+-*;*>*.&&&,*/$%&,*'*)*g&!*Q&o&~*@@{*,&!&!&!&!&r&]*c+^*/*(*_*:*<*[*}*|*1*|&2*3*E&.$.$`#4*5*6*7*f$O$X%s%8*q%%$",
"F&G&9*0*a*b*c*d*e*f*g*h*i*M&j*!%k*x%l*m*n*o*}$}$p*q*@@@@C$r*!&s*,&t*u*c+c+r*v*w*x*y*z*A*B*C*g%D*E*.$E&.$+*F*F*G*H*%$q%q%I*J*K*I*",
"c&L*M*N*O*c P*Q*R*S*T*U*h*g&>*V*j*W*X*Y*D$[$[$Z*{*C$[$@@@@}$`*|$ =v*.=+=c+u*@=#=$=%=&=*===-=g%;=>=.$,=5*F*'=)=!=~=q%{=q%8*{=]=^=",
"/=(=_=:=<=[=}=|=[+1=4@`&U*h*g&g&V*>*g&g&o*Z*Z*Z*[$}${*@@@@}$s*t*.=2=3=4=5=6=7=8=9=0=a=b=c=-=g%d=e=>=i#f=K$* g=h=1.i=j=K*J*k=l=m=",
"n=D o=p=q=r=s=@+9+K&t=u=`&U*v=g&w=x=y=y=D$C$Z*[$}$z=A=<$C$`*B=.=C=D=E=F=v*v*7=#=G=H=I=J=K=L=M=N=O=e=5&P=Q=n+R=,%,%P%f*[%( S=y.T=",
"U=V=W=X=Y=Z=`=D@2#K& -.-+-@-U*#-}$D$}$}$}$}${*z=|$!*$-%-&-*-=---;->-,-'-.=v*v*)-!-~-{-]-N@^-/-g%N=v%(-_-:-<-<-S%[-}-|-1-2-3-4-5-",
"6-7-8-9-0-a-b-c-`=L d-e-f-g-h-U*i*i-j-}$}$}$k-l-m-n-o-p---q-r-;->-s-t-u-v-w-x-y-z-A-B-C-D-L=E-|&.-F-G-H-I-J-K-5*L-`.M-N-O-P-Q-R-",
"S-T-9-U-V-W-X-Y-Z-@+D@R=`=].1=f-`-w% ;.;.;}$!*n-+;@;#;$;%;&;*;%;=;-;;;*;>;v*,;';);!;~;{;M@1*];S*^;/;(;_;:;:;<;_;[;0@-.};|;1;2;3;",
"4;5;6;7;8;9;0;0;a;b;c;d;,+,+e;k+e&f;g;`=Z=h;i;j;k;c+P%l;m;n;l;o;p;q;r;s;t;u;v;w;x;y;~;z;A;B;C;^.D;E;F;I-G;H;##I;0@J;-.K;L;M;N;O;",
"P;Q;R;S;T;U;V;0;0;W;, X;Y;Z;`;/. >> q..>+>@>#>$>%>S*.-&>f&*>`%h;=>`=C;->;>>>,>'>)>7$!>~>{>]>i;u=^>/>(>_>d@I-I-0@Y.`.:>0@<>P*|;[>",
"}>7;S;S;|>1>2>0;0;Y;3>Y;0;0;Z;4>5>6>7>8>9>0>a>b>c>s;d>e>f>g>h>i>j>k>l>m>n>n>o>p>q>r>s>t>u>v>->w>x>_;y>z>A>I-0@-.Y.-.<><>-.`.B>C>",
"R;D>S;S;8;E>F>1>0;V;0;G>H>I>J>K>L>M>q.N>O>P><.Q>R>S>T>U>V>W>X>Y>Q>Z>`> ,.,+,w*@,#,$,%,&,*,=,-,,%;,>,,,d@',##0@),0@<>!,:>`.~,{,],",
"S;S;^,T;/,(,F>(,Y;Y;0;_,c>:,:,<,[,},|,1,`.P>2,3,4,V>W>5,6,6,:.R+7,<@8,9,R>R>0,a,b,c,d,e,f,g,h,i,j,k,l,m,m,n,o,p,I;q,'.{,K;{,],r,",
"|>|>V;1>1>E>F>F>a;U;Z;0;s,t,u,v,3>w,q.m;~,x,g.y,z,6,<.A,B,v.v.C,R+D,'.E,F,R>G,H,I,J,J,K,L,M,N,i,O,P,m,Q,$ R,h S,(;T,U,U,V,W,X,$>",
"Z;0;1>1>X;Y,F>F>Z,F>2>`,Z; '`;`;/.w>.'+'~,@'#'$'%'w.&'*'R ='v.v.v.v.v.:.:>W;-';'>',''')'!'~'{']'!+^'/'$ s.('('('_':'`;<'['<'$>}'",
"1>1>1>|'F>F>F>F>1'1'1'L>/.3>2'/.5>3'5$4'`;5'6'- V.7'l#*'*'*'8'-+B,*'9'v.E :>0'a'a'b'c')'d'e'f'g'!+3>_'('n@&+&+&+h'h'('('s.R,R,R,",
"i'1>1>(,F>F>F>F>1'1'1'1'j'j'4>L> >Z=d=k'l'*'l#m'- D A,n'd S,*'*'*'*'*'9'C,J;J>o'o'E=p'q'r's't'u'v'w'n@&+x'x'y'&+&+z'&+n@h'('h'('",
"F>i'(,F>F>F>F>F>Z,1'1'A'5>5>5>5>d-R=.-B'C'D'E'*'A,F'l#G'7 n'*'*'*'*'*'H'v.I').Z.J'K'L'L'M'N'O'|&8@P'y'x'Q'Q'Q'Q'Q'y'Q'z'n@('h'&+",
"F>F>F>F>F>F>F>F>F>Z,1'5>5>5>5>5>R'S'T'U'C'D'V'W'*'W'n'7 7 n'*'*'*'n,n,<.X'V.J;:>0'Y'Z'L'`' ).)+)@)#)$)$)Q'Q'Q'Q'Q'Q'Q'%)&)&+&+&+",
"F>F>F>S>*)F>F>*)*)=)/.A'5>5>j'j'-)]'.-;)>)C',)C'C'')G-W'S,*'*'*'*'-+))<>=.V.V.'.!)0'~){)])X=5$^)/)+.()()$)P'z z z Q'#._)#.:)<)[)",
"F>F>})O.|)1)=)2)3)4)X;/.A'j'1'/.5)6)d=7)8),)V'9)0)0)9)9)*'*'*'R v.:.=.a)<>V.V.J;!):>b)J;c)X#d)^)e-O,I.2 #)$)$)$)e)Q'#.f)g)h)i)i)",
"S>4)j)k)l)l)m)n)o)l)1)`;/.A'Z,|'p)q)g+A&r)9),)s)t)u)v)w)w)w)*'B,v.:.Q <>V.=.x)!)'.*.*.y)z)f#A)B)@)O,O,O,()$)$)C)Q'Q'D)E)7.F)F)F)",
"G)G)k)l)l)H)I)I)J)K)L)Z;X;1'1'#>M)6)D*^>N)O)P)Q)R)S)T)T)U)9)w)A,='v.v.C,V.V.!)!)!)J;F z)z)f V)B)W)O,O,O,()#)X)e)C)Y)Y)Z)[)`)F) !",
"G).!l)+!l)@!#!@!#!#!I)L)=)('/.$!%!&!=@*!=!=!=!-!;!Q)U)T)T)U)w)H'*'*'8'v.C,w.x)!)J;E y)z)>!h+,!< '!O,O,O,()()#)$)X))!f)!![)i)F) !",
"G)k)~!G)m)@!#!#!@!{!_,]!=)X;`;,;V=6)^!/!(!=!=!_!R),):!T)T)<![!}!|!|!E'B,A,1!8)F z)* 2!3!4!5!s x+6!O,O,O,7!()()X)8!f)f)!![)i)F)9!",
"G)G)~!l)m)I)#!#!#!I)0!a!b!b!Y;a!c!->d!e!f!=!g!9)h!9),):!0)W'W'i!j!j!|!k!}!k!k!k!l!E'}!|!j!m!n!< o!O,O,I.2 7!()$)p!f)f)f)!![)F)q!",
"G)G)G)G).!o)@!#!#!#!I)r!a!s!t!a!P*L>R=u!T*g!v!i!i!w!}!W'*'E'k!i!j!x!x!|!}!}!i!|!j!i!}!j!y!z!,!< W@O,O,2 ()+.X)[)!!f)f)f)<)A! !q!",
"G)G)G)G)k)n)#!B!#!7,B!@!I)H)C!C!D!E!W*F!G!H!I!J!K!|!i!i!i!}!}!j!@*@*@*j!j!j!j!j!j!j!K!@*L!B+s M!N!!+7!()#)#)O!P!Z)f)f)!!i)i) !q!",
"G)G)G)G)k)o)Q!W>Q!W>W>Q!#!#!I)H)R!S!T!U!V!W!@*x!@*y!j!j!j!x!y!@*@*@*@*@*x!x!K!y!j!j!K!X!^;Y!A)< Z!`! ~#)D)8!Z)[)f)f)!![)F)F) !q!",
".~+~G)k)@~{!B!X>W>#~$~%~#!#!#!&~*~=~-~;~>~+*@*K!K!j!j!K!,~7&7*'~j%@*@*7*j%@*@*@*)~@*@*!~^;~~A)c;Z!N!{~#)]~f)[)Z)f)f)Z)h)F)F) !q!",
"q!q!G)l)l)H)Q!^~^~/~(~W>W>7,_~:~<~[~m+}~|~x!@*x!K!j!j!x!'~'~'~'~1~2~'~'~'~7&@*2~j%@*3~4~Y!5~6~A)}@x+w+7~8!p!8~[)Z)f)Z)h)F)F)q!q!",
"q!q!+~9~l)0~#!a~b~c~d~W>W>e~f~g~h~->m+i~6&@*@*@*@*x!j!j~k~'~l~m~n~n~o~p~q~'~'~'~r~s~L!^;~~8@t~u~v~w~X)O!]~Z)8~x~[)[)[)i)F)y~q!q!",
"q!z~A~.~~!B~I)7,z,c~C~W>W>d~D~E~7>T@F~G~x!@*@*@*@*)~@*7*m~l~n~H~H~H~H~H~H~H~m~H~I~~ J~C+C+T+A)K~L~$)D)]~]~f)!!!![)h)F)F)F) !q!q!",
"A~M~q!.~G)m)H)Q!X>^~N~W>W>W>W>{!O~c#P~Q~@*@*j%@*7&'~k~l~R~S~T~U~T~H~H~H~H~V~V~U~W~},z!~=T+X~6~A)Y~$)Z~]~]~f)!![)[)h)h)A!h)F) ! !",
"M~M~q!G)k)l)n){!7,X>I)Q!7,W>`~H)E!R=!~x!j% {n~'~k~n~H~H~.{+{+{+{T~H~H~@{V~#{${%{%{Z Z n &{*{n!={-{;{O!f)[)[)[)[)[)[)!![)[)i)`)h)",
"M~M~>{G)l)l)B~0~#!Q!n),{0~I)0~m) -R=m+'{q~k~l~k~H~H~H~H~S~+{+{+{U~T~R~+{+{#{%{%{%{){!{Q**{q ~{{{]{^{8!f)[)/{/{({!!]~]~Z)[)h)[)[)",
"M~M~M~q!G)+!L.l)J)I)n)_{_{h :{<{f-=>[{}{H~H~H~H~H~H~H~U~+{${+{+{+{+{+{+{+{+{|{1{){!{Q**{C.2{{+3{4{w~D)f)!!5{({({6{]~]~]~Z)[)[)[)",
"M~M~M~M~>{7{N.:{n)8{h 9{# 0{h'% a{=~b{;!n~H~R~U~+{U~U~+{${c{+{+{+{+{+{+{+{#{%{!{!{d{*{*{e{r E.f{g{Y)#)$)h{[)/{({5{]~]~]~f)[)[)[)",
"i{M~i{i{j{M.k{0{% h h ('%+%+4>h'l{q.m{b$n{o{S~+{+{#{${|{%{${+{${${#{+{#{%{%{/ !{( *{*{*{p{6~q{r{s{1 1 1 Y)]~5{({/{f)]~]~]~f)f)f)",
"t{u{v{v{v{<,<,<,w{k{# # 0{4>4>4>4.x{;=b$n{'{T~+{#{){y{/ / %{%{%{%{#{#{%{%{^ !{z{*{*{*{e{e{t~A{B{Y)1 1 1 1 O!C{({({f)]~]~]~]~]~]~",
"D{<,<,A A A y y A <,E{8 F{4>4>4>G{H{S!5&o{6*T~#{^ y{I{y{!{J{/ ){%{%{%{%{){!{!{z{*{*{K{e{L{K~A{M{N{1 1 1 X)$)!!({({Z)]~]~]~]~]~]~",
"O{y A   O{O{P{P{x y <,v{# 9{%+4>4.x{Q{:@R{T~+{){!{I{I{I{I{y{!{!{/ ){^ %{){/ Q**{*{e{S{T{2{n!A{Y~U{1 V{T.3 $)]~5{/{p!]~]~]~8!D)D)",
"P{P{y P{P{P{P{P{P{y A v{0{# # %+W{Z-X{Y{Z{`{+{%{y{I{I{I{I{I{y{!{/ !{!{!{!{d{*{*{K{q x+6~t~{+A{ ]1@.].].].])!8!<)5{f)]~Z~$)$)$))!",
"P{P{P{P{P{y     y A D{+]# @]7@s.@)#]$]2>2@s~T~%]!{!{I{I{I{I{I{y{I{I{!{!{d{p *{D.e{e{e{&]K~{+6! ]1 .].].].]6.$)]~]~8!D)$)4 *]*]*]",
"P{P{P{P{y A D{<,v{+]0{# R,7@7@7@v'X{L{g~# S `{.{/ J{J{!{I{I{I{I{I{I{y{!{d{*{=]e{e{e{e{e{y+s -];]T..].].].]>]$)D)$)$)H.*]*]*]*]*]"};
