/* XPM */
static char *fruit[] = {
"64 64 4 1",
" 	c #FF00FF",
"	c #FF0000",
"+	c #00FF00",
".	c #FFFF00",
"                                                                ",
"                                                                ",
"                                                                ",
"                                                                ",
"                                                                ",
"                                                                ",
"                                                                ",
"                                                                ",
"                                                                ",
"                                                                ",
"                                                                ",
"                                                                ",
"                                                                ",
"                                                                ",
"                                                                ",
"                                                                ",
"                                                                ",
"                                                                ",
"                                                                ",
"                                                                ",
"                                                                ",
"                                                                ",
"                                                                ",
"                                                                ",
"                                                                ",
"                                                                ",
"                                                                ",
"                                                                ",
"                                                                ",
"                                                                ",
"                                                                ",
"                                                                ",
"                                                                ",
"                                                                ",
"                                                                ",
"                                                                ",
"                     ..............                             ",
"                   ..................                           ",
"                 ......................                         ",
"                ........................                        ",
"               ..........................                       ",
"               ..........................                       ",
"              ............................                      ",
"              ............................                      ",
"              ............................                      ",
"              ............................                      ",
"              ............................                      ",
"              ............................                      ",
"              ............................                      ",
"               ..........................                       ",
"               ..........................                       ",
"                ........................                        ",
"                 ......................                         ",
"                  ....................                          ",
"                    ................                            ",
"                      ............                              ",
"                                                                ",
"                                                                ",
"                                                                ",
"                                                                ",
"                                                                ",
"                                                                ",
"                                                                ",
"                                                                "
};