/* XPM */
static char *food[] = {
"64 64 2 1",
" 	c #FF00FF",
"Y	c #FFFF00",
"                                                                ",
"                                                                ",
"                                                                ",
"                                                                ",
"                                                                ",
"                                                                ",
"                                                                ",
"                                                                ",
"                                                                ",
"                                                                ",
"                                                                ",
"                                                                ",
"                                                                ",
"                                                                ",
"                                                                ",
"                     YYYYYYYYYYYYYY                             ",
"                   YYYYYYYYYYYYYYYYYY                           ",
"                 YYYYYYYYYYYYYYYYYYYYYY                         ",
"                YYYYYYYYYYYYYYYYYYYYYYYY                        ",
"               YYYYYYYYYYYYYYYYYYYYYYYYYY                       ",
"               YYYYYYYYYYYYYYYYYYYYYYYYYY                       ",
"              YYYYYYYYYYYYYYYYYYYYYYYYYYYY                      ",
"              YYYYYYYYYYYYYYYYYYYYYYYYYYYY                      ",
"              YYYYYYYYYYYYYYYYYYYYYYYYYYYY                      ",
"              YYYYYYYYYYYYYYYYYYYYYYYYYYYY                      ",
"              YYYYYYYYYYYYYYYYYYYYYYYYYYYY                      ",
"              YYYYYYYYYYYYYYYYYYYYYYYYYYYY                      ",
"              YYYYYYYYYYYYYYYYYYYYYYYYYYYY                      ",
"               YYYYYYYYYYYYYYYYYYYYYYYYYY                       ",
"               YYYYYYYYYYYYYYYYYYYYYYYYYY                       ",
"                YYYYYYYYYYYYYYYYYYYYYYYY                        ",
"                 YYYYYYYYYYYYYYYYYYYYYY                         ",
"                  YYYYYYYYYYYYYYYYYYYY                          ",
"                    YYYYYYYYYYYYYYYY                            ",
"                      YYYYYYYYYYYY                              ",
"                                                                ",
"                                                                ",
"                                                                ",
"                                                                ",
"                                                                ",
"                                                                ",
"                                                                ",
"                                                                ",
"                                                                ",
"                                                                ",
"                                                                ",
"                                                                ",
"                                                                ",
"                                                                ",
"                                                                ",
"                                                                ",
"                                                                ",
"                                                                ",
"                                                                ",
"                                                                ",
"                                                                ",
"                                                                ",
"                                                                ",
"                                                                ",
"                                                                ",
"                                                                ",
"                                                                ",
"                                                                ",
"                                                                "
};
