/* XPM */
static char *fruit[] = {
"64 64 5 1",
"_	c #FF00FF",
"R	c #FF0000",
"G	c #00FF00",
"Y	c #FFFF00",
"B	c #8B4513",
"________________________________________________________________",
"________________________________________________________________",
"________________________________________________________________",
"________________________________________________________________",
"________________________________________________________________",
"________________________________________________________________",
"________________________________________________________________",
"________________________________________________________________",
"________________________________________________________________",
"___________________________GGGG_________________________________",
"__________________________GGGGGG________________________________",
"__________________________GGGGGG________________________________",
"__________________________GGGGGG________________________________",
"___________________________GGGG_________________________________",
"____________________________BB__________________________________",
"____________________________BB__________________________________",
"___________________________BB___________________________________",
"___________________________BB___________________________________",
"__________________________BB____________________________________",
"_______________________RRRRRRRR_________________________________",
"_____________________RRRRRRRRRRRR_______________________________",
"____________________RRRRRRRRRRRRRR______________________________",
"___________________RRRRRRRRRRRRRRRR_____________________________",
"__________________RRRRRRRRRRRRRRRRRR____________________________",
"__________________RRRRRRRRRRRRRRRRRR____________________________",
"_________________RRRRRRRRRRRRRRRRRRRR___________________________",
"_________________RRRRRRRRRRRRRRRRRRRR___________________________",
"_________________RRRRRRRRRRRRRRRRRRRR___________________________",
"_________________RRRRRRRRRRRRRRRRRRRR___________________________",
"_________________RRRRRRRRRRRRRRRRRRRR___________________________",
"_________________RRRRRRRRRRRRRRRRRRRR___________________________",
"_________________RRRRRRRRRRRRRRRRRRRR___________________________",
"_________________RRRRRRRRRRRRRRRRRRRR___________________________",
"_________________RRRRRRRRRRRRRRRRRRRR___________________________",
"_________________RRRRRRRRRRRRRRRRRRRR___________________________",
"_________________RRRRRRRRRRRRRRRRRRRR___________________________",
"_________________RRRRRRRRRRRRRRRRRRRR___________________________",
"__________________RRRRRRRRRRRRRRRRRR____________________________",
"__________________RRRRRRRRRRRRRRRRRR____________________________",
"___________________RRRRRRRRRRRRRRRR_____________________________",
"___________________RRRRRRRRRRRRRRRR_____________________________",
"____________________RRRRRRRRRRRRRR______________________________",
"_____________________RRRRRRRRRRRR_______________________________",
"______________________RRRRRRRRRR________________________________",
"_______________________RRRRRRRR_________________________________",
"________________________RRRRRR__________________________________",
"_________________________RRRR___________________________________",
"__________________________RR____________________________________",
"________________________________________________________________",
"________________________________________________________________",
"________________________________________________________________",
"________________________________________________________________",
"________________________________________________________________",
"________________________________________________________________",
"________________________________________________________________",
"________________________________________________________________",
"________________________________________________________________",
"________________________________________________________________",
"________________________________________________________________",
"________________________________________________________________",
"________________________________________________________________",
"________________________________________________________________",
"________________________________________________________________"};
