/* XPM */
static char *ghost1[] = {
"64 64 4 1",
"_	c #FF00FF",
"R	c #FF0000",
"W	c #FFFFFF",
"B	c #000000",
"________________________________________________________________",
"________________________________________________________________",
"________________________________________________________________",
"________________________________________________________________",
"__________________RRRRRRRRRRRRRRRRRRRRRRRRRR____________________",
"________________RRRRRRRRRRRRRRRRRRRRRRRRRRRRRR__________________",
"______________RRRRRRRRRRRRRRRRRRRRRRRRRRRRRRRRRR________________",
"____________RRRRRRRRRRRRRRRRRRRRRRRRRRRRRRRRRRRRRR______________",
"___________RRRRRRRRRRRRRRRRRRRRRRRRRRRRRRRRRRRRRRR______________",
"__________RRRRRRRRRRRRRRRRRRRRRRRRRRRRRRRRRRRRRRRRRR____________",
"_________RRRRRRRRRRRRRRRRRRRRRRRRRRRRRRRRRRRRRRRRRRR____________",
"_________RRRRRRRRRRRRRRRRRRRRRRRRRRRRRRRRRRRRRRRRRRR____________",
"________RRRRRRRRRRRRRRRRRRRRRRRRRRRRRRRRRRRRRRRRRRRR____________",
"________RRRRRRRRRRRRRRRRRRRRRRRRRRRRRRRRRRRRRRRRRRRR____________",
"________RRRRRRBBBBBBRRRRRRRRRRRRRRBBBBBBRRRRRRRRRRR_____________",
"________RRRRRBBBBBBBBRRRRRRRRRRRRBBBBBBBBRRRRRRRRRR_____________",
"________RRRRRBBBBBBBBRRRRRRRRRRRRBBBBBBBBRRRRRRRRRR_____________",
"________RRRRRBBBBBBBBRRRRRRRRRRRRBBBBBBBBRRRRRRRRRR_____________",
"________RRRRRBBBBBBBBRRRRRRRRRRRRBBBBBBBBRRRRRRRRR______________",
"________RRRRRRBBBBBBRRRRRRRRRRRRRRBBBBBBRRRRRRRRRRR_____________",
"________RRRRRRRRRRRRRRRRRRRRRRRRRRRRRRRRRRRRRRRRRR______________",
"________RRRRRRRRRRRRRRRRRRRRRRRRRRRRRRRRRRRRRRRRRR______________",
"________RRRRRRRRRRRRRRRRRRRRRRRRRRRRRRRRRRRRRRRRRR______________",
"________RRRRRRRRRRRRRRRRRRRRRRRRRRRRRRRRRRRRRRRRRR______________",
"________RRRRRRRRRRRRRRRRRRRRRRRRRRRRRRRRRRRRRRRRRR______________",
"________RRRRRRRRRRRRRRRRRRRRRRRRRRRRRRRRRRRRRRRRRR______________",
"________RRRRRRRRRRRRRRBBBBBBBBBBRRRRRRRRRRRRRRRRR_______________",
"________RRRRRRRRRRRRRRBBBBBBBBBBRRRRRRRRRRRRRRRRR_______________",
"________RRRRRRRRRRRRRRBBBBBBBBBBRRRRRRRRRRRRRRRRR_______________",
"________RRRRRRRRRRRRRRBBBBBBBBBBRRRRRRRRRRRRRRRRR_______________",
"________RRRRRRRRRRRRBBBBBBBBBBBBBBBBRRRRRRRRRRRRRR______________",
"________RRRRRRRRRRRRRRRRRBBBBBBBBBBRRRRRRRRRRRRRRRR_____________",
"________RRRRRRRRRRRRRRRRRBBBBBBRRRRRRRRRRRRRRRRRRR______________",
"________RRRRRRRRRRRRRRRRRRRRRRRRRRRRRRRRRRRRRRRRRR______________",
"________RRRRRRRRRRRRRRRRRRRRRRRRRRRRRRRRRRRRRRRRRR______________",
"________RRRRRRRRRRRRRRRRRRRRRRRRRRRRRRRRRRRRRRRRRR______________",
"________RRRRRRRRRRRRRRRRRRRRRRRRRRRRRRRRRRRRRRRRRR______________",
"________RRRRRRRRRRRRRRRRRRRRRRRRRRRRRRRRRRRRRRRRRR______________",
"________RRRRRRRRRRRRRRRRRRRRRRRRRRRRRRRRRRRRRRRRRR______________",
"________RRRRRRRRRRRRRRRRRRRRRRRRRRRRRRRRRRRRRRRRRR______________",
"________RRRRRRRRRRRRRRRRRRRRRRRRRRRRRRRRRRRRRRRRRR______________",
"________RRRRRRRRRRRRRRRRRRRRRRRRRRRRRRRRRRRRRRRRRR______________",
"________RRRRRRRRRRRRRRRRRRRRRRRRRRRRRRRRRRRRRRRRRR______________",
"________RRRRRRRRRRRRRRRRRRRRRRRRRRRRRRRRRRRRRRRRRR______________",
"________RRRRRRRRRRRRRRRRRRRRRRRRRRRRRRRRRRRRRRRRRR______________",
"________RRRRRRRRRRRRRRRRRRRRRRRRRRRRRRRRRRRRRRRRRR______________",
"________RRRRRRRRRRRRRRRRRRRRRRRRRRRRRRRRRRRRRRRRRR______________",
"________RRRRRRRRRRRRRRRRRRRRRRRRRRRRRRRRRRRRRRRRRR______________",
"________RRRRRRRRRRRRRRRRRRRRRRRRRRRRRRRRRRRRRRRRRR______________",
"________RRRRRRRRRRRRRRRRRRRRRRRRRRRRRRRRRRRRRRRRRR______________",
"________RRRRRRRRRRRRRRRRRRRRRRRRRRRRRRRRRRRRRRRRRR______________",
"________RRRRRRRRRRRRRRRRRRRRRRRRRRRRRRRRRRRRRRRRRR______________",
"________RRRRRRRRRRRRRRRRRRRRRRRRRRRRRRRRRRRRRRRRRR______________",
"________RRRRRRRRRRR___RRRRR___RRRRR___RRRRR___RRRR______________",
"________RRRRRRRRRR____RRRR____RRRR____RRRR____RRR_______________",
"________RRRRRRRRR_____RRR_____RRR_____RRR_____RRR_______________",
"_________RRRRRRR______RRR_____RRR_____RRR_____RR________________",
"_________RRRRRR_______RR______RR______RR______RR________________",
"_________RRRRR________RR______RR______RR______R_________________",
"__________RRRR________RR______RR______RR______R_________________",
"__________RRR_________R_______R_______R_______R_________________",
"___________RR_________R_______R_______R_________________________",
"___________RR_________R_______R_______R_________________________",
"____________R_________________R_________________________________",
"________________________________________________________________"};