/* XPM */
static char *ghost2[] = {
"64 64 4 1",
" 	c None",
".	c #00FF00",
"+	c #FFFFFF",
"x	c #000000",
"                                                                ",
"                                                                ",
"                                                                ",
"                      ......................                    ",
"                  ............................                  ",
"                ................................                ",
"              ....................................              ",
"            ........................................            ",
"          ............................................          ",
"          ............................................          ",
"        ..............................................          ",
"        ......xxxxx..........xxxxx....................          ",
"        ......xxxxx..........xxxxx....................          ",
"        ......xxxxx..........xxxxx....................          ",
"        ......xxxxx..........xxxxx....................          ",
"        ..............................................          ",
"        ..............................................          ",
"        ..............................................          ",
"        ..............................................          ",
"        ..............................................          ",
"        .................xxxxxxxx.....................          ",
"        .................xxxxxxxx.....................          ",
"        .................xxxxxxxx.....................          ",
"        ..............................................          ",
"        ..............................................          ",
"        ..............................................          ",
"        ..............................................          ",
"        ..............................................          ",
"        ..............................................          ",
"        ..............................................          ",
"        ..............................................          ",
"        ..............................................          ",
"        ..............................................          ",
"        ..............................................          ",
"        ..............................................          ",
"        ..............................................          ",
"        ..............................................          ",
"        ..............................................          ",
"        ..............................................          ",
"        ..............................................          ",
"        ..............................................          ",
"        ..............................................          ",
"        ..............................................          ",
"        ..............................................          ",
"        ..............................................          ",
"        ..............................................          ",
"        ..............................................          ",
"        ..............................................          ",
"        ..............................................          ",
"        ..............................................          ",
"        ..............................................          ",
"        ..............................................          ",
"        ..............................................          ",
"        ..............................................          ",
"        ..  ....  ....  ....  ....  ....  ....  ....  ..        ",
"          ..  ..  ..  ..  ..  ..  ..  ..  ..  ..  ..            ",
"          ....  ....  ....  ....  ....  ....  ....  ..          ",
"            ..  ..  ..  ..  ..  ..  ..  ..  ..  ..              ",
"                                                                ",
"                                                                ",
"                                                                ",
"                                                                ",
"                                                                ",
"                                                                "
};