/* XPM */
static char *ghost1[] = {
"64 64 4 1",
"_	c #FF00FF",
"R	c #FF0000",
"W	c #FFFFFF",
"B	c #000000",
"________________________________________________________________",
"________________________________________________________________",
"________________________________________________________________",
"________________________________________________________________",
"__________________RRRRRRRRRRRRRRRRRRRRRRRRRR____________________",
"________________RRRRRRRRRRRRRRRRRRRRRRRRRRRRRR__________________",
"______________RRRRRRRRRRRRRRRRRRRRRRRRRRRRRRRRRR________________",
"____________RRRRRRRRRRRRRRRRRRRRRRRRRRRRRRRRRRRRRR______________",
"___________RRRRRRRRRRRRRRRRRRRRRRRRRRRRRRRRRRRRRRR______________",
"__________RRRRRRRRRRRRRRRRRRRRRRRRRRRRRRRRRRRRRRRRRR____________",
"_________RRRRRRRRRRRRRRRRRRRRRRRRRRRRRRRRRRRRRRRRRRR____________",
"_________RRRRRRRRRRRRRRRRRRRRRRRRRRRRRRRRRRRRRRRRRRR____________",
"________RRRRRRRRRRRRRRRRRRRRRRRRRRRRRRRRRRRRRRRRRRRR____________",
"________RRRRRRRRRRRRRRRRRRRRRRRRRRRRRRRRRRRRRRRRRRRR____________",
"________RRRRRRBBBBBBRRRRRRRRRRRRRRBBBBBBRRRRRRRRRRR____________",
"________RRRRRBBBBBBBBRRRRRRRRRRRRBBBBBBBBRRRRRRRRRR____________",
"________RRRRRBBBBBBBBRRRRRRRRRRRRBBBBBBBBRRRRRRRRRR____________",
"________RRRRRBBBBBBBBRRRRRRRRRRRRBBBBBBBBRRRRRRRRRR____________",
"________RRRRRBBBBBBBBRRRRRRRRRRRRBBBBBBBBRRRRRRRRR_____________",
"________RRRRRRBBBBBBRRRRRRRRRRRRRRBBBBBBRRRRRRRRRRR____________",
"________RRRRRRRRRRRRRRRRRRRRRRRRRRRRRRRRRRRRRRRRRR_____________",
"________RRRRRRRRRRRRRRRRRRRRRRRRRRRRRRRRRRRRRRRRRR_____________",
"________RRRRRRRRRRRRRRRRRRRRRRRRRRRRRRRRRRRRRRRRRR_____________",
"________RRRRRRRRRRRRRRRRRRRRRRRRRRRRRRRRRRRRRRRRRR_____________",
"________RRRRRRRRRRRRRRRRRRRRRRRRRRRRRRRRRRRRRRRRRR_____________",
"________RRRRRRRRRRRRRRRRRRRRRRRRRRRRRRRRRRRRRRRRRR_____________",
"________RRRRRRRRRRRRRRBBBBBBBBBBRRRRRRRRRRRRRRRRR______________",
"________RRRRRRRRRRRRRRBBBBBBBBBBRRRRRRRRRRRRRRRRR______________",
"________RRRRRRRRRRRRRRBBBBBBBBBBRRRRRRRRRRRRRRRRR______________",
"________RRRRRRRRRRRRRRBBBBBBBBBBRRRRRRRRRRRRRRRRR______________",
"________RRRRRRRRRRRRRRRRRRRRRRRRRRRRRRRRRRRRRRRRRR_____________",
"________RRRRRRRRRRRRRRRRRRRRRRRRRRRRRRRRRRRRRRRRRR_____________",
"________RRRRRRRRRRRRRRRRRRRRRRRRRRRRRRRRRRRRRRRRRR_____________",
"________RRRRRRRRRRRRRRRRRRRRRRRRRRRRRRRRRRRRRRRRRR_____________",
"________RRRRRRRRRRRRRRRRRRRRRRRRRRRRRRRRRRRRRRRRRR_____________",
"________RRRRRRRRRRRRRRRRRRRRRRRRRRRRRRRRRRRRRRRRRR_____________",
"________RRRRRRRRRRRRRRRRRRRRRRRRRRRRRRRRRRRRRRRRRR_____________",
"________RRRRRRRRRRRRRRRRRRRRRRRRRRRRRRRRRRRRRRRRRR_____________",
"________RRRRRRRRRRRRRRRRRRRRRRRRRRRRRRRRRRRRRRRRRR_____________",
"________RRRRRRRRRRRRRRRRRRRRRRRRRRRRRRRRRRRRRRRRRR_____________",
"________RRRRRRRRRRRRRRRRRRRRRRRRRRRRRRRRRRRRRRRRRR_____________",
"________RRRRRRRRRRRRRRRRRRRRRRRRRRRRRRRRRRRRRRRRRR_____________",
"________RRRRRRRRRRRRRRRRRRRRRRRRRRRRRRRRRRRRRRRRRR_____________",
"________RRRRRRRRRRRRRRRRRRRRRRRRRRRRRRRRRRRRRRRRRR_____________",
"________RRRRRRRRRRRRRRRRRRRRRRRRRRRRRRRRRRRRRRRRRR_____________",
"________RRRRRRRRRRRRRRRRRRRRRRRRRRRRRRRRRRRRRRRRRR_____________",
"________RRRRRRRRRRRRRRRRRRRRRRRRRRRRRRRRRRRRRRRRRR_____________",
"________RRRRRRRRRRRRRRRRRRRRRRRRRRRRRRRRRRRRRRRRRR_____________",
"________RRRRRRRRRRRRRRRRRRRRRRRRRRRRRRRRRRRRRRRRRR_____________",
"________RRRRRRRRRRRRRRRRRRRRRRRRRRRRRRRRRRRRRRRRRR_____________",
"________RRRRRRRRRRRRRRRRRRRRRRRRRRRRRRRRRRRRRRRRRR_____________",
"________RRRRRRRRRRRRRRRRRRRRRRRRRRRRRRRRRRRRRRRRRR_____________",
"________RRRRRRRRRRRRRRRRRRRRRRRRRRRRRRRRRRRRRRRRRR_____________",
"________RRRRRRRRRRR___RRRRR___RRRRR___RRRRR___RRRR_____________",
"________RRRRRRRRRR____RRRR____RRRR____RRRR____RRR______________",
"________RRRRRRRRR_____RRR_____RRR_____RRR_____RRR______________",
"_________RRRRRRR______RRR_____RRR_____RRR_____RR_______________",
"_________RRRRRR_______RR______RR______RR______RR_______________",
"_________RRRRR________RR______RR______RR______R________________",
"__________RRRR________RR______RR______RR______R________________",
"__________RRR_________R_______R_______R_______R________________",
"___________RR_________R_______R_______R________________________",
"___________RR_________R_______R_______R________________________",
"____________R_________________R________________________________",
"________________________________________________________________"};
