/* XPM */
static char *ghost3[] = {
"64 64 4 1",
" 	c None",
".	c #0000FF",
"+	c #FFFFFF",
"x	c #000000",
"                                                                ",
"                                                                ",
"                                                                ",
"                      ......................                    ",
"                  ............................                  ",
"                ................................                ",
"              ....................................              ",
"            ........................................            ",
"          ............................................          ",
"          ............................................          ",
"        ..............................................          ",
"        ......xxxxx..........xxxxx....................          ",
"        ......xxxxx..........xxxxx....................          ",
"        ......xxxxx..........xxxxx....................          ",
"        ......xxxxx..........xxxxx....................          ",
"        ..............................................          ",
"        ..............................................          ",
"        ..............................................          ",
"        ..............................................          ",
"        ..............................................          ",
"        .................xxxxxxxx.....................          ",
"        .................xxxxxxxx.....................          ",
"        .................xxxxxxxx.....................          ",
"        ..............................................          ",
"        ..............................................          ",
"        ..............................................          ",
"        ..............................................          ",
"        ..............................................          ",
"        ..............................................          ",
"        ..............................................          ",
"        ..............................................          ",
"        ..............................................          ",
"        ..............................................          ",
"        ..............................................          ",
"        ..............................................          ",
"        ..............................................          ",
"        ..............................................          ",
"        ..............................................          ",
"        ..............................................          ",
"        ..............................................          ",
"        ..............................................          ",
"        ..............................................          ",
"        ..............................................          ",
"        ..............................................          ",
"        ..............................................          ",
"        ..............................................          ",
"        ..............................................          ",
"        ..............................................          ",
"        ..............................................          ",
"        ..............................................          ",
"        ..............................................          ",
"        ..............................................          ",
"        ..............................................          ",
"        ..............................................          ",
"        ....  ....  ....  ....  ....  ....  ....  ....          ",
"        ..  ..  ..  ..  ..  ..  ..  ..  ..  ..  ..  ..          ",
"          ..  ..  ..  ..  ..  ..  ..  ..  ..  ..  ..            ",
"          ....  ....  ....  ....  ....  ....  ....  ..          ",
"                                                                ",
"                                                                ",
"                                                                ",
"                                                                ",
"                                                                ",
"                                                                "
};