/* XPM */
static char * gold_wall64_xpm[] = {
"64 64 953 2",
"  	c #D8D7AF",
". 	c #DAD9B3",
"+ 	c #D9D9B3",
"@ 	c #DADAB4",
"# 	c #D6D6B0",
"$ 	c #D6D6AF",
"% 	c #CDCEA7",
"& 	c #D7D7B1",
"* 	c #D5D4AD",
"= 	c #D1D1AB",
"- 	c #CECDA7",
"; 	c #CCCBA4",
"> 	c #CCCBA5",
", 	c #CBCAA3",
"' 	c #D3D2AD",
") 	c #D4D3AF",
"! 	c #C9C9A4",
"~ 	c #CCCCA7",
"{ 	c #CDCDA7",
"] 	c #CACAA4",
"^ 	c #CFD0A9",
"/ 	c #D8D9B2",
"( 	c #E0E1BD",
"_ 	c #E9EAC8",
": 	c #E9EAC9",
"< 	c #E7E8C7",
"[ 	c #DBDBB9",
"} 	c #D5D4AE",
"| 	c #D3D2AB",
"1 	c #D4D3AB",
"2 	c #CFCFA4",
"3 	c #CFCEA3",
"4 	c #C9C89E",
"5 	c #C6C59B",
"6 	c #C9C89F",
"7 	c #CCCCA3",
"8 	c #D0D0A7",
"9 	c #D5D5AC",
"0 	c #DBDBB3",
"a 	c #DDDDB5",
"b 	c #DADBB3",
"c 	c #D7D8B0",
"d 	c #D8D9B1",
"e 	c #DEDEB6",
"f 	c #D1D2AA",
"g 	c #D4D4AA",
"h 	c #D7D7AD",
"i 	c #D5D5AA",
"j 	c #D2D1A5",
"k 	c #D4D3A8",
"l 	c #D7D6AC",
"m 	c #E0DFB6",
"n 	c #E1E0B7",
"o 	c #D9D8B0",
"p 	c #DDDCB7",
"q 	c #DFDEBA",
"r 	c #E3E3C0",
"s 	c #DCDCB9",
"t 	c #CCCEAA",
"u 	c #D7D8B1",
"v 	c #CBCBA5",
"w 	c #D1D2AC",
"x 	c #D0D0AA",
"y 	c #CFCFA8",
"z 	c #CDCCA6",
"A 	c #D5D4B1",
"B 	c #D4D3B0",
"C 	c #CCCCA6",
"D 	c #CECEA8",
"E 	c #CFCFA9",
"F 	c #DEE0BA",
"G 	c #E8E9C7",
"H 	c #E1E2C1",
"I 	c #DDDDBC",
"J 	c #D8D7B3",
"K 	c #D6D5AE",
"L 	c #D3D3AB",
"M 	c #CAC99F",
"N 	c #CAC9A0",
"O 	c #CDCDA4",
"P 	c #D1D1A8",
"Q 	c #DADAB2",
"R 	c #E2E2BB",
"S 	c #E6E6BF",
"T 	c #CFCFA7",
"U 	c #D8D8AE",
"V 	c #D4D4A9",
"W 	c #D3D2A6",
"X 	c #D6D5AB",
"Y 	c #DEDDB4",
"Z 	c #E0E0BC",
"` 	c #D4D6B3",
" .	c #E4E6C3",
"..	c #E2E4C1",
"+.	c #CDCDA8",
"@.	c #D4D3AC",
"#.	c #D8D8B2",
"$.	c #D3D3AC",
"%.	c #CECEA7",
"&.	c #CDCCA5",
"*.	c #D2D2AD",
"=.	c #D4D4AE",
"-.	c #D3D4AE",
";.	c #D3D3AD",
">.	c #D4D5AE",
",.	c #DDDFB9",
"'.	c #E4E5C4",
").	c #D3D4B2",
"!.	c #D9D9B6",
"~.	c #D7D7B2",
"{.	c #D5D4AC",
"].	c #D0CFA5",
"^.	c #CDCCA2",
"/.	c #C7C69C",
"(.	c #C8C79E",
"_.	c #CDCCA3",
":.	c #D2D2A9",
"<.	c #DCDCB4",
"[.	c #DFDFB7",
"}.	c #E1E1B9",
"|.	c #E2E1BA",
"1.	c #E7E7C0",
"2.	c #D2D2AC",
"3.	c #D6D6AC",
"4.	c #DADAB5",
"5.	c #D8DAB6",
"6.	c #DFE0BA",
"7.	c #E0E0BA",
"8.	c #DADCB8",
"9.	c #CBCCA7",
"0.	c #DCDCB6",
"a.	c #D4D4AD",
"b.	c #D1D0AA",
"c.	c #DCDCB8",
"d.	c #D2D2AB",
"e.	c #D9DAB5",
"f.	c #D6D7B1",
"g.	c #D7D8B2",
"h.	c #D5D6AF",
"i.	c #DFE1BC",
"j.	c #CECFAE",
"k.	c #DADAB7",
"l.	c #D7D6B2",
"m.	c #D6D6B1",
"n.	c #D3D2AA",
"o.	c #C8C79D",
"p.	c #CBCAA1",
"q.	c #CFCEA5",
"r.	c #DFDEB7",
"s.	c #E3E2BB",
"t.	c #E4E3BC",
"u.	c #E4E4BD",
"v.	c #DFE0B9",
"w.	c #DCDCB5",
"x.	c #D9D9B0",
"y.	c #D5D4AA",
"z.	c #D9D9AF",
"A.	c #DDDEB7",
"B.	c #DEDEB8",
"C.	c #DFDFB9",
"D.	c #E4E5C1",
"E.	c #D5D6B3",
"F.	c #DCDCB7",
"G.	c #D6D5AF",
"H.	c #D5D5AE",
"I.	c #CCCCA5",
"J.	c #D3D3AE",
"K.	c #DADBB6",
"L.	c #D8D9B4",
"M.	c #D0D1A9",
"N.	c #D2D3AC",
"O.	c #DBDCB6",
"P.	c #CED0AC",
"Q.	c #D7D7B4",
"R.	c #CECCA5",
"S.	c #D1D0A8",
"T.	c #D7D7B0",
"U.	c #D8D7B0",
"V.	c #D6D6AE",
"W.	c #D1D0A7",
"X.	c #CCCBA2",
"Y.	c #D5D5AD",
"Z.	c #E4E4BC",
"`.	c #E7E7C1",
" +	c #D9DAB6",
".+	c #E1E1BD",
"++	c #DEDDB7",
"@+	c #D9D8AF",
"#+	c #DBDAB1",
"$+	c #DADAB3",
"%+	c #D5D6AE",
"&+	c #E1E1BC",
"*+	c #E2E2BD",
"=+	c #E5E6C3",
"-+	c #DFE0BC",
";+	c #E3E4C0",
">+	c #DDDDB8",
",+	c #D1D1AA",
"'+	c #CDCDA6",
")+	c #C6C69F",
"!+	c #C7C7A0",
"~+	c #D5D5B0",
"{+	c #D9DAB4",
"]+	c #D3D4AC",
"^+	c #CFD0AA",
"/+	c #D1D1AC",
"(+	c #CFCEA7",
"_+	c #CDCCA4",
":+	c #C9C79F",
"<+	c #C9C8A0",
"[+	c #DBDBB4",
"}+	c #E0E1BC",
"|+	c #DCDDB6",
"1+	c #CACAA0",
"2+	c #D6D6AD",
"3+	c #D9D9B1",
"4+	c #E3E3BC",
"5+	c #E6E5BE",
"6+	c #E5E5BD",
"7+	c #EAE9C4",
"8+	c #EBEAC5",
"9+	c #E9E8C3",
"0+	c #D7D8B4",
"a+	c #E1E1BE",
"b+	c #DDDDB6",
"c+	c #DDDCB5",
"d+	c #DADBB4",
"e+	c #E4E4C0",
"f+	c #DBDBB6",
"g+	c #D7D6B0",
"h+	c #C9C9A2",
"i+	c #C1C099",
"j+	c #C3C29B",
"k+	c #CACAA3",
"l+	c #D8D9B3",
"m+	c #D1D2AB",
"n+	c #CDCEA8",
"o+	c #C8C69E",
"p+	c #C7C59D",
"q+	c #D1D0A9",
"r+	c #DDDDB7",
"s+	c #E4E5C2",
"t+	c #E5E6C4",
"u+	c #D9D9B2",
"v+	c #CECEA5",
"w+	c #D7D7AF",
"x+	c #E5E4BD",
"y+	c #E9E8C2",
"z+	c #D8D8B3",
"A+	c #DEDEB7",
"B+	c #D6D7B0",
"C+	c #DCDDB5",
"D+	c #E3E3BF",
"E+	c #E2E3C0",
"F+	c #D8D9B7",
"G+	c #E0E0BB",
"H+	c #C8C8A1",
"I+	c #C1C19A",
"J+	c #C2C19A",
"K+	c #CBCBA4",
"L+	c #D0D0AB",
"M+	c #CACBA5",
"N+	c #D1D1A9",
"O+	c #E2E3BF",
"P+	c #DEDEB9",
"Q+	c #D8D8B0",
"R+	c #E5E5BE",
"S+	c #E8E8C1",
"T+	c #EAEAC4",
"U+	c #D7D7AE",
"V+	c #D8D8AF",
"W+	c #CECFA7",
"X+	c #DBDCB5",
"Y+	c #E2E3BE",
"Z+	c #DBDCBA",
"`+	c #E2E2BE",
" @	c #D4D3AD",
".@	c #C4C39C",
"+@	c #D4D4AF",
"@@	c #CBCAA2",
"#@	c #CECDA5",
"$@	c #DEDFB9",
"%@	c #E0E1BB",
"&@	c #DAD9B2",
"*@	c #D7D6AF",
"=@	c #D9D8B2",
"-@	c #D3D3AA",
";@	c #CDCEA5",
">@	c #D4D4AB",
",@	c #CBCDA5",
"'@	c #DBDCB4",
")@	c #D9DAB3",
"!@	c #D8D7B1",
"~@	c #CECEA6",
"{@	c #D0CFA8",
"]@	c #D0D0A8",
"^@	c #DBDAB4",
"/@	c #D2D2AA",
"(@	c #E7E6C0",
"_@	c #D3D2AE",
":@	c #CECEA3",
"<@	c #CFCFA5",
"[@	c #D2D2A8",
"}@	c #C8CAA2",
"|@	c #D6D7AF",
"1@	c #D6D8B5",
"2@	c #E0E1BF",
"3@	c #E1E1BB",
"4@	c #DFDFBA",
"5@	c #D0D0A9",
"6@	c #D5D5AF",
"7@	c #CFCEA6",
"8@	c #D3D2A9",
"9@	c #D8D8B1",
"0@	c #DEDDB8",
"a@	c #D4D4AC",
"b@	c #E2E2BA",
"c@	c #E4E3BD",
"d@	c #D0D0A6",
"e@	c #DEDFB8",
"f@	c #E1E2BD",
"g@	c #DBDCB8",
"h@	c #E3E3BE",
"i@	c #E6E7C2",
"j@	c #CED0AA",
"k@	c #C8C9A3",
"l@	c #D0CFA7",
"m@	c #C8C79F",
"n@	c #CECDA4",
"o@	c #D2D1A9",
"p@	c #DBDBB2",
"q@	c #D8D9B0",
"r@	c #D9DBB1",
"s@	c #D9DAB0",
"t@	c #CACAA1",
"u@	c #E6E7C3",
"v@	c #E5E5C1",
"w@	c #E4E5C0",
"x@	c #DBDBB7",
"y@	c #DDDEBB",
"z@	c #DEDFBD",
"A@	c #C0C39F",
"B@	c #D0CFA6",
"C@	c #D3D4AD",
"D@	c #D4D5AD",
"E@	c #DBDBB5",
"F@	c #D0D2AB",
"G@	c #D1D4AD",
"H@	c #CFD2A9",
"I@	c #CED2A8",
"J@	c #CFD0A6",
"K@	c #D1D2A8",
"L@	c #CDCDA5",
"M@	c #CCCBA3",
"N@	c #DCDDB9",
"O@	c #CBCDAA",
"P@	c #CAC9A1",
"Q@	c #D2D1AB",
"R@	c #D1D2A9",
"S@	c #D2D3AB",
"T@	c #D4D6B1",
"U@	c #CDD0AB",
"V@	c #DADBB7",
"W@	c #CACBA2",
"X@	c #C6C59A",
"Y@	c #C5C499",
"Z@	c #E1E2BE",
"`@	c #D8DAB7",
" #	c #D3D7B3",
".#	c #DDDEBA",
"+#	c #DDDEBC",
"@#	c #BDBF98",
"##	c #CAC8A0",
"$#	c #D0CFA9",
"%#	c #D6D7B3",
"&#	c #D7D8B3",
"*#	c #CCCEA9",
"=#	c #C3C8A4",
"-#	c #DCDDBA",
";#	c #CBCBA2",
">#	c #C4C398",
",#	c #D6D8B0",
"'#	c #D1D3AA",
")#	c #D4D6AE",
"!#	c #D9DBB7",
"~#	c #E3E4BF",
"{#	c #DADBB5",
"]#	c #CACCA7",
"^#	c #CBC9A1",
"/#	c #D3D2AC",
"(#	c #D2D1A8",
"_#	c #DBDAB3",
":#	c #D3D4AF",
"<#	c #D6D7B2",
"[#	c #C9CBA7",
"}#	c #BDC3A0",
"|#	c #B9BF9C",
"1#	c #DBDDB9",
"2#	c #D9DAB2",
"3#	c #DADCB4",
"4#	c #D5D6AD",
"5#	c #C9CBA3",
"6#	c #C6C49C",
"7#	c #CCCAA2",
"8#	c #D9D8B1",
"9#	c #DCDBB4",
"0#	c #D5D6B1",
"a#	c #CCCFAC",
"b#	c #D8DCBD",
"c#	c #D9DEBD",
"d#	c #DEE1BE",
"e#	c #DCDEBB",
"f#	c #CBCBA3",
"g#	c #E0E2BB",
"h#	c #D8DAB2",
"i#	c #CCCEA5",
"j#	c #C9CAA4",
"k#	c #C4C29A",
"l#	c #C2C097",
"m#	c #D4D5AF",
"n#	c #CED0AD",
"o#	c #E3E6C7",
"p#	c #E0E3C4",
"q#	c #D8DABA",
"r#	c #DCDDBB",
"s#	c #C7C79E",
"t#	c #C6C59C",
"u#	c #C7C69D",
"v#	c #CDCEA6",
"w#	c #C9CBA5",
"x#	c #C3C198",
"y#	c #CCCAA3",
"z#	c #D4D3AA",
"A#	c #C9CCA8",
"B#	c #DCE0C1",
"C#	c #D6DABA",
"D#	c #DFDFBF",
"E#	c #C4C39B",
"F#	c #C3C29A",
"G#	c #C6C59D",
"H#	c #CDCBA4",
"I#	c #C5C39B",
"J#	c #C3C199",
"K#	c #D6D5AD",
"L#	c #D1D2AD",
"M#	c #BCC0A1",
"N#	c #DFE2C8",
"O#	c #E1E2C3",
"P#	c #CCCCA4",
"Q#	c #C9C9A0",
"R#	c #D4D4B0",
"S#	c #DDDEB8",
"T#	c #E5E6C2",
"U#	c #E7E8C4",
"V#	c #DDDEB9",
"W#	c #C9C7A0",
"X#	c #CECFA8",
"Y#	c #BDC09D",
"Z#	c #DFE1C3",
"`#	c #E3E4C7",
" $	c #D5D5B1",
".$	c #D2D1AC",
"+$	c #D6D6B3",
"@$	c #D8D8B5",
"#$	c #DFE0BB",
"$$	c #D2D1AA",
"%$	c #CDCFAC",
"&$	c #D7D7B3",
"*$	c #C6C69D",
"=$	c #D6D6B2",
"-$	c #DCDCBA",
";$	c #DDDDBB",
">$	c #D6D8B3",
",$	c #CDCBA3",
"'$	c #C7C8A3",
")$	c #D3D4B0",
"!$	c #DEDEBC",
"~$	c #DCDDB7",
"{$	c #DCDDB8",
"]$	c #C6C7A1",
"^$	c #D1D2AE",
"/$	c #D2D3AF",
"($	c #D8D8B4",
"_$	c #CFCEA8",
":$	c #D0CFAA",
"<$	c #DADAB8",
"[$	c #CFCDA5",
"}$	c #D0D1A8",
"|$	c #CFD0A7",
"1$	c #C3C49E",
"2$	c #CFD0AC",
"3$	c #DDDDB9",
"4$	c #DADAB6",
"5$	c #D9D9B5",
"6$	c #DEDEBB",
"7$	c #DEDFBC",
"8$	c #D1D0AB",
"9$	c #CECDA6",
"0$	c #C5C59D",
"a$	c #C5C6A0",
"b$	c #DCDEBC",
"c$	c #DCDCB3",
"d$	c #C8C9A1",
"e$	c #D3D3AF",
"f$	c #E0E0BE",
"g$	c #E2E2C0",
"h$	c #DDDDBA",
"i$	c #CAC9A3",
"j$	c #C4C49C",
"k$	c #C6C69E",
"l$	c #C1C39D",
"m$	c #DADAB0",
"n$	c #DFDFB8",
"o$	c #D3D3B0",
"p$	c #E0E0BD",
"q$	c #DBDBB8",
"r$	c #C9C8A2",
"s$	c #C7C9A4",
"t$	c #DEDFBB",
"u$	c #CDCDA3",
"v$	c #DBDAB2",
"w$	c #DAD9B0",
"x$	c #D2D2AE",
"y$	c #DFDFBC",
"z$	c #DFDFBD",
"A$	c #D2D3AE",
"B$	c #D5D7B3",
"C$	c #DADDB9",
"D$	c #CFD2AF",
"E$	c #C6C8A6",
"F$	c #DBDCB7",
"G$	c #DEDFBA",
"H$	c #CCCCA2",
"I$	c #DDDCB4",
"J$	c #D8D7AE",
"K$	c #D8D9B5",
"L$	c #E1E2BF",
"M$	c #E0E1BE",
"N$	c #CACAA2",
"O$	c #D6D8B4",
"P$	c #D0D4B0",
"Q$	c #D0D4B2",
"R$	c #D0D1AF",
"S$	c #DDDDB4",
"T$	c #E6E6C4",
"U$	c #E7E7C5",
"V$	c #E6E6C5",
"W$	c #E5E5C4",
"X$	c #E8E8C7",
"Y$	c #E7E8C6",
"Z$	c #C9C9A1",
"`$	c #C7C79F",
" %	c #C8C8A0",
".%	c #CAC9A2",
"+%	c #C1C5A2",
"@%	c #D4D5B3",
"#%	c #DBDBB1",
"$%	c #DCDCB2",
"%%	c #E6E6C3",
"&%	c #ECEDCD",
"*%	c #EDEECE",
"=%	c #EEEFCF",
"-%	c #D0D1AB",
";%	c #D4D6B2",
">%	c #D2D4B0",
",%	c #C9CCA9",
"'%	c #DFE0BD",
")%	c #E7E7C6",
"!%	c #E2E2BF",
"~%	c #D1D1A7",
"{%	c #DCDBB2",
"]%	c #DEDEB4",
"^%	c #DDDDB3",
"/%	c #DDDCB3",
"(%	c #EBECCC",
"_%	c #EFEFD1",
":%	c #F3F3D7",
"<%	c #F2F2D6",
"[%	c #E3E4C5",
"}%	c #E4E5C5",
"|%	c #CED0AB",
"1%	c #CFD0AB",
"2%	c #CFCEA4",
"3%	c #CECDA3",
"4%	c #D2D1A7",
"5%	c #E2E1B8",
"6%	c #ECECCC",
"7%	c #E6E7CB",
"8%	c #F0F0D4",
"9%	c #C7CBAE",
"0%	c #DDE0C1",
"a%	c #C8CAA5",
"b%	c #D8DAB5",
"c%	c #D2D4AE",
"d%	c #CACBA6",
"e%	c #CFCFAA",
"f%	c #CECFA6",
"g%	c #E8E7BF",
"h%	c #E9E8C0",
"i%	c #CFD0A8",
"j%	c #E2E3C2",
"k%	c #D9DBBB",
"l%	c #D8DBBB",
"m%	c #E4E6C7",
"n%	c #D6DBBA",
"o%	c #BCC5A2",
"p%	c #D3D6B2",
"q%	c #C5C8A1",
"r%	c #C3C59E",
"s%	c #C1C39C",
"t%	c #C1C49D",
"u%	c #B4B791",
"v%	c #BFC29C",
"w%	c #CCCEA8",
"x%	c #DBDDBA",
"y%	c #D6D9B5",
"z%	c #D7D9B6",
"A%	c #E6E5BC",
"B%	c #E1E0BE",
"C%	c #E0DFBC",
"D%	c #EBECCB",
"E%	c #CBD1AC",
"F%	c #DBDDB6",
"G%	c #D9DBB3",
"H%	c #DDE0BA",
"I%	c #D7D9B5",
"J%	c #DCDEBA",
"K%	c #D9DBB6",
"L%	c #D5D7B1",
"M%	c #CDCEAA",
"N%	c #D4D5B0",
"O%	c #E1E0BD",
"P%	c #D8D8AC",
"Q%	c #DEDEBA",
"R%	c #E2E3C1",
"S%	c #DBDDB5",
"T%	c #D6D7AE",
"U%	c #D4D6B0",
"V%	c #CECFAA",
"W%	c #E4E3C1",
"X%	c #E3E2C0",
"Y%	c #E1DFB9",
"Z%	c #E0DEB8",
"`%	c #DADAB1",
" &	c #E5E6C0",
".&	c #E5E5BF",
"+&	c #CDCBA5",
"@&	c #CBC9A3",
"#&	c #CAC8A2",
"$&	c #D6D6AB",
"%&	c #D5D5A9",
"&&	c #CACAA6",
"*&	c #E3E3C1",
"=&	c #E4E4C2",
"-&	c #D9D8AE",
";&	c #E0DFB8",
">&	c #E1E0BA",
",&	c #E2E2B9",
"'&	c #E3E4BE",
")&	c #CCCAA4",
"!&	c #CBCAA4",
"~&	c #CECCA6",
"{&	c #DFDEB9",
"]&	c #D7D8AF",
"^&	c #D4D3A7",
"/&	c #C4C4A0",
"(&	c #D8D7AD",
"_&	c #D7D6AB",
":&	c #D6D5AA",
"<&	c #E1E2BC",
"[&	c #D8DAB4",
"}&	c #E1E0BB",
"|&	c #D3D3A9",
"1&	c #D4D4A8",
"2&	c #D2D1A4",
"3&	c #D5D4A8",
"4&	c #D5D4A9",
"5&	c #CCCFAA",
"6&	c #D1D0A5",
"7&	c #E5E5C3",
"8&	c #DCDDBC",
"9&	c #D8D9B6",
"0&	c #D3D3A8",
"a&	c #D1D0A1",
"b&	c #D0CFA4",
"c&	c #E0DFBA",
"d&	c #E3E2BD",
"e&	c #E0DFB9",
"f&	c #D7D6AA",
"g&	c #EEEFD0",
"h&	c #DCDCBF",
"i&	c #CFCFA6",
"j&	c #D2D2A7",
"k&	c #D1D0A2",
"l&	c #C8C7A0",
"m&	c #DDDCB6",
"n&	c #D9D8AD",
"o&	c #F8F3DE",
"p&	c #F4F2D8",
"q&	c #CFD0AD",
"r&	c #E1E1BF",
"s&	c #DAD8AE",
"t&	c #DCDAB0",
"u&	c #DEDCB2",
"v&	c #D7D6B1",
"w&	c #C9C8A1",
"x&	c #E0E0B9",
"y&	c #DFDEB5",
"z&	c #E2E1BC",
"A&	c #DAD9AF",
"B&	c #E4E4C1",
"C&	c #F3F0D7",
"D&	c #FBF1E7",
"E&	c #F9F2E2",
"F&	c #DEDEC1",
"G&	c #E3E3C2",
"H&	c #DBDAB0",
"I&	c #DFDDB3",
"J&	c #E1DFB6",
"K&	c #E0DEB5",
"L&	c #DBD9AF",
"M&	c #DDDBB1",
"N&	c #DFDDB4",
"O&	c #E1DFB5",
"P&	c #DBDAB5",
"Q&	c #DDDCB8",
"R&	c #DEDDB5",
"S&	c #DBD9AE",
"T&	c #EEEDD1",
"U&	c #FAF2E4",
"V&	c #F2F1D5",
"W&	c #C8C8A7",
"X&	c #E7E8C8",
"Y&	c #E0DEB4",
"Z&	c #E4E2BA",
"`&	c #E3E1B9",
" *	c #E2E0B7",
".*	c #DEDCB3",
"+*	c #E6E4BC",
"@*	c #E7E5BD",
"#*	c #E5E3BA",
"$*	c #DFDEBB",
"%*	c #D9D8B3",
"&*	c #DCDBB1",
"**	c #DAD8AD",
"=*	c #D8D6AB",
"-*	c #F3F2D6",
";*	c #EEEECF",
">*	c #CECFAB",
",*	c #E8E8C8",
"'*	c #E0DFB5",
")*	c #ECE9C1",
"!*	c #ECEAC2",
"~*	c #DFDEBC",
"{*	c #E2E1C1",
"]*	c #DDDCB9",
"^*	c #D3D1A6",
"/*	c #D2D0A5",
"(*	c #D9D7AC",
"_*	c #D6D5A9",
":*	c #E9E9C9",
"<*	c #CBCDA9",
"[*	c #E8E9C9",
"}*	c #E6E7C6",
"|*	c #E6E4BB",
"1*	c #EBE9C1",
"2*	c #EAE8C0",
"3*	c #EDEBC3",
"4*	c #EDEAC2",
"5*	c #E8E6BE",
"6*	c #E5E3BB",
"7*	c #D5D5AB",
"8*	c #D6D4A9",
"9*	c #DADCB9",
"0*	c #DDDFBC",
"a*	c #D1D3B0",
"b*	c #E7E5BC",
"c*	c #E6E5BD",
"d*	c #E9E7BF",
"e*	c #DEDDB9",
"f*	c #DCDBB7",
"g*	c #D7D5AA",
"h*	c #E6E8C7",
"i*	c #E8E9C8",
"j*	c #DCDEBE",
"k*	c #DBD9B1",
"l*	c #E3E1B8",
"m*	c #E7E6BE",
"n*	c #E5E4BC",
"o*	c #CBCBA1",
"p*	c #D4D2A7",
"q*	c #D6D5A8",
"r*	c #DBDCB9",
"s*	c #DFE0BE",
"t*	c #E7E9C8",
"u*	c #E0E2C2",
"v*	c #CED1B1",
"w*	c #EAEBCB",
"x*	c #DFDFBB",
"y*	c #D2D2A4",
"z*	c #D1D1A2",
"A*	c #D2D1A3",
"B*	c #E3E5C3",
"C*	c #E3E4C2",
"D*	c #ECEAC5",
"E*	c #EBEAC3",
"F*	c #E1E0B8",
"G*	c #D5D4AB",
"H*	c #DCDAAF",
"I*	c #DDDBB0",
"J*	c #D9D8AC",
"K*	c #D4D3A6",
"L*	c #D3D3A5",
"M*	c #E5E6C5",
"N*	c #E9EACA",
"O*	c #E2E2BC",
"P*	c #E2E1B9",
"Q*	c #E9E7C0",
"R*	c #ECEBC7",
"S*	c #EBEAC4",
"T*	c #DFDEB6",
"U*	c #C7C79D",
"V*	c #D6D5AC",
"W*	c #DAD9B4",
"X*	c #DDDCB0",
"Y*	c #DFDEB2",
"Z*	c #DEDCB1",
"`*	c #D5D4A7",
" =	c #CDCBA2",
".=	c #CECEA4",
"+=	c #E1E2C0",
"@=	c #E2E2C1",
"#=	c #E4E3BE",
"$=	c #E7E7C3",
"%=	c #EAE9C3",
"&=	c #C9C99F",
"*=	c #CDCEA4",
"==	c #DEDDB1",
"-=	c #DAD9AD",
";=	c #C8C69C",
">=	c #C9C79D",
",=	c #CAC89E",
"'=	c #CCCAA1",
")=	c #D9D9B4",
"!=	c #E5E4BF",
"~=	c #E5E5C0",
"{=	c #E8E7C4",
"]=	c #E4E4BF",
"^=	c #DEE0BD",
"/=	c #E3E3BA",
"(=	c #CDCFAA",
"_=	c #D3D1A2",
":=	c #D7D5A9",
"<=	c #CCCBA1",
"[=	c #CBCAA0",
"}=	c #E1E1C0",
"|=	c #EBEBCA",
"1=	c #E9E8C6",
"2=	c #E9E8C5",
"3=	c #CCCFAB",
"4=	c #CBCCA4",
"5=	c #C7C9A1",
"6=	c #CDD0AA",
"7=	c #C7CAA5",
"8=	c #D3D1A3",
"9=	c #E0E0BF",
"0=	c #D8D9B9",
"a=	c #EAE9C8",
"b=	c #ECEBCB",
"c=	c #D0D2AC",
"d=	c #C1C3A0",
"e=	c #BEC099",
"f=	c #C3C59D",
"g=	c #C4C59E",
"h=	c #B9B993",
"i=	c #B6B791",
"j=	c #BCBC96",
"k=	c #C2C39D",
"l=	c #C7C8A2",
"m=	c #D3D1A9",
"n=	c #D2D1A6",
"o=	c #D0CEA2",
"p=	c #D1CFA4",
"q=	c #CECDA2",
"r=	c #BCBE9B",
"s=	c #CDCFAB",
"t=	c #CBCBA7",
"u=	c #C5C6A1",
"v=	c #C7C7A2",
"w=	c #C7C7A1",
"x=	c #C4C39D",
"y=	c #CECEA9",
"z=	c #E5E7C4",
"A=	c #E6E8C6",
"B=	c #CDCC9F",
"C=	c #CECCA0",
"D=	c #D1D0A4",
"E=	c #D8D7AB",
"F=	c #DBDBAF",
"G=	c #DCDCB1",
"H=	c #DBDAAF",
"I=	c #D1D0A6",
"J=	c #CDCEA9",
"K=	c #C6C8A3",
"L=	c #DDE0BE",
"M=	c #CECDA1",
"N=	c #DBDAAE",
"O=	c #D0CFA3",
"P=	c #C6C79F",
"Q=	c #C7C9A3",
"R=	c #C5C49C",
"S=	c #D6D8B7",
"T=	c #D2D0A6",
"U=	c #DBDBB0",
"V=	c #E3E4C1",
"W=	c #E4E5C3",
"X=	c #D0D1AC",
"Y=	c #C8CAA4",
"Z=	c #C7C59E",
"`=	c #C6C59E",
" -	c #C5C39C",
".-	c #C5C49D",
"+-	c #DFE1C0",
"@-	c #DCDBB0",
"#-	c #DAD9AE",
"$-	c #E6E7C5",
"%-	c #D5D7B5",
"&-	c #C7C69F",
"*-	c #C8C6A0",
"=-	c #CCCBA6",
"--	c #E1E0B6",
";-	c #C2C5A4",
">-	c #D0D0AC",
",-	c #C3C39C",
"'-	c #C4C49D",
")-	c #DFDEB3",
"!-	c #D0D2AE",
"~-	c #C6C49D",
"{-	c #CFCFAB",
"]-	c #CBCBA6",
"^-	c #E5E4C1",
"/-	c #E8E7C5",
"(-	c #D1D1A5",
"_-	c #D3D1A5",
":-	c #D7D6AD",
"<-	c #C8C69F",
"[-	c #CDCCA7",
"}-	c #E6E5C3",
"|-	c #E7E6C4",
"1-	c #CFCFA3",
"2-	c #CACA9D",
"3-	c #CBCB9E",
"4-	c #C9CAA5",
"    . + @ + # $ $ % & * = - ; > > , , , ' ) ! ! ~ { ] ^ / ( _ : < [ } | * 1 2 3 4 5 6 7 8 9 0 a b c d e f g h h i j j j k l m n ",
"  o p q r s t u v w $ = x x x = y - z ; A B C ] D E C E u F G H I J * | K L 3 3 M 5 6 N O P Q a a a a R S & T U V j W W k k X Y ",
"    . Z s `  ...+.& @.x x x @.$ #.$.%., &.*.=.E -.;.= = >.,.'.).!.~.* | K {.].^./.5 (.N _.:.<.[.}.e |.R 1.1.2.# U k k k k k k 3.",
"      4.5.6.7.8.9.0.a.x x b.* #.c.#.d.- y 2.e.f.g.h.>.>./ i.j.k.l.m.@.@.K K n.^.M o././.p.q.Q r.s.|.t.1.1.1.u.v.f.w.x.X y.k k z.",
"      6.A.B.C.D.E.F.G.$.x = H.+ c.=.x %.I.y J.K.L.f.M.N.O.P.Q.@.R.S.T.T.U.T.K V.W.(.5 /.N X.Y.<.a a r.t.S Z.Z.`.`. +.+++z.@+@+#+",
"w.$+%+A.7.&+*+=+-+;+>+T.,+x } #.@ = '+)+!+'+~+K.K.{+N.]+^+/+(+_+:+<+L [+}+6.|+$+$ 1+5 5 6 O 8 2+2+3+e s.4+5+6+7+8+9+0+a+b+a c+a ",
"A.d+u A.7.&+*+;+e+=+;+f+g+$ & G.} x h+i+j+k+;.e.l+L.m+^ n+_+o+o+p+o+q+r+s+t+r $+u+S.N o.N v+v+9 w+3+a |.x+1.1.y+8+8+z+[+w.b+A+A+",
"d+B+d+C+6.&+&+&+D+E+F+G+@ @ g+* @.b.H+I+J+K+L+m.x N.M.M+N+:+p+p+:+o+T #.E+O+P+$+U.K L N+P v+v+9 Q+Q+Q e R+1.S+T+8+9+f U+V+x.a A+",
"W+X+b |+&+&+&+&+Y+=+Z+`+>+P+& * *  @C .@i+!+J.+@E = M+;.,+@@p+p+_+#@,+=.$@%@&@*@$ G.=@. g+n.v+-@9 -@V+e x+1.y+8+8+9+;@:.>@U+2+Q+",
",@'@)@A.6.$@&+D+s+=+Z+D+G+&+>+!@& 0.# k+)+k+= x K+M+^+;.;.,+~@_+{@,+=.]@X+b+U.K T.+ @ @ ^@!@/@P P P U+a |.x+t.(@8+_@:.:@<@[@>@-@",
"}@|@%+c '@A.$@s+D.1@2@*+3@`+&+4@>+>+F.%.K+'+5@E y +.S.;.6@& $.]@,+# 7@@@_.{.8@W.8@* g+9@0@0@9@a@:.2+3+<.a r.[.b@c@'+9 d@:@[@U+-@",
"%.5@y ,+B+X+e@&+f@g@.+D+h@i@D.*+4@f+#.2.x =.{+{+j@k@l@,+G.#.& 6@6@& 7@m@<+q.n@_.n@o@{.!@0@p 0@u+/@Q+3+w+H.u+Q+0 <.p@q@r@r@s@2+-@",
"D k+t@N T ]+$+6.%@&+.+*+u@v@u@w@4@+ {+x@K.{+y@z@A@q+B@7@l@d.;.=.& a.q.<+m@N _._.n@W.1 $+^@+ =@u+$.-@$ N.C@>.D@/ $+E@F@G@H@I@J@K@",
"L@N /./.(.M@5@|@X+%@u@h@e+v@u@u@P+4.N@z@N@N@z@O@I.#@X.X._.n@,+;.# #.q+P@m@X._._.#@S.{.g+=@Q@Q@$ N.R@S@N.h.e.{+e.{+T@U@V@g.z+;.W@",
"X.p.5 X@Y@o.~@d.a.)@w@Z@Z@;+`@ #e+d+K..#z@z@+#@##@N :+##_._+{@{@ @#.l@N m@X.n@n@q.8@K K a.$#b.Q@b.N.-.%#&#e.e.e.*#=#-#z+8 -@P ;#",
"p./.>#>#>#/._+d.H.d b ,#'#)#!#;+~#)@]+Q+{#y@]#= q.##:+:+o+o+6 ^#l@/#]@n@_+q.(#S.8@{._#&@*@/# @$.$.N.:#<#e.e.[#}#|#1#z+a.;#8 7 ;#",
"q.n@M@(./.X.T N+,+S@N+2#d e@u@3#X+{#4#S@S@5#D d.n@p+6#p+p+6#:+6#p+^#7###_.l@o@n.K 8#9#9#9#&@K K a.N.:#0#e.a#b#c#d#e#H.{@f#t@N ;#",
"p.N M (./.M 7 ~@~@~@T T.T.X+g#h#h.M.i#i#y j#;.q+o+k#l#p+o+6#p+p+6#6#p+o+p.q.o@* K 8#9#9#9#9#K a.N.-.-.m#n#o#p#q#r# +$#@@s#t#(.t@",
"u#/.o.N N o.N 7 _+L@]@%+d.D@>.W+v#W+d.d.w#O.f.d.P@x#x#7#y#o+k#k#6#6#p+p.q.7@z#K K * 8#9#9#&@* K N.:#0#%#A#B#C#D#[ ;.t@E#F#G#(.(.",
"7 E /+5@O 6 N p.p.7 {@,+d.d./ ]+)@@ )@$.g@( 4.d.M@x#p+H#y#p+I#J#6#p+:+p.7@l@8@1 n.8@K#_#9#T.H.C@C@$.N.L#M#N#O#k.2.P#t#F#F#u#Q#'+",
"2.+@R#R#= 7 X._+O p.~@,+d.d./ S#T#U#}+V#V#{#{+;.l@N 6#W#o+6#I#J#k#6#:+X._.n@l@o@{.K K U.9#9#9#K * a.X#Y#Z#`#+# $- 6 F#F#E#(.&..$",
";.=  $+$@$/+y ~@~@L@~@,+d.d.& #$u@U##$+ $${@=.=.l@_.p.##:+p+6#k#6#o+:+X._._.l@1 K K {.K K *@&@C@N.m+w#%$!. +&$+@&.Q#u#G#*$@@J.=$",
"+@+@s -$;$@$;.T ~@~@N+,+y N+h.#$u@U#>$+ ,$7#M@#@l@_+l@l@##:+:+:+:+:+:+:+_._.l@8@{.z#K#K K K K H.a.d.'$)$&$R#+@J.x &.%.%.f#%.&$&$",
"m. $!$!$!$-$ $y y d.d.N+f#K+d.~$;+D.{$$ #@,$7#7#_+S.S.N+#@##:+:+:+:+:+p._._+l@S.8@K#8#K K K K * L ]$^$/$($+@+@ $ $ $2.= _$:$&$&$",
"J.+@<$@$@$&$;.~@d.d.d.I.h+k+5@h.%#F+V#a.#@[$7@l@S.o@L L o@_.X.^#:+##p.^#N @@7@q.o@U.u+*@/@}$}$|$1$2$/$0+3$4$5$4$6$7$&$;.$#- 8$.$",
"I.]@;.5@x x 9$y N+,+T 0$H+L@T a$b${$9@* l@l@l@l@/@o@L L o@B@#@X.##_.l@#@N :+7#n@P {.c$w.K }$}$d$e$($0+f$g$6$x@h$7$7$y@+@z ; > ; ",
"i$K+I.; &.i$i$; '+~@P#j$k$K+l$1@E+#.[$_+,$,$l@l@_.n@/@L o@l@q.#@B@S.a@>@7@7#_.S.K#m$a n$9#U.D o$5$x@p$g$a+q$5$N@g@h$7$~.2._$; , ",
"i$i$!+0$)+r$i$, 9$y E I.)+s$t$-+{#V.l@7#7#_+7@l@u$v+L L /@l@l@l@/@9 &@v$9 o@N+/@a@w$n$~#*+v.x$y$5$h$g$g$z$x@($2.= =.L.+@z *.8$- ",
"H+!+0$0$0$!+i$&.A$B$C$D$E$F$l+G$u T.$$S.[$,$#@u$H$:.a@L L a@/@/@/@Y._#I$2+2+9 {.J$#+C.h@~#K$L$g$3$h$g$M$3$~.D I.N$D 2.<#_$&._$&.",
"0$0$0$0$0$0$K+w O$P$Q$R$V#g.F$.+u+T.9@)@$ N+H$7 n@o@Y.Y.Y.Y.L a@a@Y.9 U+@+@+@+@+@+w$S$%@G$k.T$U$V$W$X$Y$M$&#%.Z$Z$%.2.m#= z , , ",
"'+'+f#`$ %.%^+%#O$+%@%.#{$g.f+.+V#4.p$t$F$@.u$q.l@]@L Y.Y.Y.a@Y.Y.8@].z#J$w$#%$%@+@+w$<.W+I$%%&%*%=%=%=%V$g@&#y h+'+2.;.m#;._$$#",
"-%E E E L#L#;%>%,%7$'%V#{$f.C@{#`+Z )%!%F.n.O v+l@]@N+Y.Y.u+Q+V.-@].^.~%U+{%]%]%^%{%$%9 /%Y e+(%_%:%:%<%[%}%.#&$E = Q@Q@9.|%= $#",
"L#A$L#L#L#L#|%1%4$7$'%7$G$l+|$h.f+G$W$t${$H.l@l@]@]@N+a.V.[+[+9@z#2%3%4%  $%n 5%5%5%I$J$/%/%e+6%7%8%:%:%9%0%'.4$w 2.;.2.a%b%0#b.",
"w#c%:#L#L#d%e%~.z+t$'%-+g@B+f%S@f.O.M$)@H.Y.n.L N+o@Y.T.[+a <.3+Y.8@4%z#@+m$5%g%h%h%b@i%y $.K.j%k%l%m%m%n%o%p%q%r%s%t%r%u%v%a%w%",
"x%y%z%!#c%L#0#<#~..#'%'%K.g.M.f -.c.{$@ V.L Y.u+Q+V.9@3+m$p@a Q $ z#4%z#@+m$]%5%A%h%b+B%C%F.@ 3$-+M$Z@Y$D%E%[+9@d+F F F%h#G%H%I%",
"e#J%K%L%L#M%A$N%F$.#7$'%{${#K.{#V#O%L$-+u+$ Q+$+}.b@b@c$P%P%a 3+Y.Y.(#9 /%]%^%Y a O.4$@ !@d.q+{@6@a.T.Q%R%'%d+c / F F S%3.T%|+K$",
"L%<#U%L#L#V%~+.#'%'%'%'%g@g.6$W$V$W%X%W$3$F$d+0 e e [.e p@{%Y%Z%Q+1 (#`%4+ &.&R O.0.*@$$+&@&#&#&#&#&b.+ G$-+>+f+u+F%F F%$&%&V 4#",
"T N.w L#L#L#&&( E+L$L$'%N@g.L.*&V$=&V$W$G$E@Q w$c$<.<.z.-&w$;&>&Z%8@8@x.,&u. &'&h@* $$b.)&i$!&!&~&z $ F.>+>+>+{&>+)@d ]&^&j 3 3 ",
"k$d@~%,+L#-./&-+=+s+'%g@B+g.g.K.y$*&V$V$y$x.(&$&$&(&_&:&l -&p@p@l 3%_.].U+4+<&[&4@q+@&)&i$- _$| $ $ 9@E@P+>+P+}&}&B.0.h j ^.X.X.",
"u$~%~%-@/ P+X$F+M$t$g.a@8 ]+l+c.3$a+g$!%3$3.|&|&i 1&2&2&j 3&4&4&2%X.:+N B@c$5&'&@ q+> #&)&q+q+H.9@9@9@u+P+G+4@4@}&}&A+x.6&_.X.X.",
"<@:.|&:.F.7&X$8&9&g.H.N+v+D@H.F.Q%a+a+>+Q+0&~%[@i W a&a&W W W j b&2%^#o+X.8@% S#T.| 9$W#)&q+| @.* =@r+c&&+d&*+4@G+}&e&#+f&^&3%3%",
"[@Y.Y.c .+7&U$g&h&f.a@i&v+/@a.c.p$a+a+F.V+i j&0&V W k&4&$&^&W ^&X W 2%^#o+^##@| | $${@l&G#!&{@$$a.T.9@m&*+h@*+h@d&*+c&I$n&3&j b&",
"~%Y.u+)@r U$&%o&p&q&a.v+v+v+a.p$r&a+a+V#u+3+2+i X l s&t&u&-&k X -&-&z#].M@$$G.v&@.$${@.%w&b.| a.u+$+u+w.r.x&y&z&z&>&e&Y A&^&j j ",
"[@a@)@>+B&D%C&D&E&F&;.8 ]@L p$G&g$G&G&p$F.u+J$i l H&I&J&J&K&L&M&N&O&t&l K#P&P&Q&K {@- z +&| T.F.}+#$>+0 p@/%Y r.r.R&Y S&f&W j j ",
"~%9 |@)@`+=&T&U&E&V&W&h.L # W$X&G&< G&-+a+F.o (&-&Y&Z&`& *.*`&+*@*#*I&l P&$*q B%%*{@z z - $ [+}+Z@Z@Z@b+`%V+-&&*/%H&**=*W j j j ",
"~%P -@|@9@t$(%-*-*;*+#>*f.F$(%(%,*< !%f+f+@ u+U A&'*@*@*@*Z&)*!*!*`&l 4%*@q ~*{*]*$$; h+- 9@E@}+Z@f@r+w+^*/*^&n&****(*_*^&j j j ",
"L -@P a@O.'%U$:*g$-#I%<*-..#(%&%[*}*y$9@K#9@v$I&J&|*1*2*h%1*3*4*5*6*#+>@7*o $*{*$* @- > K+a.a.P+Z@4@$+U+/*/*8*(*=***f&3&3&W 3&W ",
"Y.Q+9 T.7$7$f$'%5.I%9*0*a**&(%&%D%W${$9@w+U.w+/% *b*1*2*c*c*@*d*Y /%@+~@/@^@e*$*f** $#> h+- $.[+.+S#u+9@4&^*3&_*g*=*f&^&W 3&_*_*",
"$+[+3+/ 7$7$7$!#5.R%h*i*k%j*&%(%W$t$u+n.{.K#*@k*l*@*1*1*m*n*`&5*w$d@o*O J$3$$*f*9@| {@I.> $ {#r+#$.+r+9@_&3&p*f&******f&3&q*q*_*",
"T.$+w+/ {+{$y@r*s*t*&%&%u*v*w*i*x*+ {.B@(#V.K#$+`&6*@*1*h%c*n {%g u$o*7 L Q 0.F.V.| {@(+{@#.V#V#Z Z@4@$+8#_&p*_*******=*y*z*A*3&",
"Y.Y.>@$ )@K.R%B*}*i*&%&%(%< C*p$$+8@B@W.K#$+r+E@A+`&@*D*E*m*F*G*u$1+1+o*i%8#>+.#$ V.a@l@(+q++ r+>+Z@Z@P+r+u+w+f&****H*I*J*K*L*_*",
"a@(#B@L V.V.t$M*< i*N*[*W$p$N@O.n.B@W.n.U.C.O*3@S#P*Q*R*D*S*T*d@(.u#U*o*i%V*>+t$f+W*V.{@o*H$~@| H.4@}+Z@}+S#9@_&=***X*Y*Y*Z*3&`*",
"B@ =^..=>@Y.l+R%'.+='%r&@=y${$@ {.{.w.A.&+#=v@O*6.r+$=R*R*%=Y _.u#u#u#&=*=9@-+-+e.G+T.i&o*o*o*{@$$u+E@#$( r+Q+_*_*J*==X*-=-=(*_*",
"X.;=>=,='=a@H.)=K.l+y@7$2@G&*&'%9@&+!=~={={={=]=~$S#^=!.8+/=J$6 u#u#(.7 M.0.-+(=e.6.9@a@v+o*o*l@{@@.$ 9@$+$+:&_=_=:=S&J*f&3&^&^&",
"<=[=>=;=,=.=B@W.n.& 7$7$}=G&G&G&g$g$|={=1=2=1=]=~$~$V#3=w.p@u$(.u#U*o*4=5=6=7=K%O.w+V.Y.l@o*o*T {@$$| y.3&4&`*_=8=8=`*_*f&^&j 3 ",
"<=<=4 ;=;=>=,=.=a@e..#7$r&r&@=G&+=9=0=a=6%b=)%5$c=c=P.d=e=f=g=h=i=j=k=l=-.;+;+;+$@Q+$ T.a@O o*i&$$n.m=n=o=p=^*_&J*-=-=-=J*^&3 q=",
"2%^.[=,=[=B@1 w+u 4.g@F$g@e.{+7$N@;$r=s=t=u=v=w=x=r$*.&$%#0#/+y=- I.k+| 9@}+z=A=z=%@X+S#+ V.L $ a@m=/*p=B=C=D=E=-=F=G=H=E=W 3 q=",
"(#I=<=<=q.Y.T.+ F${$F$g.w W+W+m#J=K=J.b.&., .%w&w&l&l&/+ $*.I.C I.h+K+$#K r+O+A=L=M$O+f@6.@ + @ T.Y.n.m=6&M=M=_*-=-=N=J*3&6&q=O=",
"(#4%^._.(#w++ F$( O+Q%K.m+;@P=Q=L+> i$W#l&w&w&w&.%l&E#R=C { k+k+k+K+{ b.a.u+4@ .S=}*;+;+f@O.@ @ + V.K a@n.T=^*J*-=E=G=U=3&D=q=j ",
"J$J$W.B@1 9@3$x*V=W=O+3$X=Y=A$- w&Z=`= -.-r$+.i$, ; w&l&l&%.5@C y _$$#/#V.Q+r+s++-W=O+;+O+C.O.@ @ @ + T.9 4&f&@-&*H=@-#-W D=q=^&",
"m V*B@B@:.#.G$x*t+G $-%-:#~+_$&- - - - -*-+.=-l&.%9$9${@b.$ @ Y.@./#Y.V.V.w+u+$@S#V#O.}+;+;+f@0.@ @ @ $+u+V.U --5%n @-E=3&W j J*",
"y&V*B@B@K 9@K.K.W=i*W=;-K.m#z l& - -&-l&>-1%] ,-'-.-H+9$| u+G+>+u+K V.w+9 V |&|&a@Y.4#T.~$Z@;+O+6.~$+ Q+w+V.w$^%Y H&n&:=E=E=E=)-",
"n @+8@W.(#W.n.-@O.( F$!-f.2.z w&~- -~-w&e%{-]-,-`='-; (+$+G+^-/-`+r+E@$+g 0&j&(-d@~%:.-@w+$@}+O+Y+B+=.#.@ Q+V.V.y.k _-_-_*E=-='*",
"5%Y :-G*8@W.B@n.9@{+N%g.;.- , w&<-&-`=Z=y=e$[-w&w&&-q+Q@Q+B.}-/-|-4@,+7*0&j&j&1-2-3-2 [@a@T.S#}+J=@ @ 4-6@u+V.V.p*_-_-_-_-H=)-m "};
