/* XPM */
static char * gold_birck64_xpm[] = {
"64 64 2965 2",
"  	c #483729",
". 	c #5D4832",
"+ 	c #745E3F",
"@ 	c #7D6743",
"# 	c #806944",
"$ 	c #816A44",
"% 	c #6C583B",
"& 	c #5F4D35",
"* 	c #7B6846",
"= 	c #756343",
"- 	c #6E5C3D",
"; 	c #6C5A3C",
"> 	c #6E5B3D",
", 	c #6E5C3E",
"' 	c #6A593C",
") 	c #574A33",
"! 	c #493E2D",
"~ 	c #5A4D35",
"{ 	c #68593B",
"] 	c #6E5E3E",
"^ 	c #746340",
"/ 	c #7B6943",
"( 	c #7F6D45",
"_ 	c #806E45",
": 	c #89774A",
"< 	c #645438",
"[ 	c #856F44",
"} 	c #8E7546",
"| 	c #957B48",
"1 	c #937947",
"2 	c #8E7545",
"3 	c #8C7345",
"4 	c #7F673F",
"5 	c #463727",
"6 	c #6D5836",
"7 	c #635133",
"8 	c #635033",
"9 	c #5A4A30",
"0 	c #51432E",
"a 	c #493D2B",
"b 	c #443A29",
"c 	c #433929",
"d 	c #493E2B",
"e 	c #403728",
"f 	c #393126",
"g 	c #4C4130",
"h 	c #554834",
"i 	c #584A35",
"j 	c #5D4E37",
"k 	c #63543A",
"l 	c #695A3F",
"m 	c #6C5E42",
"n 	c #6C5D41",
"o 	c #68593F",
"p 	c #66573D",
"q 	c #65563C",
"r 	c #64543B",
"s 	c #625239",
"t 	c #5D4D36",
"u 	c #594A34",
"v 	c #564833",
"w 	c #504230",
"x 	c #342821",
"y 	c #4A392A",
"z 	c #624D35",
"A 	c #776142",
"B 	c #7F6A47",
"C 	c #87714B",
"D 	c #937D50",
"E 	c #9F8855",
"F 	c #614F36",
"G 	c #978355",
"H 	c #89774F",
"I 	c #7E6C49",
"J 	c #746141",
"K 	c #746242",
"L 	c #736041",
"M 	c #5E4F37",
"N 	c #786543",
"O 	c #816E48",
"P 	c #8B774C",
"Q 	c #947E4F",
"R 	c #998452",
"S 	c #AC9960",
"T 	c #A28E58",
"U 	c #948152",
"V 	c #776643",
"W 	c #AC965B",
"X 	c #B49C5D",
"Y 	c #A9935B",
"Z 	c #A18B55",
"` 	c #A08750",
" .	c #99814C",
"..	c #80693F",
"+.	c #463929",
"@.	c #6C5737",
"#.	c #A3864E",
"$.	c #A0824C",
"%.	c #8A7044",
"&.	c #745F3C",
"*.	c #584732",
"=.	c #5B4933",
"-.	c #604E37",
";.	c #69563B",
">.	c #635138",
",.	c #483D2D",
"'.	c #6F5D3D",
").	c #705F3F",
"!.	c #63553B",
"~.	c #61533B",
"{.	c #63563D",
"].	c #695B41",
"^.	c #6D5F44",
"/.	c #6F6145",
"(.	c #706245",
"_.	c #716245",
":.	c #6F6044",
"<.	c #6B5B40",
"[.	c #66553C",
"}.	c #5F4E36",
"|.	c #5B4A33",
"1.	c #4C3E2C",
"2.	c #423326",
"3.	c #665037",
"4.	c #715B3E",
"5.	c #796444",
"6.	c #816C49",
"7.	c #88754F",
"8.	c #988254",
"9.	c #76623F",
"0.	c #988455",
"a.	c #8B7950",
"b.	c #806F4B",
"c.	c #796746",
"d.	c #756242",
"e.	c #766343",
"f.	c #786646",
"g.	c #766443",
"h.	c #796846",
"i.	c #7C6B49",
"j.	c #83704A",
"k.	c #938051",
"l.	c #A28F5B",
"m.	c #9D8B59",
"n.	c #A3905B",
"o.	c #918157",
"p.	c #857551",
"q.	c #7C6D4C",
"r.	c #67563B",
"s.	c #5B4B32",
"t.	c #47392A",
"u.	c #614E34",
"v.	c #856B43",
"w.	c #7D6745",
"x.	c #735F41",
"y.	c #655239",
"z.	c #5A4832",
"A.	c #574531",
"B.	c #5D4B34",
"C.	c #67543B",
"D.	c #5A4C36",
"E.	c #6B5A3D",
"F.	c #5B4E39",
"G.	c #554936",
"H.	c #544835",
"I.	c #574B38",
"J.	c #5C513C",
"K.	c #61553E",
"L.	c #685A41",
"M.	c #6D5E43",
"N.	c #6F6045",
"O.	c #685940",
"P.	c #65553B",
"Q.	c #604F37",
"R.	c #584731",
"S.	c #3A2D24",
"T.	c #433327",
"U.	c #644E35",
"V.	c #6C563B",
"W.	c #756041",
"X.	c #7D6847",
"Y.	c #84704B",
"Z.	c #8A7750",
"`.	c #8B764C",
" +	c #8C7950",
".+	c #81704C",
"++	c #786645",
"@+	c #7B6948",
"#+	c #7A6947",
"$+	c #7F6E4B",
"%+	c #84734E",
"&+	c #897851",
"*+	c #9F8E5E",
"=+	c #9D8C5D",
"-+	c #8B7C55",
";+	c #887853",
">+	c #81724F",
",+	c #796A4A",
"'+	c #69593D",
")+	c #5A4A33",
"!+	c #4B3D2B",
"~+	c #6E5A3B",
"{+	c #7F6845",
"]+	c #7C6644",
"^+	c #6F5D40",
"/+	c #645138",
"(+	c #5D4A34",
"_+	c #645239",
":+	c #6D5A3E",
"<+	c #6B593E",
"[+	c #64553C",
"}+	c #564A37",
"|+	c #5E533D",
"1+	c #655840",
"2+	c #6C5D43",
"3+	c #726447",
"4+	c #6D5F43",
"5+	c #66563C",
"6+	c #5E4D36",
"7+	c #594832",
"8+	c #3D3025",
"9+	c #624C34",
"0+	c #695339",
"a+	c #715A3D",
"b+	c #766142",
"c+	c #85714C",
"d+	c #8F7C51",
"e+	c #8E7B51",
"f+	c #82704C",
"g+	c #7A6847",
"h+	c #7C6A48",
"i+	c #83714D",
"j+	c #7B6A48",
"k+	c #7C6A49",
"l+	c #7D6C49",
"m+	c #7E6D4A",
"n+	c #85734E",
"o+	c #907F56",
"p+	c #928258",
"q+	c #918158",
"r+	c #8D7D56",
"s+	c #877852",
"t+	c #83734F",
"u+	c #7D6E4D",
"v+	c #776849",
"w+	c #6D5D41",
"x+	c #564631",
"y+	c #796442",
"z+	c #7F6946",
"A+	c #7A6544",
"B+	c #6E5B3F",
"C+	c #5E4C35",
"D+	c #5E4B34",
"E+	c #6E5C3F",
"F+	c #736042",
"G+	c #6F5C40",
"H+	c #5A4E39",
"I+	c #5C503B",
"J+	c #64573F",
"K+	c #675A41",
"L+	c #6B5D43",
"M+	c #65553C",
"N+	c #483929",
"O+	c #382B23",
"P+	c #614B34",
"Q+	c #685238",
"R+	c #6F593D",
"S+	c #786444",
"T+	c #826E4A",
"U+	c #958154",
"V+	c #948153",
"W+	c #82714D",
"X+	c #84724E",
"Y+	c #897751",
"Z+	c #877650",
"`+	c #7F6D4A",
" @	c #806E4B",
".@	c #86754F",
"+@	c #8C7B54",
"@@	c #98885C",
"#@	c #95855A",
"$@	c #8F8057",
"%@	c #897954",
"&@	c #766748",
"*@	c #736446",
"=@	c #4D4131",
"-@	c #816B47",
";@	c #6B583D",
">@	c #67543A",
",@	c #66533A",
"'@	c #6A583D",
")@	c #725F41",
"!@	c #6C5A3E",
"~@	c #5F513A",
"{@	c #594D38",
"]@	c #5B503B",
"^@	c #665840",
"/@	c #6E6044",
"(@	c #6E5F44",
"_@	c #64543A",
":@	c #4A3B2A",
"<@	c #443627",
"[@	c #4C3A2A",
"}@	c #604A33",
"|@	c #745F41",
"1@	c #7D6947",
"2@	c #87744E",
"3@	c #907C51",
"4@	c #8F7B51",
"5@	c #887750",
"6@	c #887650",
"7@	c #8A7851",
"8@	c #8B7952",
"9@	c #8D7B54",
"0@	c #83724E",
"a@	c #816F4B",
"b@	c #948459",
"c@	c #9D8C5E",
"d@	c #97875C",
"e@	c #8D7E56",
"f@	c #7E6F4D",
"g@	c #7B6C4B",
"h@	c #726345",
"i@	c #463B2E",
"j@	c #6A583E",
"k@	c #87704B",
"l@	c #836D48",
"m@	c #7F6945",
"n@	c #7B6544",
"o@	c #776243",
"p@	c #6D5B3F",
"q@	c #705E41",
"r@	c #715F41",
"s@	c #68573D",
"t@	c #5F523B",
"u@	c #5C4F39",
"v@	c #584C38",
"w@	c #564B38",
"x@	c #60543E",
"y@	c #61543E",
"z@	c #62553E",
"A@	c #716246",
"B@	c #6B5C42",
"C@	c #554530",
"D@	c #4E3E2C",
"E@	c #352921",
"F@	c #4C392A",
"G@	c #5F4933",
"H@	c #654F36",
"I@	c #6A5439",
"J@	c #6D563B",
"K@	c #70593D",
"L@	c #786344",
"M@	c #87724D",
"N@	c #897750",
"O@	c #918057",
"P@	c #84734F",
"Q@	c #85744F",
"R@	c #8E7D55",
"S@	c #9C8C5E",
"T@	c #A28F5F",
"U@	c #A18F5F",
"V@	c #98885D",
"W@	c #938359",
"X@	c #877752",
"Y@	c #847550",
"Z@	c #837450",
"`@	c #7F6F4D",
" #	c #726346",
".#	c #40362B",
"+#	c #564836",
"@#	c #89714D",
"##	c #856E4A",
"$#	c #826C48",
"%#	c #796343",
"&#	c #62533B",
"*#	c #5E503A",
"=#	c #554A38",
"-#	c #544A38",
";#	c #5C513B",
">#	c #6A5C42",
",#	c #675940",
"'#	c #635239",
")#	c #584832",
"!#	c #443729",
"~#	c #362A22",
"{#	c #665036",
"]#	c #6B553A",
"^#	c #6C563A",
"/#	c #735D3F",
"(#	c #7A6545",
"_#	c #7F6A48",
":#	c #846F4B",
"<#	c #88764F",
"[#	c #8F7E56",
"}#	c #928158",
"|#	c #86744F",
"1#	c #8B7A53",
"2#	c #A08E5F",
"3#	c #A3915F",
"4#	c #A6925F",
"5#	c #9F8E5F",
"6#	c #99895D",
"7#	c #96865B",
"8#	c #8E7F56",
"9#	c #8A7B55",
"0#	c #695C42",
"a#	c #41372C",
"b#	c #564936",
"c#	c #8D744F",
"d#	c #8F764F",
"e#	c #846E49",
"f#	c #806A46",
"g#	c #7D6744",
"h#	c #67573D",
"i#	c #5A4D39",
"j#	c #584D39",
"k#	c #594D39",
"l#	c #5B4F3B",
"m#	c #62563E",
"n#	c #66563D",
"o#	c #594C37",
"p#	c #403327",
"q#	c #634D35",
"r#	c #776344",
"s#	c #7B6646",
"t#	c #7E6947",
"u#	c #816D49",
"v#	c #87734E",
"w#	c #8C7A53",
"x#	c #928058",
"y#	c #8B7A52",
"z#	c #A08E5E",
"A#	c #A2905F",
"B#	c #9E8D5F",
"C#	c #9B8B5E",
"D#	c #97875B",
"E#	c #5D523C",
"F#	c #42382C",
"G#	c #594B37",
"H#	c #957C53",
"I#	c #967C53",
"J#	c #8A724C",
"K#	c #7E6845",
"L#	c #62543C",
"M#	c #5A4F3A",
"N#	c #5F543D",
"O#	c #63563F",
"P#	c #655740",
"Q#	c #4A3829",
"R#	c #695338",
"S#	c #695439",
"T#	c #6F583C",
"U#	c #796545",
"V#	c #7C6746",
"W#	c #806B48",
"X#	c #8E7C54",
"Y#	c #958359",
"Z#	c #A08A5A",
"`#	c #A38E5C",
" $	c #A48F5D",
".$	c #A18A5A",
"+$	c #A28C5B",
"@$	c #A5915F",
"#$	c #9C8B5E",
"$$	c #887A55",
"%$	c #857651",
"&$	c #43392D",
"*$	c #5D4F39",
"=$	c #A48C60",
"-$	c #89724C",
";$	c #806A47",
">$	c #67563D",
",$	c #584B38",
"'$	c #524837",
")$	c #5D513C",
"!$	c #5A4E3A",
"~$	c #524634",
"{$	c #3F3327",
"]$	c #403125",
"^$	c #55412E",
"/$	c #665137",
"($	c #796443",
"_$	c #745E40",
":$	c #7A6645",
"<$	c #786445",
"[$	c #87734D",
"}$	c #907C53",
"|$	c #927E52",
"1$	c #958053",
"2$	c #968054",
"3$	c #957F53",
"4$	c #998355",
"5$	c #A5915E",
"6$	c #AC9C6C",
"7$	c #A39467",
"8$	c #7F7150",
"9$	c #62563F",
"0$	c #574D3A",
"a$	c #44392D",
"b$	c #5A4C37",
"c$	c #836E4B",
"d$	c #8E754F",
"e$	c #786343",
"f$	c #746041",
"g$	c #715E40",
"h$	c #6C5A3F",
"i$	c #69583D",
"j$	c #63543C",
"k$	c #5C4F3A",
"l$	c #544938",
"m$	c #534937",
"n$	c #4F4536",
"o$	c #493F31",
"p$	c #4F4435",
"q$	c #4F4535",
"r$	c #514636",
"s$	c #524836",
"t$	c #534836",
"u$	c #554937",
"v$	c #554A37",
"w$	c #504433",
"x$	c #4C4030",
"y$	c #44382B",
"z$	c #3D3227",
"A$	c #3B3026",
"B$	c #3A2D23",
"C$	c #3E2F25",
"D$	c #443427",
"E$	c #423327",
"F$	c #3E3025",
"G$	c #493A2A",
"H$	c #4B3B2B",
"I$	c #513F2D",
"J$	c #554430",
"K$	c #564632",
"L$	c #554632",
"M$	c #524330",
"N$	c #554531",
"O$	c #544431",
"P$	c #5A4933",
"Q$	c #625137",
"R$	c #69583B",
"S$	c #67563A",
"T$	c #5D4D35",
"U$	c #5B4B34",
"V$	c #635238",
"W$	c #63553C",
"X$	c #5A4D37",
"Y$	c #453A2C",
"Z$	c #41372B",
"`$	c #41362B",
" %	c #483D2F",
".%	c #483B2D",
"+%	c #4A3D2E",
"@%	c #44382C",
"#%	c #40352A",
"$%	c #3D3329",
"%%	c #3F352A",
"&%	c #3E352A",
"*%	c #3F352B",
"=%	c #3E342A",
"-%	c #3D342A",
";%	c #3A3128",
">%	c #393027",
",%	c #382F26",
"'%	c #3A3127",
")%	c #3B3128",
"!%	c #3A3027",
"~%	c #392F26",
"{%	c #382D25",
"]%	c #372C24",
"^%	c #362B23",
"/%	c #352A22",
"(%	c #564530",
"_%	c #55442F",
":%	c #54442F",
"<%	c #4D3E2C",
"[%	c #614E35",
"}%	c #4F3F2E",
"|%	c #413327",
"1%	c #3B2E25",
"2%	c #4E3E2D",
"3%	c #5F4D36",
"4%	c #6B573B",
"5%	c #6F5A3D",
"6%	c #755F40",
"7%	c #7D6643",
"8%	c #897147",
"9%	c #947D4C",
"0%	c #7A6541",
"a%	c #594831",
"b%	c #544430",
"c%	c #7D6942",
"d%	c #7E6B44",
"e%	c #836F47",
"f%	c #8A764B",
"g%	c #8F7B4E",
"h%	c #8D7A4D",
"i%	c #84734D",
"j%	c #7F704B",
"k%	c #7B6C49",
"l%	c #786847",
"m%	c #766746",
"n%	c #776846",
"o%	c #7C6C49",
"p%	c #776948",
"q%	c #807350",
"r%	c #7C6F4C",
"s%	c #796C4A",
"t%	c #675B40",
"u%	c #4D4434",
"v%	c #756A4D",
"w%	c #796E4D",
"x%	c #75694B",
"y%	c #716549",
"z%	c #685D44",
"A%	c #60563F",
"B%	c #5F553F",
"C%	c #625841",
"D%	c #645A42",
"E%	c #625740",
"F%	c #4A402F",
"G%	c #574B36",
"H%	c #564B36",
"I%	c #5A4E37",
"J%	c #5B5039",
"K%	c #584D37",
"L%	c #594E38",
"M%	c #5B4F38",
"N%	c #564A34",
"O%	c #5F5137",
"P%	c #5C4E36",
"Q%	c #574A34",
"R%	c #6C583C",
"S%	c #665238",
"T%	c #635036",
"U%	c #675338",
"V%	c #6A563A",
"W%	c #7C6543",
"X%	c #5D4B35",
"Y%	c #463829",
"Z%	c #423428",
"`%	c #574431",
" &	c #705B3E",
".&	c #806844",
"+&	c #7F6744",
"@&	c #846B45",
"#&	c #8F754A",
"$&	c #9D8250",
"%&	c #B49A5C",
"&&	c #9A804F",
"*&	c #6B593B",
"=&	c #4C3D2C",
"-&	c #796642",
";&	c #A68F58",
">&	c #8F7A4D",
",&	c #968254",
"'&	c #8F7C50",
")&	c #8B784F",
"!&	c #82724C",
"~&	c #83734D",
"{&	c #887851",
"]&	c #8D7D54",
"^&	c #8C7C54",
"/&	c #94865B",
"(&	c #96885D",
"_&	c #93865C",
":&	c #96895F",
"<&	c #9C9365",
"[&	c #A1976A",
"}&	c #6C5F44",
"|&	c #4B4233",
"1&	c #776C4F",
"2&	c #90845B",
"3&	c #8C8058",
"4&	c #7E7250",
"5&	c #796E4E",
"6&	c #6E6348",
"7&	c #6C6147",
"8&	c #675C44",
"9&	c #5F553E",
"0&	c #7F734F",
"a&	c #7F744F",
"b&	c #706448",
"c&	c #6E6246",
"d&	c #6F6041",
"e&	c #726242",
"f&	c #756442",
"g&	c #736342",
"h&	c #8B7546",
"i&	c #7E6A43",
"j&	c #705C3C",
"k&	c #766141",
"l&	c #715C3E",
"m&	c #655137",
"n&	c #624F36",
"o&	c #4A3B2B",
"p&	c #433529",
"q&	c #5F4B35",
"r&	c #755E3F",
"s&	c #6B543A",
"t&	c #6C553A",
"u&	c #745B3D",
"v&	c #826843",
"w&	c #967A4D",
"x&	c #997E4F",
"y&	c #74603F",
"z&	c #6B5A3C",
"A&	c #83714B",
"B&	c #80704B",
"C&	c #81704B",
"D&	c #82714C",
"E&	c #81714C",
"F&	c #867650",
"G&	c #8E7E55",
"H&	c #928358",
"I&	c #95875C",
"J&	c #A19568",
"K&	c #9D9466",
"L&	c #9D9467",
"M&	c #6F6246",
"N&	c #443C30",
"O&	c #534A38",
"P&	c #635840",
"Q&	c #8F835B",
"R&	c #93875D",
"S&	c #8A7F5A",
"T&	c #6C6046",
"U&	c #645942",
"V&	c #615540",
"W&	c #6A5E45",
"X&	c #71674A",
"Y&	c #6C6347",
"Z&	c #857A54",
"`&	c #716749",
" *	c #6F6143",
".*	c #706141",
"+*	c #746342",
"@*	c #796744",
"#*	c #816E47",
"$*	c #837047",
"%*	c #7C6943",
"&*	c #786440",
"**	c #7B6543",
"=*	c #756040",
"-*	c #69553A",
";*	c #6E593C",
">*	c #705B3D",
",*	c #4A3B2C",
"'*	c #433528",
")*	c #6E573C",
"!*	c #695239",
"~*	c #665038",
"{*	c #685239",
"]*	c #755D3E",
"^*	c #866B45",
"/*	c #886E47",
"(*	c #655339",
"_*	c #6F5F40",
":*	c #786846",
"<*	c #7D6C48",
"[*	c #7D6D49",
"}*	c #83734E",
"|*	c #877751",
"1*	c #908057",
"2*	c #93845A",
"3*	c #96895E",
"4*	c #9A8F62",
"5*	c #9B9063",
"6*	c #988C5F",
"7*	c #726648",
"8*	c #423A2F",
"9*	c #504737",
"0*	c #544B39",
"a*	c #928760",
"b*	c #958A63",
"c*	c #73674B",
"d*	c #6A5F45",
"e*	c #645842",
"f*	c #625741",
"g*	c #6F6448",
"h*	c #7A6F50",
"i*	c #6D6247",
"j*	c #6C6146",
"k*	c #6E6042",
"l*	c #716141",
"m*	c #786744",
"n*	c #806E47",
"o*	c #826F47",
"p*	c #816E46",
"q*	c #7E6A44",
"r*	c #7E6945",
"s*	c #786342",
"t*	c #735E3F",
"u*	c #6D583C",
"v*	c #635037",
"w*	c #443628",
"x*	c #544330",
"y*	c #675138",
"z*	c #675139",
"A*	c #745C3E",
"B*	c #7E6440",
"C*	c #7F6541",
"D*	c #574833",
"E*	c #473829",
"F*	c #6E5D3F",
"G*	c #746343",
"H*	c #776745",
"I*	c #7C6B48",
"J*	c #7E6D49",
"K*	c #82724D",
"L*	c #8D7D55",
"M*	c #978A5E",
"N*	c #93875C",
"O*	c #94875D",
"P*	c #91855B",
"Q*	c #6D6145",
"R*	c #453D30",
"S*	c #7C7152",
"T*	c #796D4F",
"U*	c #695E45",
"V*	c #6B6046",
"W*	c #6A5E43",
"X*	c #6B5E42",
"Y*	c #736242",
"Z*	c #7C6A46",
"`*	c #837149",
" =	c #85724A",
".=	c #837048",
"+=	c #816D47",
"@=	c #7C6643",
"#=	c #776242",
"$=	c #433427",
"%=	c #584530",
"&=	c #5B4732",
"*=	c #614B35",
"==	c #675038",
"-=	c #735B3E",
";=	c #7D6340",
">=	c #8A7A53",
",=	c #908157",
"'=	c #938459",
")=	c #95885D",
"!=	c #91845B",
"~=	c #8A7D57",
"{=	c #857854",
"]=	c #453D31",
"^=	c #695F46",
"/=	c #73674A",
"(=	c #6A5F46",
"_=	c #695D42",
":=	c #7E6D47",
"<=	c #85734A",
"[=	c #7D6844",
"}=	c #6D593B",
"|=	c #403227",
"1=	c #5E4934",
"2=	c #69533A",
"3=	c #634D36",
"4=	c #775E3E",
"5=	c #7F6540",
"6=	c #5C4A33",
"7=	c #48392A",
"8=	c #635338",
"9=	c #6F5E40",
"0=	c #736343",
"a=	c #97895E",
"b=	c #998B5E",
"c=	c #9A8C5F",
"d=	c #998C5E",
"e=	c #94885D",
"f=	c #867955",
"g=	c #827552",
"h=	c #7B6E4D",
"i=	c #463E31",
"j=	c #574D3B",
"k=	c #6D5F41",
"l=	c #7D6B46",
"m=	c #847249",
"n=	c #806B46",
"o=	c #7B6643",
"p=	c #745F40",
"q=	c #4F402D",
"r=	c #574430",
"s=	c #644E37",
"t=	c #765D3E",
"u=	c #896E44",
"v=	c #876C43",
"w=	c #645037",
"x=	c #6C5B3D",
"y=	c #705F40",
"z=	c #786746",
"A=	c #8F7F56",
"B=	c #95885C",
"C=	c #A09261",
"D=	c #A19362",
"E=	c #9F9060",
"F=	c #8F825A",
"G=	c #7C6F4E",
"H=	c #77694A",
"I=	c #494133",
"J=	c #554C3A",
"K=	c #766543",
"L=	c #7C6B46",
"M=	c #827048",
"N=	c #827047",
"O=	c #816944",
"P=	c #7F6844",
"Q=	c #776241",
"R=	c #52402F",
"S=	c #6A533A",
"T=	c #725A3D",
"U=	c #907447",
"V=	c #8F7346",
"W=	c #6A5539",
"X=	c #6A5A3D",
"Y=	c #756544",
"Z=	c #8B7B53",
"`=	c #93855A",
" -	c #9C8E5F",
".-	c #A29463",
"+-	c #A19262",
"@-	c #988B5E",
"#-	c #92865C",
"$-	c #897C56",
"%-	c #837652",
"&-	c #7D704F",
"*-	c #796C4C",
"=-	c #736547",
"--	c #524938",
";-	c #605640",
">-	c #6A5E44",
",-	c #6A5F44",
"'-	c #685D42",
")-	c #665B41",
"!-	c #6E6041",
"~-	c #786341",
"{-	c #7A6442",
"]-	c #594932",
"^-	c #4F3E2E",
"/-	c #6C553B",
"(-	c #826841",
"_-	c #8D7145",
":-	c #927647",
"<-	c #907446",
"[-	c #725C3C",
"}-	c #4F402E",
"|-	c #726141",
"1-	c #796946",
"2-	c #84744E",
"3-	c #988A5D",
"4-	c #A09161",
"5-	c #9D8E5F",
"6-	c #9A8C5E",
"7-	c #8D8159",
"8-	c #7D704E",
"9-	c #756748",
"0-	c #453C30",
"a-	c #4F4636",
"b-	c #534A39",
"c-	c #71664B",
"d-	c #73684A",
"e-	c #685C42",
"f-	c #655B40",
"g-	c #645A40",
"h-	c #6A5D41",
"i-	c #716142",
"j-	c #796845",
"k-	c #7F6D47",
"l-	c #6D593C",
"m-	c #766040",
"n-	c #7E6743",
"o-	c #5C4B33",
"p-	c #403326",
"q-	c #4B3C2C",
"r-	c #584531",
"s-	c #745C3D",
"t-	c #7A603F",
"u-	c #846A42",
"v-	c #997D4A",
"w-	c #9C814C",
"x-	c #7B633F",
"y-	c #66563A",
"z-	c #7B6A47",
"A-	c #84744F",
"B-	c #81734F",
"C-	c #887B56",
"D-	c #7F724F",
"E-	c #7A6D4D",
"F-	c #76684A",
"G-	c #746648",
"H-	c #736548",
"I-	c #675A42",
"J-	c #483F32",
"K-	c #494033",
"L-	c #675C43",
"M-	c #766A4B",
"N-	c #62583F",
"O-	c #5A513A",
"P-	c #5F553D",
"Q-	c #63583E",
"R-	c #62583E",
"S-	c #60553B",
"T-	c #60543A",
"U-	c #61553A",
"V-	c #67573A",
"W-	c #726241",
"X-	c #756443",
"Y-	c #716140",
"Z-	c #4F3F2D",
"`-	c #53422E",
" ;	c #695538",
".;	c #6A5638",
"+;	c #675439",
"@;	c #3C2E24",
"#;	c #453629",
"$;	c #4D3D2D",
"%;	c #594531",
"&;	c #735A3C",
"*;	c #785F3E",
"=;	c #7D643F",
"-;	c #907546",
";;	c #9C804C",
">;	c #715B3C",
",;	c #4E3F2E",
"';	c #605036",
");	c #645339",
"!;	c #66563B",
"~;	c #66553A",
"{;	c #65543A",
"];	c #66573B",
"^;	c #6C5C3F",
"/;	c #62543B",
"(;	c #5D503A",
"_;	c #685B41",
":;	c #736648",
"<;	c #756749",
"[;	c #706246",
"};	c #6E6045",
"|;	c #665940",
"1;	c #4A4032",
"2;	c #4A4134",
"3;	c #554C39",
"4;	c #514836",
"5;	c #4D4433",
"6;	c #473F30",
"7;	c #473E30",
"8;	c #453B2E",
"9;	c #463C2E",
"0;	c #493F30",
"a;	c #4B4232",
"b;	c #4B4131",
"c;	c #4D4331",
"d;	c #514531",
"e;	c #554732",
"f;	c #574933",
"g;	c #564933",
"h;	c #554833",
"i;	c #534531",
"j;	c #5C4B32",
"k;	c #5E4D32",
"l;	c #604F33",
"m;	c #614F33",
"n;	c #5F4E32",
"o;	c #59482F",
"p;	c #57462E",
"q;	c #56452E",
"r;	c #50402C",
"s;	c #54432D",
"t;	c #53422C",
"u;	c #55432D",
"v;	c #56442E",
"w;	c #57452F",
"x;	c #59462F",
"y;	c #5D4A31",
"z;	c #5F4B31",
"A;	c #695535",
"B;	c #5F4D31",
"C;	c #50412D",
"D;	c #50402D",
"E;	c #4F3F2C",
"F;	c #4D3E2B",
"G;	c #52432E",
"H;	c #574831",
"I;	c #615339",
"J;	c #63563B",
"K;	c #6B5F41",
"L;	c #695C40",
"M;	c #65573F",
"N;	c #665A40",
"O;	c #594E3A",
"P;	c #4C4434",
"Q;	c #453E31",
"R;	c #463F32",
"S;	c #423A2E",
"T;	c #3B3329",
"U;	c #3D352A",
"V;	c #3F372C",
"W;	c #40382D",
"X;	c #443C2F",
"Y;	c #453E30",
"Z;	c #484132",
"`;	c #524C39",
" >	c #514937",
".>	c #493E30",
"+>	c #504432",
"@>	c #544834",
"#>	c #534834",
"$>	c #554934",
"%>	c #937D4A",
"&>	c #99834D",
"*>	c #9B854E",
"=>	c #9D864F",
"->	c #AD9655",
";>	c #AF9753",
">>	c #A38C4F",
",>	c #9A834B",
"'>	c #98814A",
")>	c #937D47",
"!>	c #6C5837",
"~>	c #9A7E45",
"{>	c #AA8D4B",
"]>	c #B0944E",
"^>	c #B69A52",
"/>	c #BBA156",
"(>	c #C5B063",
"_>	c #C4AE61",
":>	c #D2BE6C",
"<>	c #BFA859",
"[>	c #CDB660",
"}>	c #C3AC5A",
"|>	c #BAA355",
"1>	c #B49D52",
"2>	c #AE9850",
"3>	c #AC954F",
"4>	c #AD9650",
"5>	c #B6A157",
"6>	c #C5B667",
"7>	c #C2B56C",
"8>	c #BCAD64",
"9>	c #65583D",
"0>	c #978A58",
"a>	c #B1A56B",
"b>	c #D0C580",
"c>	c #B6AD6F",
"d>	c #ACA368",
"e>	c #ACA369",
"f>	c #AAA269",
"g>	c #9F9765",
"h>	c #989063",
"i>	c #817B56",
"j>	c #726C4E",
"k>	c #696349",
"l>	c #494334",
"m>	c #625C44",
"n>	c #655F46",
"o>	c #6B6449",
"p>	c #716C4E",
"q>	c #7C7553",
"r>	c #857E57",
"s>	c #8E875B",
"t>	c #968E5E",
"u>	c #807954",
"v>	c #544B38",
"w>	c #746544",
"x>	c #7B6845",
"y>	c #7F6C47",
"z>	c #83714A",
"A>	c #88764D",
"B>	c #A38C51",
"C>	c #B49E5D",
"D>	c #BBA562",
"E>	c #AF995A",
"F>	c #B7A060",
"G>	c #B09553",
"H>	c #B39955",
"I>	c #C2A759",
"J>	c #C8AD5B",
"K>	c #8D7542",
"L>	c #A5894A",
"M>	c #C8A959",
"N>	c #BEA154",
"O>	c #B79B50",
"P>	c #BBA153",
"Q>	c #BDA354",
"R>	c #BEA555",
"S>	c #C9B15E",
"T>	c #D5BF68",
"U>	c #E2CE71",
"V>	c #D1BC64",
"W>	c #D3BD65",
"X>	c #CCB65E",
"Y>	c #C9B25B",
"Z>	c #CBB45D",
"`>	c #CDB65D",
" ,	c #CDB75E",
".,	c #CDB860",
"+,	c #C8B662",
"@,	c #E3D67E",
"#,	c #E4D77E",
"$,	c #A99552",
"%,	c #695D3F",
"&,	c #9D915D",
"*,	c #C7BC7C",
"=,	c #C8BE7D",
"-,	c #B5AD71",
";,	c #AFA86D",
">,	c #A49D68",
",,	c #A7A06B",
"',	c #A39D6C",
"),	c #A29D6B",
"!,	c #908E67",
"~,	c #807E5B",
"{,	c #7D7A57",
"],	c #777252",
"^,	c #6C664A",
"/,	c #736D4F",
"(,	c #757051",
"_,	c #777253",
":,	c #7E7856",
"<,	c #8F875C",
"[,	c #A8A26E",
"},	c #A49D6A",
"|,	c #A8A169",
"1,	c #99905E",
"2,	c #574C39",
"3,	c #81714D",
"4,	c #897852",
"5,	c #8A784E",
"6,	c #907F54",
"7,	c #9B8A59",
"8,	c #B09959",
"9,	c #B8A260",
"0,	c #B6A05F",
"a,	c #AB9457",
"b,	c #A48A4F",
"c,	c #A1854B",
"d,	c #9F824A",
"e,	c #9E8048",
"f,	c #A4874C",
"g,	c #82683D",
"h,	c #B3974F",
"i,	c #B5984F",
"j,	c #AF924B",
"k,	c #B1944C",
"l,	c #B79C51",
"m,	c #BAA053",
"n,	c #BDA454",
"o,	c #C0A856",
"p,	c #C9B35E",
"q,	c #CAB45E",
"r,	c #C6B05A",
"s,	c #C1A955",
"t,	c #C3AD59",
"u,	c #C6B05B",
"v,	c #C0AA5A",
"w,	c #B6A156",
"x,	c #B49E55",
"y,	c #C2AD5D",
"z,	c #DDCA6D",
"A,	c #8E7B48",
"B,	c #6C6040",
"C,	c #AFA46B",
"D,	c #C4B97A",
"E,	c #BAB075",
"F,	c #A9A26B",
"G,	c #9F9A69",
"H,	c #9D9868",
"I,	c #9D9869",
"J,	c #9B9668",
"K,	c #A2A378",
"L,	c #90946B",
"M,	c #8A8C65",
"N,	c #84845F",
"O,	c #83825B",
"P,	c #736E51",
"Q,	c #746E51",
"R,	c #797354",
"S,	c #837C59",
"T,	c #89825E",
"U,	c #918D65",
"V,	c #9C986C",
"W,	c #A39F70",
"X,	c #857A55",
"Y,	c #524635",
"Z,	c #897850",
"`,	c #8C7B52",
" '	c #8C7B50",
".'	c #9C8B5A",
"+'	c #A4945D",
"@'	c #B29D5D",
"#'	c #B09A5C",
"$'	c #A89155",
"%'	c #A0854C",
"&'	c #9E8149",
"*'	c #9A7A44",
"='	c #9B7B45",
"-'	c #987943",
";'	c #A98747",
">'	c #A78646",
",'	c #AC8C49",
"''	c #AE904B",
")'	c #B4984F",
"!'	c #B69A50",
"~'	c #C5AF5B",
"{'	c #CBB65F",
"]'	c #CBB660",
"^'	c #C6B05C",
"/'	c #C2AD5A",
"('	c #BCA759",
"_'	c #B49F55",
":'	c #C7B360",
"<'	c #837044",
"['	c #736746",
"}'	c #C2B779",
"|'	c #A59F6A",
"1'	c #9B9667",
"2'	c #989366",
"3'	c #979266",
"4'	c #98966A",
"5'	c #9A9E73",
"6'	c #969A71",
"7'	c #959A6D",
"8'	c #7C7958",
"9'	c #756F52",
"0'	c #787254",
"a'	c #7E7756",
"b'	c #88805C",
"c'	c #9B976B",
"d'	c #A39F72",
"e'	c #A8A475",
"f'	c #776E50",
"g'	c #514535",
"h'	c #908056",
"i'	c #907F55",
"j'	c #988758",
"k'	c #A2925C",
"l'	c #AC9A5F",
"m'	c #B49F5E",
"n'	c #AE995A",
"o'	c #A48A50",
"p'	c #9B7F49",
"q'	c #9A7C46",
"r'	c #9C7C44",
"s'	c #A58446",
"t'	c #A68446",
"u'	c #A48244",
"v'	c #A78546",
"w'	c #AE914B",
"x'	c #B1954C",
"y'	c #B0944C",
"z'	c #B89C51",
"A'	c #C1AB59",
"B'	c #CEBA63",
"C'	c #CCB861",
"D'	c #C8B561",
"E'	c #C3AF5C",
"F'	c #BFAA5A",
"G'	c #B5A056",
"H'	c #B8A358",
"I'	c #B39F56",
"J'	c #76643F",
"K'	c #8B8156",
"L'	c #C1B678",
"M'	c #BEB477",
"N'	c #ACA46D",
"O'	c #9D9768",
"P'	c #999467",
"Q'	c #959065",
"R'	c #938D63",
"S'	c #928C62",
"T'	c #8F8960",
"U'	c #8C8860",
"V'	c #8E946B",
"W'	c #7C7D5B",
"X'	c #736E52",
"Y'	c #726D50",
"Z'	c #787253",
"`'	c #827B58",
" )	c #8B855F",
".)	c #969268",
"+)	c #A4A072",
"@)	c #ABA778",
"#)	c #A9A677",
"$)	c #534736",
"%)	c #837451",
"&)	c #9B8A5D",
"*)	c #938257",
"=)	c #9D8C5A",
"-)	c #A6965E",
";)	c #B19E60",
">)	c #B49E5E",
",)	c #AD985A",
"')	c #9E844D",
"))	c #917544",
"!)	c #937442",
"~)	c #957542",
"{)	c #987843",
"])	c #9E7D45",
"^)	c #A88647",
"/)	c #A88547",
"()	c #AA8948",
"_)	c #AE8F4A",
":)	c #BA9F52",
"<)	c #C5AE5B",
"[)	c #CDB861",
"})	c #CDBB67",
"|)	c #C9B763",
"1)	c #C6B461",
"2)	c #BAA659",
"3)	c #B6A056",
"4)	c #B9A458",
"5)	c #A99451",
"6)	c #75633E",
"7)	c #A69D68",
"8)	c #A19865",
"9)	c #988D5E",
"0)	c #958B5F",
"a)	c #918B61",
"b)	c #908A60",
"c)	c #8A835C",
"d)	c #84805B",
"e)	c #7E7B59",
"f)	c #737457",
"g)	c #777658",
"h)	c #767153",
"i)	c #726D51",
"j)	c #716C50",
"k)	c #807957",
"l)	c #908B64",
"m)	c #99956B",
"n)	c #AFAD7D",
"o)	c #A8A577",
"p)	c #655941",
"q)	c #564A38",
"r)	c #877853",
"s)	c #988759",
"t)	c #A1905C",
"u)	c #A1915C",
"v)	c #A6955E",
"w)	c #B19D60",
"x)	c #B19C5D",
"y)	c #B09B5C",
"z)	c #A28A50",
"A)	c #8D7142",
"B)	c #8E7242",
"C)	c #977743",
"D)	c #9F7E45",
"E)	c #AA8748",
"F)	c #AB8849",
"G)	c #A58445",
"H)	c #AD8F4A",
"I)	c #B4984E",
"J)	c #C0A958",
"K)	c #C6B15D",
"L)	c #CDBC68",
"M)	c #CDBC69",
"N)	c #CCBB68",
"O)	c #C5B362",
"P)	c #BCA85D",
"Q)	c #BAA55A",
"R)	c #BAA559",
"S)	c #B19C55",
"T)	c #927D47",
"U)	c #72603C",
"V)	c #867951",
"W)	c #8D8156",
"X)	c #8C8056",
"Y)	c #8C8258",
"Z)	c #8C835A",
"`)	c #8C855D",
" !	c #88825C",
".!	c #7A7455",
"+!	c #777254",
"@!	c #777456",
"#!	c #7B7555",
"$!	c #89825D",
"%!	c #9C976C",
"&!	c #ABA879",
"*!	c #A9A476",
"=!	c #685D43",
"-!	c #554837",
";!	c #847551",
">!	c #978658",
",!	c #AB995F",
"'!	c #B19B5D",
")!	c #AE985A",
"!!	c #A0864E",
"~!	c #907544",
"{!	c #8B6F41",
"]!	c #8C7042",
"^!	c #947442",
"/!	c #9B7B44",
"(!	c #AC8949",
"_!	c #A38144",
":!	c #A68445",
"<!	c #A88747",
"[!	c #AC8D49",
"}!	c #B0934C",
"|!	c #B2964E",
"1!	c #BEA656",
"2!	c #C4AF5C",
"3!	c #CDB862",
"4!	c #C8B764",
"5!	c #BFAC5E",
"6!	c #BCA95E",
"7!	c #B39D55",
"8!	c #BAA65A",
"9!	c #9E8A50",
"0!	c #6C5B3A",
"a!	c #6C5E3F",
"b!	c #87794E",
"c!	c #87784D",
"d!	c #897A50",
"e!	c #8B7F56",
"f!	c #877C53",
"g!	c #8B8056",
"h!	c #8C845B",
"i!	c #8B845D",
"j!	c #85805B",
"k!	c #7C7555",
"l!	c #767052",
"m!	c #746D50",
"n!	c #726A4E",
"o!	c #797254",
"p!	c #7D7656",
"q!	c #817A57",
"r!	c #8B845F",
"s!	c #9E9A6E",
"t!	c #AAA778",
"u!	c #A8A476",
"v!	c #574B39",
"w!	c #776949",
"x!	c #998859",
"y!	c #9F8F5B",
"z!	c #A5955D",
"A!	c #A8975E",
"B!	c #AC9659",
"C!	c #AC9558",
"D!	c #9A804A",
"E!	c #8F7444",
"F!	c #886C3F",
"G!	c #886C40",
"H!	c #8E7142",
"I!	c #AC8849",
"J!	c #AD894A",
"K!	c #9C7C42",
"L!	c #9F7E43",
"M!	c #A07F44",
"N!	c #AB8C49",
"O!	c #AE8F4B",
"P!	c #BDA555",
"Q!	c #C0AA59",
"R!	c #C5B05D",
"S!	c #CBBA67",
"T!	c #C9B865",
"U!	c #C5B361",
"V!	c #B29C55",
"W!	c #A7914F",
"X!	c #C1AE60",
"Y!	c #A08C51",
"Z!	c #6B5939",
"`!	c #5A4D36",
" ~	c #84754C",
".~	c #897C51",
"+~	c #82754D",
"@~	c #827850",
"#~	c #857B52",
"$~	c #877D54",
"%~	c #847E58",
"&~	c #807956",
"*~	c #7B7454",
"=~	c #756E50",
"-~	c #70684D",
";~	c #6F674C",
">~	c #777052",
",~	c #9E9A6D",
"'~	c #ACA97A",
")~	c #B2B07E",
"!~	c #AAA677",
"~~	c #887951",
"{~	c #A4945E",
"]~	c #A3935D",
"^~	c #AA995F",
"/~	c #A9985F",
"(~	c #836E42",
"_~	c #A08951",
":~	c #997F4A",
"<~	c #8C7142",
"[~	c #81673D",
"}~	c #866A3F",
"|~	c #9D7D44",
"1~	c #A78547",
"2~	c #997941",
"3~	c #9B7B42",
"4~	c #A68546",
"5~	c #B2964D",
"6~	c #B5994F",
"7~	c #BFA857",
"8~	c #C1AE5E",
"9~	c #BFAB5D",
"0~	c #BAA65B",
"a~	c #BBA75B",
"b~	c #AF9953",
"c~	c #98824B",
"d~	c #98824A",
"e~	c #887446",
"f~	c #655437",
"g~	c #4D402F",
"h~	c #6F6141",
"i~	c #8B7D50",
"j~	c #A0945D",
"k~	c #847A52",
"l~	c #7F7754",
"m~	c #7A7454",
"n~	c #756E51",
"o~	c #6F664B",
"p~	c #6C6247",
"q~	c #6D6348",
"r~	c #71694D",
"s~	c #797253",
"t~	c #857D5A",
"u~	c #958F66",
"v~	c #A39F71",
"w~	c #AEAA79",
"x~	c #9F986C",
"y~	c #61563F",
"z~	c #6E6043",
"A~	c #A5955E",
"B~	c #A99960",
"C~	c #9D8D58",
"D~	c #B5A662",
"E~	c #B9AA64",
"F~	c #725E39",
"G~	c #7C6740",
"H~	c #876C3F",
"I~	c #6D5533",
"J~	c #775E38",
"K~	c #907242",
"L~	c #9A7944",
"M~	c #9D7D45",
"N~	c #947540",
"O~	c #856737",
"P~	c #8E6F3C",
"Q~	c #93743E",
"R~	c #977740",
"S~	c #A48446",
"T~	c #BA9E53",
"U~	c #B79B51",
"V~	c #AE934C",
"W~	c #B29B53",
"X~	c #AF9954",
"Y~	c #AB9552",
"Z~	c #AB9652",
"`~	c #B19C56",
" {	c #AD9753",
".{	c #9E884D",
"+{	c #8A7647",
"@{	c #826F44",
"#{	c #78653F",
"${	c #5A4A32",
"%{	c #473A2B",
"&{	c #544633",
"*{	c #7A6B44",
"={	c #897B4C",
"-{	c #7E7049",
";{	c #7E714C",
">{	c #7F734D",
",{	c #827750",
"'{	c #7B7554",
"){	c #746D4F",
"!{	c #6F674B",
"~{	c #6A6045",
"{{	c #685C43",
"]{	c #756D50",
"^{	c #847D59",
"/{	c #8C855F",
"({	c #989167",
"_{	c #908861",
":{	c #867D59",
"<{	c #5E523D",
"[{	c #6D5F42",
"}{	c #9A8957",
"|{	c #998756",
"1{	c #938153",
"2{	c #917F52",
"3{	c #9C8A57",
"4{	c #BAA963",
"5{	c #635233",
"6{	c #54422C",
"7{	c #5B482E",
"8{	c #634E30",
"9{	c #57432B",
"0{	c #544028",
"a{	c #6B5432",
"b{	c #715935",
"c{	c #785E37",
"d{	c #84683C",
"e{	c #7F6338",
"f{	c #846838",
"g{	c #7B6036",
"h{	c #7D6136",
"i{	c #816538",
"j{	c #896C3B",
"k{	c #8E703D",
"l{	c #B3984F",
"m{	c #977F46",
"n{	c #998348",
"o{	c #988247",
"p{	c #8E7843",
"q{	c #84703F",
"r{	c #826D3E",
"s{	c #836E3E",
"t{	c #836F3F",
"u{	c #76633C",
"v{	c #6C5A39",
"w{	c #675537",
"x{	c #635135",
"y{	c #635235",
"z{	c #52422D",
"A{	c #4C3F2E",
"B{	c #564731",
"C{	c #5D4E34",
"D{	c #645538",
"E{	c #6A5C3D",
"F{	c #6A5D3F",
"G{	c #6E6243",
"H{	c #685F44",
"I{	c #514533",
"J{	c #514432",
"K{	c #504332",
"L{	c #655B42",
"M{	c #62573F",
"N{	c #584D38",
"O{	c #524534",
"P{	c #4D4030",
"Q{	c #4B3F30",
"R{	c #584A37",
"S{	c #5A4B37",
"T{	c #574734",
"U{	c #534331",
"V{	c #50412E",
"W{	c #5C4D34",
"X{	c #6E5F3C",
"Y{	c #A79154",
"Z{	c #998248",
"`{	c #4B3927",
" ]	c #5D462A",
".]	c #6C5330",
"+]	c #785D34",
"@]	c #795E35",
"#]	c #735933",
"$]	c #695130",
"%]	c #664E2F",
"&]	c #634C2F",
"*]	c #614A2F",
"=]	c #5B462E",
"-]	c #4C3B29",
";]	c #53432C",
">]	c #5C4A30",
",]	c #5F4C31",
"']	c #5B482F",
")]	c #59472F",
"!]	c #59472E",
"~]	c #54422D",
"{]	c #55442E",
"]]	c #55442D",
"^]	c #4F3F2B",
"/]	c #4D3D2A",
"(]	c #4B3C29",
"_]	c #473929",
":]	c #443727",
"<]	c #413426",
"[]	c #403426",
"}]	c #413427",
"|]	c #423527",
"1]	c #433728",
"2]	c #453829",
"3]	c #473A2A",
"4]	c #45382A",
"5]	c #3B2F24",
"6]	c #413529",
"7]	c #624E35",
"8]	c #705A3B",
"9]	c #755E3D",
"0]	c #775F3E",
"a]	c #745D3C",
"b]	c #6D5839",
"c]	c #78613F",
"d]	c #8C7147",
"e]	c #997C4D",
"f]	c #9B7E4E",
"g]	c #A18350",
"h]	c #A68953",
"i]	c #A38651",
"j]	c #A5874F",
"k]	c #AB884F",
"l]	c #A6834F",
"m]	c #A68556",
"n]	c #FDEE97",
"o]	c #D9C369",
"p]	c #594630",
"q]	c #5A462F",
"r]	c #82653A",
"s]	c #9B7A43",
"t]	c #997842",
"u]	c #937340",
"v]	c #84663B",
"w]	c #7B5F39",
"x]	c #755A37",
"y]	c #785D38",
"z]	c #795E38",
"A]	c #523F2C",
"B]	c #685535",
"C]	c #A88D53",
"D]	c #AC9154",
"E]	c #A2874E",
"F]	c #927846",
"G]	c #8E7344",
"H]	c #9D824A",
"I]	c #A1854C",
"J]	c #A88B4E",
"K]	c #B09453",
"L]	c #AE9151",
"M]	c #AE9353",
"N]	c #AC9050",
"O]	c #B09451",
"P]	c #A6894B",
"Q]	c #927340",
"R]	c #A38044",
"S]	c #997B44",
"T]	c #7D653D",
"U]	c #6F5B3A",
"V]	c #715D3B",
"W]	c #735F3C",
"X]	c #75603D",
"Y]	c #77623E",
"Z]	c #79643F",
"`]	c #7D6841",
" ^	c #826C43",
".^	c #846E44",
"+^	c #836D43",
"@^	c #645238",
"#^	c #43362B",
"$^	c #4F4031",
"%^	c #826A45",
"&^	c #BF9A5E",
"*^	c #CCA663",
"=^	c #D4B068",
"-^	c #D3AE67",
";^	c #C8A361",
">^	c #B18F57",
",^	c #CCAE6D",
"'^	c #D5B671",
")^	c #C9A662",
"!^	c #D5B168",
"~^	c #DCBC6A",
"{^	c #DFC36B",
"]^	c #DFC56F",
"^^	c #E8D17A",
"/^	c #F1D78C",
"(^	c #FFE6A8",
"_^	c #F6E589",
":^	c #D5BF67",
"<^	c #5E4A33",
"[^	c #4E3D2D",
"}^	c #5A4630",
"|^	c #6B5235",
"1^	c #725837",
"2^	c #84673F",
"3^	c #7E623B",
"4^	c #6F5536",
"5^	c #664F33",
"6^	c #685536",
"7^	c #8A7246",
"8^	c #806942",
"9^	c #8B7244",
"0^	c #997D46",
"a^	c #AB8F4E",
"b^	c #B09351",
"c^	c #AE914F",
"d^	c #B99A53",
"e^	c #D4BA6A",
"f^	c #D9BC68",
"g^	c #D4B563",
"h^	c #D1B05B",
"i^	c #D6B55D",
"j^	c #D0AC55",
"k^	c #D1AE57",
"l^	c #E4CA6B",
"m^	c #B8964D",
"n^	c #987640",
"o^	c #91703E",
"p^	c #8C6D3D",
"q^	c #896D3F",
"r^	c #917443",
"s^	c #927644",
"t^	c #927746",
"u^	c #8E7446",
"v^	c #897045",
"w^	c #866E44",
"x^	c #A58551",
"y^	c #846C46",
"z^	c #45382C",
"A^	c #514132",
"B^	c #786141",
"C^	c #B4905B",
"D^	c #BA945C",
"E^	c #CBA564",
"F^	c #CBA664",
"G^	c #B28D5B",
"H^	c #A07E52",
"I^	c #A48553",
"J^	c #AE8B52",
"K^	c #A88550",
"L^	c #A88653",
"M^	c #A1804F",
"N^	c #A07F4F",
"O^	c #B28F56",
"P^	c #CDAA66",
"Q^	c #C9A261",
"R^	c #D8B06B",
"S^	c #E8D272",
"T^	c #C2A55E",
"U^	c #6F583A",
"V^	c #503F2D",
"W^	c #5E4931",
"X^	c #644D33",
"Y^	c #664E34",
"Z^	c #715737",
"`^	c #735937",
" /	c #6D5436",
"./	c #6A5234",
"+/	c #625034",
"@/	c #695639",
"#/	c #6A5739",
"$/	c #7A633D",
"%/	c #80673F",
"&/	c #82693F",
"*/	c #846A3F",
"=/	c #8B6E40",
"-/	c #9C7A44",
";/	c #B18B48",
">/	c #C0994D",
",/	c #C29D4E",
"'/	c #BE974C",
")/	c #C19B4E",
"!/	c #CEAB56",
"~/	c #E0C062",
"{/	c #BA984F",
"]/	c #98763F",
"^/	c #8D6E3D",
"//	c #886A3C",
"(/	c #886A3B",
"_/	c #8A6C3E",
":/	c #856B42",
"</	c #7D6541",
"[/	c #90774B",
"}/	c #B89A61",
"|/	c #4A3C2E",
"1/	c #4D3E30",
"2/	c #7F6745",
"3/	c #B18D5A",
"4/	c #B6905B",
"5/	c #B8925C",
"6/	c #A88557",
"7/	c #99794D",
"8/	c #97774C",
"9/	c #A98752",
"0/	c #A18050",
"a/	c #95754C",
"b/	c #99794C",
"c/	c #A68551",
"d/	c #B99659",
"e/	c #BE995C",
"f/	c #CEA764",
"g/	c #CEAC61",
"h/	c #B49458",
"i/	c #776449",
"j/	c #604B32",
"k/	c #604A32",
"l/	c #634D33",
"m/	c #685034",
"n/	c #604A31",
"o/	c #58452F",
"p/	c #4F3E2B",
"q/	c #3A2E25",
"r/	c #6D593A",
"s/	c #675538",
"t/	c #665438",
"u/	c #705B3A",
"v/	c #81683F",
"w/	c #8A6E40",
"x/	c #9D7B44",
"y/	c #AE8848",
"z/	c #B8914A",
"A/	c #BA924A",
"B/	c #B89049",
"C/	c #BC944B",
"D/	c #C29C4E",
"E/	c #C5A151",
"F/	c #AA8343",
"G/	c #9D7A41",
"H/	c #93723E",
"I/	c #8E6E3D",
"J/	c #8D6E3C",
"K/	c #92713D",
"L/	c #907240",
"M/	c #896D41",
"N/	c #826942",
"O/	c #8E7146",
"P/	c #4B3C2F",
"Q/	c #B48F5B",
"R/	c #BC965F",
"S/	c #B7915C",
"T/	c #B58F5B",
"U/	c #A88558",
"V/	c #A17F51",
"W/	c #9D7C4F",
"X/	c #9B7B4D",
"Y/	c #90714A",
"Z/	c #94754C",
"`/	c #9E7D4E",
" (	c #A88652",
".(	c #B29057",
"+(	c #BE9A5C",
"@(	c #BF9F5B",
"#(	c #A1824F",
"$(	c #4D3C2C",
"%(	c #514232",
"&(	c #4C3B2B",
"*(	c #47382A",
"=(	c #4D3D2C",
"-(	c #4A3A2A",
";(	c #362C24",
">(	c #655337",
",(	c #685538",
"'(	c #77603C",
")(	c #8C6F41",
"!(	c #9F7D45",
"~(	c #AD8748",
"{(	c #B38C48",
"](	c #BD954B",
"^(	c #BB9349",
"/(	c #B48B46",
"((	c #A78042",
"_(	c #9C7840",
":(	c #94723E",
"<(	c #997740",
"[(	c #9B7841",
"}(	c #A18048",
"|(	c #947542",
"1(	c #8F7244",
"2(	c #8A6F44",
"3(	c #866C42",
"4(	c #7F6641",
"5(	c #886E46",
"6(	c #4C3D2F",
"7(	c #4B3D2F",
"8(	c #7D6544",
"9(	c #9F7E51",
"0(	c #C09A62",
"a(	c #BF9961",
"b(	c #AE8A5A",
"c(	c #A58256",
"d(	c #A48154",
"e(	c #9A7A4D",
"f(	c #93744B",
"g(	c #8F7049",
"h(	c #96764C",
"i(	c #9F7E4F",
"j(	c #AB8953",
"k(	c #A68753",
"l(	c #745A3B",
"m(	c #413328",
"n(	c #52412F",
"o(	c #634F35",
"p(	c #644F36",
"q(	c #675237",
"r(	c #685237",
"s(	c #675236",
"t(	c #624E34",
"u(	c #5B4832",
"v(	c #564430",
"w(	c #51412E",
"x(	c #433628",
"y(	c #614F35",
"z(	c #625036",
"A(	c #725C3B",
"B(	c #9C7B44",
"C(	c #AA8547",
"D(	c #BE964B",
"E(	c #BF974C",
"F(	c #C3994D",
"G(	c #BE944A",
"H(	c #B28A45",
"I(	c #A88141",
"J(	c #A27D41",
"K(	c #967643",
"L(	c #8F7344",
"M(	c #8B7044",
"N(	c #836942",
"O(	c #957A4C",
"P(	c #514131",
"Q(	c #725C3F",
"R(	c #A88757",
"S(	c #C29D65",
"T(	c #C19B63",
"U(	c #B8925D",
"V(	c #AF8C5C",
"W(	c #A78457",
"X(	c #9F7E53",
"Y(	c #8D6F49",
"Z(	c #8B6E49",
"`(	c #9B7A4D",
" _	c #A38151",
"._	c #AB8B56",
"+_	c #8C6F47",
"@_	c #4C3C2D",
"#_	c #685338",
"$_	c #9E7E4F",
"%_	c #A58353",
"&_	c #AD8A56",
"*_	c #B28F57",
"=_	c #AA8954",
"-_	c #A88753",
";_	c #A88853",
">_	c #A68552",
",_	c #AC8C54",
"'_	c #9A7C4B",
")_	c #413428",
"!_	c #5C4C33",
"~_	c #604F35",
"{_	c #645237",
"]_	c #6B5739",
"^_	c #755F3C",
"/_	c #7F663E",
"(_	c #967642",
"__	c #A78346",
":_	c #B58E49",
"<_	c #C0984C",
"[_	c #C69B4E",
"}_	c #C89D4F",
"|_	c #CDA250",
"1_	c #C89E4F",
"2_	c #BD9349",
"3_	c #AC8443",
"4_	c #A78041",
"5_	c #A67F41",
"6_	c #A37D40",
"7_	c #997843",
"8_	c #937544",
"9_	c #907344",
"0_	c #896F44",
"a_	c #977D4F",
"b_	c #5A4936",
"c_	c #B08E5B",
"d_	c #C39E67",
"e_	c #C4A06A",
"f_	c #C29C64",
"g_	c #B79361",
"h_	c #AE8B5C",
"i_	c #A28055",
"j_	c #97774F",
"k_	c #8B6E4A",
"l_	c #866949",
"m_	c #876A49",
"n_	c #896C49",
"o_	c #8C6E49",
"p_	c #91724A",
"q_	c #A07F50",
"r_	c #A78754",
"s_	c #8D6E47",
"t_	c #4E3E2E",
"u_	c #594734",
"v_	c #816848",
"w_	c #886F4C",
"x_	c #A98B58",
"y_	c #C8A765",
"z_	c #A08252",
"A_	c #8D724D",
"B_	c #92754C",
"C_	c #94764B",
"D_	c #A3844F",
"E_	c #A98B52",
"F_	c #554630",
"G_	c #564730",
"H_	c #655338",
"I_	c #6E5A3A",
"J_	c #82683F",
"K_	c #8F7141",
"L_	c #A68246",
"M_	c #BA934A",
"N_	c #C39A4D",
"O_	c #C49A4E",
"P_	c #CCA150",
"Q_	c #CFA450",
"R_	c #CFA350",
"S_	c #CBA04F",
"T_	c #C0964A",
"U_	c #B88F47",
"V_	c #B28945",
"W_	c #AC8543",
"X_	c #AD8544",
"Y_	c #A37E41",
"Z_	c #9D7D46",
"`_	c #987945",
" :	c #917648",
".:	c #8E764A",
"+:	c #91794C",
"@:	c #8F764A",
"#:	c #4B3D30",
"$:	c #574635",
"%:	c #967950",
"&:	c #C39F68",
"*:	c #B99664",
"=:	c #B29061",
"-:	c #AB885A",
";:	c #9D7C53",
">:	c #90724B",
",:	c #886B49",
"':	c #856949",
"):	c #98784C",
"!:	c #9C7B4E",
"~:	c #A38453",
"{:	c #8D6F48",
"]:	c #504030",
"^:	c #574533",
"/:	c #866D4B",
"(:	c #886E4C",
"_:	c #8B714D",
"::	c #8C714D",
"<:	c #866C4A",
"[:	c #836A48",
"}:	c #896E49",
"|:	c #886E45",
"1:	c #54452F",
"2:	c #594A32",
"3:	c #615036",
"4:	c #765F3C",
"5:	c #896D40",
"6:	c #A17E45",
"7:	c #B68F49",
"8:	c #C59B4E",
"9:	c #C69C4E",
"0:	c #D0A450",
"a:	c #C49A4D",
"b:	c #C2984C",
"c:	c #BF954A",
"d:	c #BA9148",
"e:	c #AF8845",
"f:	c #A27D40",
"g:	c #9B783F",
"h:	c #9C7B43",
"i:	c #A08149",
"j:	c #A1814A",
"k:	c #9B804C",
"l:	c #8F774A",
"m:	c #90784B",
"n:	c #8D764A",
"o:	c #826948",
"p:	c #BF9C68",
"q:	c #C19D69",
"r:	c #B59263",
"s:	c #AE8C5D",
"t:	c #A38156",
"u:	c #92734D",
"v:	c #826749",
"w:	c #7D6348",
"x:	c #816649",
"y:	c #846849",
"z:	c #91724B",
"A:	c #92734B",
"B:	c #98784D",
"C:	c #8B6C46",
"D:	c #524231",
"E:	c #5A4835",
"F:	c #896F4C",
"G:	c #846B49",
"H:	c #786144",
"I:	c #735D43",
"J:	c #63503A",
"K:	c #51422D",
"L:	c #55462F",
"M:	c #5A4B32",
"N:	c #5E4E34",
"O:	c #725D3B",
"P:	c #C29A4D",
"Q:	c #C2994D",
"R:	c #C79D4F",
"S:	c #C99E4F",
"T:	c #C0964B",
"U:	c #C3994C",
"V:	c #B38B46",
"W:	c #93713C",
"X:	c #9B7941",
"Y:	c #A08049",
"Z:	c #A2834B",
"`:	c #9D814D",
" <	c #937C4D",
".<	c #8F774B",
"+<	c #856E45",
"@<	c #524233",
"#<	c #6A563D",
"$<	c #BD9A67",
"%<	c #B49162",
"&<	c #876B4B",
"*<	c #7A6047",
"=<	c #745B45",
"-<	c #755C46",
";<	c #7F6549",
"><	c #8A6D49",
",<	c #856845",
"'<	c #745B3E",
")<	c #584634",
"!<	c #7E6647",
"~<	c #856D4B",
"{<	c #846B4A",
"]<	c #796345",
"^<	c #715C42",
"/<	c #6F5A41",
"(<	c #68553C",
"_<	c #564633",
":<	c #3E3226",
"<<	c #53452F",
"[<	c #594931",
"}<	c #5E4D34",
"|<	c #82683E",
"1<	c #AD8747",
"2<	c #B18A48",
"3<	c #B48D49",
"4<	c #CA9F50",
"5<	c #B99048",
"6<	c #B28A46",
"7<	c #A68142",
"8<	c #98753E",
"9<	c #96743E",
"0<	c #A1824A",
"a<	c #957F4F",
"b<	c #816C44",
"c<	c #524232",
"d<	c #4E3F31",
"e<	c #63513B",
"f<	c #7E6749",
"g<	c #A5855B",
"h<	c #AD8A5C",
"i<	c #967650",
"j<	c #735A44",
"k<	c #6D5642",
"l<	c #67513F",
"m<	c #715944",
"n<	c #806549",
"o<	c #8A6D48",
"p<	c #896C48",
"q<	c #43382C",
"r<	c #463A2D",
"s<	c #483B2E",
"t<	c #5B4835",
"u<	c #604C37",
"v<	c #5F4C36",
"w<	c #63513A",
"x<	c #5D4B36",
"y<	c #5A4834",
"z<	c #564532",
"A<	c #534330",
"B<	c #44372A",
"C<	c #352C23",
"D<	c #43372A",
"E<	c #453A2A",
"F<	c #4A3D2B",
"G<	c #4E402C",
"H<	c #615035",
"I<	c #6B5839",
"J<	c #7A623C",
"K<	c #82673D",
"L<	c #83673B",
"M<	c #8C6E3C",
"N<	c #B79048",
"O<	c #B89048",
"P<	c #AE8844",
"Q<	c #A47F41",
"R<	c #A58041",
"S<	c #AF8A44",
"T<	c #AF8B45",
"U<	c #97753E",
"V<	c #886B3B",
"W<	c #86693A",
"X<	c #886C3D",
"Y<	c #8B7345",
"Z<	c #897549",
"`<	c #836F46",
" [	c #554532",
".[	c #44372C",
"+[	c #4A3C2F",
"@[	c #69543B",
"#[	c #665039",
"$[	c #5C4734",
"%[	c #513E30",
"&[	c #4C3B2E",
"*[	c #4B3A2D",
"=[	c #4D3B2E",
"-[	c #554232",
";[	c #584533",
">[	c #574432",
",[	c #554331",
"'[	c #503F2E",
")[	c #4D3C2D",
"![	c #453628",
"~[	c #443528",
"{[	c #4E4232",
"][	c #A69663",
"^[	c #B0A16A",
"/[	c #B8AA72",
"([	c #B4A66F",
"_[	c #A4925D",
":[	c #978654",
"<[	c #87764A",
"[[	c #716240",
"}[	c #66573A",
"|[	c #5E5137",
"1[	c #534733",
"2[	c #4A3F2E",
"3[	c #413729",
"4[	c #3E3528",
"5[	c #3D3327",
"6[	c #372E25",
"7[	c #362D24",
"8[	c #3A3026",
"9[	c #3E3427",
"0[	c #45392A",
"a[	c #4F412D",
"b[	c #50412C",
"c[	c #51422C",
"d[	c #4D3D28",
"e[	c #4F3D27",
"f[	c #4F3D26",
"g[	c #4D3B26",
"h[	c #4B3925",
"i[	c #4C3925",
"j[	c #503D26",
"k[	c #5B472A",
"l[	c #624E2E",
"m[	c #736037",
"n[	c #7F6C3E",
"o[	c #796A41",
"p[	c #796942",
"q[	c #776740",
"r[	c #736440",
"s[	c #6F613F",
"t[	c #695A3A",
"u[	c #68593A",
"v[	c #534633",
"w[	c #463A2E",
"x[	c #695A43",
"y[	c #857453",
"z[	c #8C7B58",
"A[	c #97875E",
"B[	c #9C8D62",
"C[	c #9D8D62",
"D[	c #9E8E63",
"E[	c #9A8960",
"F[	c #A19165",
"G[	c #A29266",
"H[	c #9D8D63",
"I[	c #8B7C56",
"J[	c #827350",
"K[	c #80714E",
"L[	c #756747",
"M[	c #534835",
"N[	c #5B513E",
"O[	c #A09467",
"P[	c #DFD392",
"Q[	c #EDE2A0",
"R[	c #E2D797",
"S[	c #DACD8A",
"T[	c #DDCC84",
"U[	c #D1BC76",
"V[	c #C3AD6C",
"W[	c #BBA567",
"X[	c #B59F63",
"Y[	c #A6925C",
"Z[	c #9D8A59",
"`[	c #7D6D4B",
" }	c #483E2E",
".}	c #4C4232",
"+}	c #544A36",
"@}	c #695A3C",
"#}	c #7D6A44",
"$}	c #887448",
"%}	c #947F4D",
"&}	c #A38C54",
"*}	c #9D864E",
"=}	c #988149",
"-}	c #9B844A",
";}	c #9A8249",
">}	c #9A8349",
",}	c #A28B4D",
"'}	c #A68F4F",
")}	c #8D7742",
"!}	c #B8A159",
"~}	c #D0BD6E",
"{}	c #E9DE8B",
"]}	c #D7CA7D",
"^}	c #C6B872",
"/}	c #BBAE6C",
"(}	c #B4A869",
"_}	c #AB9F65",
":}	c #A19560",
"<}	c #938658",
"[}	c #63573D",
"}}	c #493F32",
"|}	c #5C513E",
"1}	c #8E815D",
"2}	c #A4976C",
"3}	c #B8AD7A",
"4}	c #C3BA84",
"5}	c #BCB17D",
"6}	c #B9AE7B",
"7}	c #B1A575",
"8}	c #B1A676",
"9}	c #B7AB79",
"0}	c #B3A676",
"a}	c #A19368",
"b}	c #9F9065",
"c}	c #A99A6C",
"d}	c #BFB07A",
"e}	c #CABC81",
"f}	c #544936",
"g}	c #5C523F",
"h}	c #9C9266",
"i}	c #C8BD82",
"j}	c #DACF90",
"k}	c #C5BA80",
"l}	c #B3A672",
"m}	c #AEA06E",
"n}	c #AD9F6B",
"o}	c #AD9D68",
"p}	c #A19060",
"q}	c #A08F5F",
"r}	c #9D8B5D",
"s}	c #968558",
"t}	c #8B7951",
"u}	c #3B3429",
"v}	c #483F30",
"w}	c #514633",
"x}	c #877348",
"y}	c #917C4A",
"z}	c #9C8652",
"A}	c #AD975D",
"B}	c #A58F56",
"C}	c #9F884F",
"D}	c #A89153",
"E}	c #B19A57",
"F}	c #BEA85E",
"G}	c #C7B061",
"H}	c #847044",
"I}	c #978854",
"J}	c #EEE592",
"K}	c #DBD185",
"L}	c #CBBF78",
"M}	c #B8AC6B",
"N}	c #AEA166",
"O}	c #A69A64",
"P}	c #9F9562",
"Q}	c #91875C",
"R}	c #7F7350",
"S}	c #584C37",
"T}	c #473D31",
"U}	c #554B3A",
"V}	c #70654D",
"W}	c #82795B",
"X}	c #97926B",
"Y}	c #958D66",
"Z}	c #9E966C",
"`}	c #A1996E",
" |	c #9A9169",
".|	c #938A64",
"+|	c #8B805C",
"@|	c #877A59",
"#|	c #827555",
"$|	c #7D7152",
"%|	c #807454",
"&|	c #8F825D",
"*|	c #998B60",
"=|	c #8B7D56",
"-|	c #4E4333",
";|	c #5D5340",
">|	c #9E9266",
",|	c #BFB37B",
"'|	c #BCAF79",
")|	c #A79A69",
"!|	c #9E9062",
"~|	c #9A8B5F",
"{|	c #92835A",
"]|	c #8E7E57",
"^|	c #897853",
"/|	c #837350",
"(|	c #7E6F4E",
"_|	c #716244",
":|	c #4B3F2E",
"<|	c #605239",
"[|	c #746140",
"}|	c #7A6642",
"||	c #7F6A44",
"1|	c #826C45",
"2|	c #846F45",
"3|	c #8B7447",
"4|	c #877145",
"5|	c #756441",
"6|	c #9E925C",
"7|	c #998C5A",
"8|	c #938756",
"9|	c #897C52",
"0|	c #827650",
"a|	c #80744F",
"b|	c #7F7450",
"c|	c #7C704C",
"d|	c #706344",
"e|	c #4C4231",
"f|	c #554B3B",
"g|	c #665C48",
"h|	c #766C52",
"i|	c #82795C",
"j|	c #8A8260",
"k|	c #948B65",
"l|	c #999169",
"m|	c #978E67",
"n|	c #908763",
"o|	c #887C59",
"p|	c #837756",
"q|	c #7F7353",
"r|	c #7C7051",
"s|	c #7C6F50",
"t|	c #7E7252",
"u|	c #7A6E50",
"v|	c #594F3D",
"w|	c #9A8E62",
"x|	c #A79969",
"y|	c #9F9163",
"z|	c #918159",
"A|	c #7E704E",
"B|	c #6F6043",
"C|	c #4D4130",
"D|	c #362D25",
"E|	c #443C2E",
"F|	c #514632",
"G|	c #5B4D36",
"H|	c #615239",
"I|	c #68573B",
"J|	c #736040",
"K|	c #715F3F",
"L|	c #6F5D3E",
"M|	c #725F3F",
"N|	c #7E6943",
"O|	c #937C4B",
"P|	c #716040",
"Q|	c #82764F",
"R|	c #756847",
"S|	c #706444",
"T|	c #6F6243",
"U|	c #6D6143",
"V|	c #6B5F42",
"W|	c #62563C",
"X|	c #544A39",
"Y|	c #6D624C",
"Z|	c #7C7257",
"`|	c #857D5E",
" 1	c #8C8461",
".1	c #928A64",
"+1	c #958C66",
"@1	c #908762",
"#1	c #887B59",
"$1	c #847757",
"%1	c #7E7253",
"&1	c #796D4E",
"*1	c #6D6046",
"=1	c #514737",
"-1	c #887955",
";1	c #93835A",
">1	c #8F7F58",
",1	c #8A7A54",
"'1	c #847451",
")1	c #78694A",
"!1	c #786949",
"~1	c #796B4A",
"{1	c #7B6C4C",
"]1	c #7D6F4E",
"^1	c #746547",
"/1	c #6C5C41",
"(1	c #4E4230",
"_1	c #342B23",
":1	c #463E2F",
"<1	c #4F4432",
"[1	c #564934",
"}1	c #5E5037",
"|1	c #64553B",
"11	c #67573B",
"21	c #625339",
"31	c #63533A",
"41	c #6E5D3E",
"51	c #716343",
"61	c #716444",
"71	c #6D6042",
"81	c #685B3F",
"91	c #66593E",
"01	c #65573D",
"a1	c #62533A",
"b1	c #473E32",
"c1	c #4F4537",
"d1	c #594E3C",
"e1	c #655B47",
"f1	c #746A50",
"g1	c #80785B",
"h1	c #877F5F",
"i1	c #8E8662",
"j1	c #8D825E",
"k1	c #857957",
"l1	c #807455",
"m1	c #827755",
"n1	c #847957",
"o1	c #847956",
"p1	c #7C7151",
"q1	c #60543D",
"r1	c #43392C",
"s1	c #493E31",
"t1	c #81714F",
"u1	c #7A6B4B",
"v1	c #6F5F43",
"w1	c #6E5E42",
"x1	c #6E5F43",
"y1	c #706043",
"z1	c #716144",
"A1	c #746446",
"B1	c #756647",
"C1	c #6D5E42",
"D1	c #514532",
"E1	c #352C24",
"F1	c #3A3329",
"G1	c #443B2D",
"H1	c #504532",
"I1	c #605138",
"J1	c #5D4F37",
"K1	c #5B4C35",
"L1	c #5A4B34",
"M1	c #594A33",
"N1	c #635339",
"O1	c #5F5038",
"P1	c #5E5038",
"Q1	c #4A4130",
"R1	c #3D342B",
"S1	c #4D4436",
"T1	c #625744",
"U1	c #6C624C",
"V1	c #7A7055",
"W1	c #867C5C",
"X1	c #8E8460",
"Y1	c #807554",
"Z1	c #857A57",
"`1	c #817654",
" 2	c #61553D",
".2	c #443A2D",
"+2	c #45392C",
"@2	c #625640",
"#2	c #756648",
"$2	c #746546",
"%2	c #68593E",
"&2	c #65563D",
"*2	c #67573E",
"=2	c #433B2C",
"-2	c #4B4130",
";2	c #5A4C35",
">2	c #52442F",
",2	c #544530",
"'2	c #554731",
")2	c #544630",
"!2	c #544833",
"~2	c #544934",
"{2	c #584B35",
"]2	c #564A35",
"^2	c #534934",
"/2	c #534A35",
"(2	c #40362A",
"_2	c #3C332B",
":2	c #5A4F3C",
"<2	c #605642",
"[2	c #685E49",
"}2	c #776D53",
"|2	c #837858",
"12	c #8C815D",
"22	c #8C805C",
"32	c #847857",
"42	c #827656",
"52	c #7F7354",
"62	c #827754",
"72	c #63563E",
"82	c #493D2E",
"92	c #574B37",
"02	c #6A5B40",
"a2	c #61513A",
"b2	c #5C4E37",
"c2	c #5C4D37",
"d2	c #594B35",
"e2	c #5B4C36",
"f2	c #524633",
"g2	c #382F25",
"h2	c #473E2E",
"i2	c #4F4532",
"j2	c #544733",
"k2	c #4D402D",
"l2	c #4C3F2D",
"m2	c #50422E",
"n2	c #4E402D",
"o2	c #493C2B",
"p2	c #4A3D2C",
"q2	c #4D3F2D",
"r2	c #50432E",
"s2	c #514631",
"t2	c #514733",
"u2	c #514834",
"v2	c #5A5038",
"w2	c #443B2C",
"x2	c #3F362D",
"y2	c #4E4335",
"z2	c #584D3B",
"A2	c #5E5440",
"B2	c #73684F",
"C2	c #837757",
"D2	c #8D815D",
"E2	c #897C5A",
"F2	c #7C7052",
"G2	c #766A4E",
"H2	c #6E6248",
"I2	c #60533B",
"J2	c #3C3228",
"K2	c #44392C",
"L2	c #66583D",
"M2	c #726244",
"N2	c #6B5C41",
"O2	c #61523A",
"P2	c #574934",
"Q2	c #493F2F",
"R2	c #423A2B",
"S2	c #4E4431",
"T2	c #594B34",
"U2	c #564630",
"V2	c #483B2A",
"W2	c #443828",
"X2	c #413627",
"Y2	c #4E412D",
"Z2	c #4F432F",
"`2	c #5B5138",
" 3	c #443A2C",
".3	c #483E31",
"+3	c #5B503D",
"@3	c #645A46",
"#3	c #817555",
"$3	c #8B7F5B",
"%3	c #837656",
"&3	c #796D50",
"*3	c #766B4F",
"=3	c #7A6E51",
"-3	c #7B6F51",
";3	c #75694D",
">3	c #6F6348",
",3	c #5B4D37",
"'3	c #3A2F26",
")3	c #43382B",
"!3	c #534634",
"~3	c #6E5E41",
"{3	c #67583E",
"]3	c #62523A",
"^3	c #524531",
"/3	c #504330",
"(3	c #4E4231",
"_3	c #473C2E",
":3	c #40372A",
"<3	c #4B4231",
"[3	c #524632",
"}3	c #3B3125",
"|3	c #423627",
"13	c #4C402D",
"23	c #544A35",
"33	c #3F3429",
"43	c #382F28",
"53	c #43392E",
"63	c #564B3A",
"73	c #5F5542",
"83	c #6B614B",
"93	c #7E7254",
"03	c #71654A",
"a3	c #70654A",
"b3	c #72674C",
"c3	c #756A4E",
"d3	c #74684D",
"e3	c #60523B",
"f3	c #483C2D",
"g3	c #4F4230",
"h3	c #594A36",
"i3	c #554734",
"j3	c #534532",
"k3	c #41362A",
"l3	c #3D3228",
"m3	c #3D3328",
"n3	c #3B3127",
"o3	c #393026",
"p3	c #4C4432",
"q3	c #483F2F",
"r3	c #4B4230",
"s3	c #4E4331",
"t3	c #3E3327",
"u3	c #493C2A",
"v3	c #463A29",
"w3	c #403627",
"x3	c #3F3427",
"y3	c #3D3326",
"z3	c #3E3326",
"A3	c #362D23",
"B3	c #302821",
"C3	c #3C3225",
"D3	c #3D3226",
"E3	c #403527",
"F3	c #463A2B",
"G3	c #352D26",
"H3	c #3A3129",
"I3	c #41382D",
"J3	c #453B2F",
"K3	c #4D4335",
"L3	c #574D3D",
"M3	c #675C45",
"N3	c #6F6449",
"O3	c #60543F",
"P3	c #5A4F3B",
"Q3	c #594E3B",
"R3	c #5D513D",
"S3	c #5F543F",
"T3	c #4D4233",
"U3	c #4B4031",
"V3	c #4C402E",
"W3	c #352A23",
"X3	c #3D3127",
"Y3	c #403429",
"Z3	c #43362A",
"`3	c #3E3328",
" 4	c #43372B",
".4	c #403529",
"+4	c #3B3126",
"@4	c #392F25",
"#4	c #393025",
"$4	c #382E25",
"%4	c #3A3126",
"&4	c #372D24",
"*4	c #3C3226",
"=4	c #2F2821",
"-4	c #2D2520",
";4	c #2C251F",
">4	c #2B241F",
",4	c #2D2620",
"'4	c #3A3028",
")4	c #3C3229",
"!4	c #3E352C",
"~4	c #3F362C",
"{4	c #40362C",
"]4	c #3C332A",
"^4	c #393028",
"  . + @ # $ % & * = - ; > , ' ) ! ~ { ] ^ / ( _ : < [ } | 1 2 3 4 5 6 7 8 9 0 a b c b d e f g h i j k l m n o p q r s t u v w x ",
"y z A B C D E F G H I = J K K L M N O P Q R S T U V W X Y Z `  ...+.@.#.$.%.&.& *.=.-.;.>.,.'.).!.~.{.].m ^./.(._.:.<.[.}.|.1.x ",
"2.3.4.5.6.7.8.9.0.a.b.c.d.L K e.f.g.h.i.i.i.j.k.l.m.n.o.p.q._.r.s.t.u.v.w.x.y.z.A.A.A.B.C.D.E.F.G.H.G.I.J.K.L.M.N.M.O.P.Q.R.S.x ",
"T.U.V.W.X.Y.Z.`.0. +.+c.++++@+i.#+++#+i.i.$+%+&+*+=+-+;+>+,+_.'+)+!+~+{+]+^+/+z.A.A.(+_+:+<+[+F.}+H.H.I.|+K.1+2+3+3+4+5+6+7+8+x ",
"T.9+0+a+b+X.c+d+G e+f+g+h.h+.+i+i.j+k+l+m+n+o+p+q+r+s+t+u+v+_.w+v x+y+z+A+B+/+C+=.D+y.E+F+G+~.H+G.H.H.}+I+J+K+L+3+3+/.M+)+N+O+x ",
"  P+Q+R++ S+T+ +U+V+n+b.W+X+Y+Z+$+`+ @i+.@+@@@@@#@$@%@p.u+&@*@:.=@_+z+-@]+x.;@>@,@,@'@)@F+!@~@{@I.}+}+I.]@^@L.L./@3+(@_@|.:@<@x ",
"[@}@3.V.4.|@1@2@3@4@5@6@7@8@9@Y+0@a@0@Z+9@b@c@c@d@#@e@p.f@g@,+h@i@j@k@l@m@n@o@)@^+p@q@F+r@s@t@u@v@I.w@I.I+x@y@z@L.A@B@P.}.C@D@E@",
"F@G@H@I@J@K@L@6.M@7.N@8@9@O@o+Y+P@0@Q@R@b@S@T@U@c@V@W@X@Y@Z@`@ #.#+#@###$#m@]+%#F+F+F+r@!@&#*#F.w@=#-#w@]@]@]@;#J+>#>#,#'#)#!#~#",
"[@P+{#]#]#^#/#(#_#:#<#9@[#}#O@Z+P@|#1##@2#3#4#4#5#6#7#8#-+9#X@0#a#b#c#d#e#f#g#%#F+F+F+^+h#~@i#v@-#-#-#w@j#k#l#]@K.m#K+L.n#o#p#~#",
"[@q#Q+]#]#]#a+r#s#t#u#v#w#x#O@7@Z+y##@z#4#4#4#4#A#B#C#D#p+8#-+E#F#G#H#I#J#z+K#%#b+F+F+B+L#i#I.-#-#-#-#w@k#M#]@]@N#K.O#P#J+H+p#~#",
"Q#9+R#]#S#]#T#W.U#V#V#W#c+8@X#w#w#9@Y#Z#`# $.$+$4#@$A##$p+$$%$K.&$*$=$I#-$;$w.o@F+F+^+>$t@,$=#-#'$-#-#w@M#M#k#M#J.)$!$j#}+~${$x ",
"]$^$H@/$r.($V._$S+s#:$<$(#t#T+[$w#}$|$1$2$1$3$4$`#5$6$7$e@8$9$0$a$b$c$d$##e$f$g$h$i$j$k$I.l$m$n$o$p$q$q$r$s$t$u$v$~$w$x$y$z$A$x ",
"B$C$D$E$F$G$H$I$J$K$L$M$N$O$O$P$Q$R$; ; S$T$U$U$V$r.<.W$X$Y$Z$a#`$ %a$.%+%@%`$#%$%%%&%*%*%*%=%-%;%>%>%>%,%>%>%>%'%)%!%~%{%]%^%/%",
"(%_%:%<%[%B.=.=.}%|%1%2%3%4%5%6%7%8%9%0%a%b%c%d%e%f%g%h%i%j%k%l%m%n%o%n%p%q%r%s%t%u%v%w%x%y%z%A%B%C%D%E%F%G%H%I%J%K%L%M%N%O%P%Q%",
"R%4%S%T%U%V%5%W%X%Y%Z%`% &.&+&@&#&$&%&&&*&=&-&;&>&,&'&)&!&~&{&]&^&o./&(&_&:&<&[&}&|&1&2&3&4&5&6&7&8&7&6&9&0&a&b&c&d&e&f&g&h&i&j&",
"k&l&V%m&m&m&% 7%n&o&p&q&r&s&t&J@u&v&w&x&y&<%z&A&B&C&i%D&E&E&F&^&G&H&/&I&J&2&K&L&M&N&O&P&Q&R&S&T&U&V&W&X&Y&Z&`&6& *.*+*@*#*$*%*&*",
"**=*5%V%-*4%;*>*U%,*'*q&)*!*~*{*s&]*^*/*(*=&_*:*j+<*[*E&E&}*|*^&1*2*I&I&3*4*5*6*7*8*9*0*a*b*c*d*e*f*d*g*h*g*i*j*k*l*m*n*o*o*p*q*",
"r*s*t*5%u*4%u*>*v*w*Z%x*V.y*~*z*J@A*B*C*D*E*F*G*H*I*J*K*|*^&L*p+I&M*M*3*R&N*O*P*Q*R*9*9*S*T*i*U*8&z%7&6&g*6&V*W*X*Y*Z*`* =.=o*o*",
"+=@=#==*t*l&5%>*V%<%$=%=&=*=~*==s&-=;=B*P$2.D*_*:*I*E&>=,='=/&(&M*3*)=!=~=3&~={=}&]=9*9*^=/=7&(=d*(=7&6&j*d*_=_=X*+*:=<= =o*o*o*",
"+=[=**y+s*k&k&t*}=<%|=1=2=3=~*s&T#4=5=5=6=7=8=9=0=#+~&L*I&a=b=c=d=e=N*2&f=f=g=h=0#i=9*9*j=6&i*V*V*V*j*j*V*_=_=_=k=f&l=m=<=.=o*o*",
"+=n=@=@=@=**o=y+p=q=|=r=*=s={*)*t=B*u=v=w=G$' x=y=z=E&A=B=d=C=D=E=M*O*F=f=g=G=H=>#I=9*9*J=6&6&6&V*V*V*V*d*_=_=_=d&K=L=M=<=m=N=o*",
"+=r*@=@ O=P=@=@=Q=:%|%R=*=s=S=T=B*v=U=V=W==&X=9=l*Y=m+Z=`= -.-.-+-@-#-$-%-&-*-=->#I=9*9*--;-i*6&V*>->-d*,-'-)-_=!-g.L=#*N=.=o*o*",
"r*~-Q={-O=O=@ @=Q=]-|%^-*=y*/-t=(-_-:-<-[-}-E.y=y=|-1-2-1*3-D=4-5-6-7-g=8-*-9-=-].0-a-b-c-d-g*6&d*'-e-_=_=f-g-f-h-i-j-l=k-n*n*n*",
";*l- &m-.&O=# n-=*o-p-q-r-s&s-t-u-U=v-w-x-}%y-9=y=y=e&z-}*A-B-d=@-e=C-D-E-F-G-H-I-J-K-9*L-M-g*7&N-O-P-Q-R-S-T-U-V-x=W-g&+*X-X-Y-",
"D@Z-`-R.T% ;.; ;+;(%@;#;$;%;&;*;=;u--;;;>;,;';);!;~;{;];^;/;(;_;:;G=E-*-<;=-[;};|;1;N&2;--3;4;5;6;7;8;9;0;a;b;c;d;e;f;) g;h;i;M$",
"s.j;k;l;m;n;o;p;q;r;Y%s;t;u;v;w;x;y;z;A;B;C;D;Z-E;E;<%F;<%G;H;H;,;I;J;K;L;M;N;|+O;P;Q;R;i=S;T;U;V;W;X;R*Y;Z;`; >&%.>+>@>@>#>#>$>",
"%>&>*>=>->;>>>,>'>)>!>~>{>]>^>/>(>_>:><>[>}>|>1>2>3>4>4>5>6>7>8>9>0>a>b>c>d>e>f>g>h>i>j>j>k>l>m>n>o>p>q>r>s>t>u>v>u@w>W+x>y>z>A>",
"B>C>D>E>F>G>H>I>J>K>L>M>N>O>P>Q>R>S>T>U>V>W>X>Y>Z>`> ,.,+,@,#,$,%,&,*,=,-,;,>,,,',),!,~,{,],^,/,(,_,:,<,[,},|,1,2,4+3,4,)&5,6,7,",
"8,9,0,a,b,c,d,e,f,g,h,i,j,k,l,P>m,n,o,p,q,q,r,s,t,u,v,w,x,y,z,A,B,C,D,E,F,G,H,I,I,J,K,L,M,N,O,P,Q,R,S,T,U,V,W,X,Y,g@Z,`, '6,.'+'",
"0,@'#'$'%'&'*'*'='-';'>',''')'O>!')'P>~'q,{']'^'^'/'('_'x,x,:'<'['}'D,E,|'1'2'2'3'3'4'5'6'7'8'9'0'a'b'U,c'd'e'f'g'B-6#h'i'j'k'l'",
"0,m'n'o'p'q'*'*'r's't'u'v','w'k,x'y'z'A']'B'B'C'D'E'F'G'G'H'I'J'K'L'M'N'O'P'Q'R'R'S'T'U'V'W'X'Y'Z'`' ).)+)@)#)E%$)%)&)*)j'=)-);)",
"0,>),)')))!)~){)])^)/)t't'()_)y'y')':)<)[)B'})})|)1)2)3)4)H'5)6)u@7)8)9)0)S'a)a)b)c)d)e)f)g)h)i)j)k)l)m)#)n)o)p)q)r)s).'t)u)v)w)",
"x)y)z)| A)B)~)C)D)E)F)G)^)()H)y'y'I)J)K){'B'L)M)N)O)P)Q)R)S)T)U)h V)W)X)Y)Z)`)b)T' !k).!+!@!+!.!#!a'$!%!&!n)*!=!-!;!>!=)k'+'+',!",
"'!)!!!~!{!]!^!~)/!F)(!_!u':!<![!}!|!1!2!q,3!L)M)4!5!6!H'7!8!9!0!a!b!c!d!e!f!g!h!i!j!k!l!m!n!m!o!p!q!r!s!t!n)u!p)v!w!x!y!u)z!z!A!",
"B!C!D!E!F!G!H!~)/!I!J!K!_!u'L!M!N!O!m,P!Q!R!S!T!U!6!6!V!W!X!Y!Z!`! ~c!.~+~@~#~$~%~&~*~=~-~;~;~n!>~a' ),~'~)~!~P&x@~~{~]~+'A!^~/~",
"(~_~:~<~[~}~{!!)|~1~^)2~2~3~3~3~4~''5~6~P>7~8~9~0~0~a~b~c~d~e~f~g~h~c!i~j~@~k~k~l~m~n~n!o~p~p~q~r~s~t~u~v~w~x~y~z~A~B~C~+'/~D~E~",
"F~G~| H~I~J~F!K~L~M~N~O~P~Q~R~2~S~T~U~V~|!W~X~Y~Z~`~ {.{+{@{#{${%{&{*{={-{;{>{,{'{){!{~{d*{{=!d*q~]{^{/{({_{:{<{[{}{|{1{2{3{D~4{",
"5{6{7{8{9{0{a{b{c{d{e{f{g{h{i{j{k{l{m{n{o{p{q{r{s{t{u{v{w{x{y{z{{$A{B{C{D{E{F{!-G{H{]@I{J{K{I{H.}+M#L{M{N{b#O{P{Q{R{S{T{U{V{W{X{",
"Y{Z{`{ ].]+]@]#]$]%]&]*]=]-];]>],]'])])]!]u;~]{]v;q;]]^]^]/](]_]:]<][]}]|]1]2]+.+.+.3]2]4]5]6]7]8]9]0]a]b]c]d]e]f]g]h]i]j]k]l]m]",
"n]o]p]q]r]s]t]u]v]w]x]y]z]A]B]C]D]E]F]G]F]H]I]J]K]L]M]N]O]P]Q]R]S]T]U]V]W]X]Y]Z]`] ^.^+^@^#^$^%^&^*^=^-^;^>^,^'^)^!^~^{^]^^^/^(^",
"_^:^<^[^}^|^1^2^3^4^|^1^5^N+6^7^8^9^))0^a^b^c^d^e^f^g^h^i^j^k^l^m^n^o^p^q^r^s^t^u^v^w^x^y^z^A^B^C^D^E^F^G^H^I^J^K^L^M^N^O^P^Q^R^",
"S^T^U^V^W^X^Y^Z^`^ /|^./u;p#+/X]@/#/$/%/&/*/=/-/;/>/,/'/)/!/~/{/]/^///(/p^p^_/:/:/:/</[/}/|/1/2/3/4/D^5/6/7/8/9/0/7/a/b/c/d/e/f/",
"g/h/{#[^i/j/W^k/l/m/n/o/p/q/F;r/s/t/u/$/$/v/w/x/y/z/A/B/C/D/E/F/G/H/I/J/K/H/L/M/:/N/</</O/|/P/2/Q/R/S/T/U/V/W/0/X/a/Y/Z/`/ (.(+(",
"@(#($(Z%%(&(*(7==(-(w*|]}];(|]t/t/>(,('($/v/)(!(~({(B/B/B/](^(/(((_(:(<([(}(|(1(2(3(4(</5(6(7(8(9(0(a(4/b(c(d(e(f(g(g(Y/h(i(j(.(",
"k(l(m(n(z o(p(q(r(s(t(u(v(w(x(y(z(z(t/A($/v/)(B(C({(B/A/D(E(F(G(H(I(J([([(G/[(K(L(M(N(4(O(P(P(Q(R(S(T(U(V(W(X(f(Y(Y(Z(Y(Y/`( _9/",
"._+_@_#_$_%_&_*_=_-_;_>_,_'_)_s.!_~_{_]_^_/_w/(___:_D(<_[_}_|_1_2_3_4_5_J(6_[(7_8_9_0_0_a_$^b_c_d_e_f_g_h_i_j_k_l_m_n_o_p_e(q_0/",
"r_s_t_u_v_w_x_y_z_A_B_C_D_E_)_F_G_${y(H_I_'(J_K_L_M_N_O_P_Q_R_S_T_U_V_W_X_Y_B(Z_`_ :.:+:@:#:$:%:&:e_*:=:-:;:>:,:':l_m_Y(Y/):!:`(",
"~:{:]:^:v_/:(:_:::A_<:[:}:|:p#G;1:1:2:3:t/#/4:5:6:7:8:9:|_0:1_a:b:c:d:e:f:g:h:i:j:k:l:m:n:7($:o:p:q:r:s:t:u:v:w:x:y:l_n_Y(z:A:A:",
"B:C:D:E:o:/:/:/:F:G:H:I:I:J:p#K:K:K:L:M:N:t/O:5:6::_P:Q:R:S:S:T:U:2_V:Y_W:W:X:Y:Z:`: <.<+<$^@<#<=:$<%<t:&<*<=<-<;<x:y:m_n_Y(Y(><",
",<'<)<u_!</:/:~<{<]<^</<(<_<:<C;K:K:<<[<}<{_u/|<x/1<2<3<P:4<F(5<T:d:6<7<8<W:9<B(0<$.a<a<b<c<d<e<f<g<h<i<j<k<l<m<n<x:x:x:':><o<p<",
"q<r<7(s<t<u<v<w<X%x<y<z<A<B<C<D<E<F<G<G_!_H<I<O:J<K<L<M<N<O<P<Q<Q<R<R<S<T<U<V<W<X<Y<Z<`<s/ [.[+[J:@[#[$[%[&[*[=[-[;[>[,['[)[![~[",
"{[m$][^[/[([_[:[<[[[}[|[1[2[3[4[5[6[7[8[9[0[a a[b[c[d[e[f[g[h[i[j[k[l[m[n[o[p[q[r[s[t[u[v[w[x[y[z[A[B[C[D[D[E[F[G[H[I[Z@J[K[q.L[",
"M[N[O[P[Q[R[S[T[U[V[W[X[Y[Z[a.`[[{ }&%.}+}@}#}$}%}&}*}=}-};}>},}'})}!}~}{}]}^}/}(}_}:}<}[}}}|}1}2}3}4}5}6}5}7}8}9}0}a}b}c}d}e}5-",
"f}g}h}i}j}k}l}m}n}o}p}q}r}s}t},+_.2[u}v}w}^ x}y}z}A}B}C}D}->E}F}G}H}I}J}K}L}M}N}O}P}Q}R}S}T}U}V}W}X}Y}Z}`}`} |.|+|@|#|$|%|&|*|=|",
"-|;|>|,|'|)|!|~|{|]|]|]|^|/|(|v+_|:|T;v}v}Q%<|!;[|}|||1|1|b<2|3|o'4|5|6|7|8|9|0|a|b|c|d|e|J-f|g|h|i|j|k|l|m|n|o|p|%|q|r|s|t|#|u|",
" %v|w|x|y|d@z|]|;+/|J[Z@J[A|(|v+B|C|D|E|v}F|G|H|I|'.J|[|K|- L|M|N|O|P|0|Q|c|R|S|T|U|V|W|9;K-X|;|Y|Z|`| 1.1+1@1#1$1%1%1q|%|%1&1*1",
"#%=1-1;1>1,1'1u+)1!1,+~1{1]1q.^1/1(1_1D|:1<1[1}1|1!;11I|P.2131_@r.> 4151617181910101a1$>=%b1c1d1e1f1g1h1i1n|j1k1l1%1%1m1n1o1p1q1",
"r1s1F-Z@t1u1h@v1w1x1y1z1A1B1*@C1[+D1E1F1G1H11[G|I1H|<|M J1K1L1M1L1J1s N121O1J1P1}1P1P%Q1!%R1S1d1T1U1V1W1X1j1o|p|%|%1Y1n1Z1Z1`1 2",
".2+2@2#2$2x1%2M+r [+M+&2*2p M+P1G|J{7[=2-21[1[h P%P%;2;2u F_<<>2,2F_,2,2'2)2!2~2{2]2^2/2(2_2n$:2<2[2}2|21222324252%1q|62m1`1r|72",
"%%8292C1v102q a2b2c2d2d2D.e2d2h f2g g2=2h2i21[1[j2[1;2;2H;0 k2l2m2n2F<o2p2q2r2s2t2u2u2v2w2x2y2z2A2g|B2C2D2E252F2$|%1%1%1r|G2H2I2",
"J2K2L2M2N2l M+O2G|P2P2h h h 1[f2f2Q28[R2h2c;S2f21[1[Q%T2U20 q2o2p2V2W2X21]3]p2k2Y2Z2u2`2 3R1.3l$+3@3V}#3$3%3&3*31&=3r|-3;3>3,#,3",
"'3)3!3~3o {3M+]3b2P2h;^3w /3J{(3_3 }'%:3<3c;c;c;1[1[[3n2,20 k2V2V21]X2X2X2}3|3V2o2F<1323334353-|63738393p|-303a303b3c3d3T&_;e3h;",
"{%%%@%f3g3h3i3j3(1f3k3l3m3n3o3,%~%J26[R2p3q3Q1r3s3H12[t3Y2a[l2u3v3w3x3y3z3A3B3}3C3D3E3F3D|G3H3I3J3K3L3M3N38&O3P3Q3R3S3J.T3U3(3V3",
"W3X3Y36]6]Z3`3 4.45[+4+48[@4#47[_17[7[7[6[$4$4@4%4%4g2&4g2+4*4@47[=4-4-4;4>4>4>4>4>4;4,4,4,4B36['4;%;%)4!4~4{4~4~4~4!4]4434343^4"};
