/* XPM */
static char * weapon03_xpm[] = {
"64 64 152 2",
"  	c #008080",
". 	c #980088",
"+ 	c #A8A8A8",
"@ 	c #FCFCFC",
"# 	c #646464",
"$ 	c #D0D0D0",
"% 	c #545454",
"& 	c #DCDCDC",
"* 	c #C0C0C0",
"= 	c #7C7C7C",
"- 	c #8C8C8C",
"; 	c #383838",
"> 	c #484848",
", 	c #FC9C60",
"' 	c #FCCCB0",
") 	c #FCBC9C",
"! 	c #FCB080",
"~ 	c #E88C58",
"{ 	c #A86840",
"] 	c #FCA470",
"^ 	c #FCB890",
"/ 	c #BC7848",
"( 	c #DC8854",
"_ 	c #989898",
": 	c #F0945C",
"< 	c #D08050",
"[ 	c #C87C4C",
"} 	c #9C6038",
"| 	c #885830",
"1 	c #B47044",
"2 	c #980000",
"3 	c #707070",
"4 	c #FC0000",
"5 	c #EC0000",
"6 	c #FC9C9C",
"7 	c #FC5454",
"8 	c #FC5C5C",
"9 	c #FCFC54",
"0 	c #000000",
"a 	c #B4B4B4",
"b 	c #2C2C2C",
"c 	c #202020",
"d 	c #543C1C",
"e 	c #FCD8C4",
"f 	c #80502C",
"g 	c #FCC4A4",
"h 	c #744C28",
"i 	c #A0643C",
"j 	c #905C34",
"k 	c #C80000",
"l 	c #B00000",
"m 	c #A80000",
"n 	c #FC2020",
"o 	c #FC4040",
"p 	c #FCB8B8",
"q 	c #FCD8D8",
"r 	c #ECECEC",
"s 	c #FC7C7C",
"t 	c #880000",
"u 	c #E00000",
"v 	c #7C0000",
"w 	c #A40000",
"x 	c #D40000",
"y 	c #FCFCB8",
"z 	c #BC0000",
"A 	c #FCFC7C",
"B 	c #FCFC9C",
"C 	c #FCFCD8",
"D 	c #B8E8E8",
"E 	c #008484",
"F 	c #9CDCDC",
"G 	c #20B0B0",
"H 	c #006C6C",
"I 	c #48C0C0",
"J 	c #D8F4F4",
"K 	c #005858",
"L 	c #004040",
"M 	c #580000",
"N 	c #007474",
"O 	c #007C7C",
"P 	c #00A4A4",
"Q 	c #008C8C",
"R 	c #007070",
"S 	c #74C8C8",
"T 	c #009898",
"U 	c #20B4B4",
"V 	c #009C9C",
"W 	c #00B4B4",
"X 	c #700000",
"Y 	c #6C4824",
"Z 	c #5C4020",
"` 	c #575757",
" .	c #4F4F4F",
"..	c #5B5B5B",
"+.	c #636363",
"@.	c #6B6B6B",
"#.	c #373737",
"$.	c #7B634F",
"%.	c #8B8B8B",
"&.	c #939393",
"*.	c #979797",
"=.	c #9F9F9F",
"-.	c #BFA78F",
";.	c #A7A7A7",
">.	c #ABABAB",
",.	c #AF977F",
"'.	c #A78F77",
").	c #777777",
"!.	c #838383",
"~.	c #BFBFBF",
"{.	c #6F6F6F",
"].	c #7F7F7F",
"^.	c #937B63",
"/.	c #474F33",
"(.	c #0E0E0E",
"_.	c #430000",
":.	c #B3B3B3",
"<.	c #474747",
"[.	c #F1AE43",
"}.	c #A70000",
"|.	c #E30000",
"1.	c #EF0000",
"2.	c #7F0000",
"3.	c #7B7F63",
"4.	c #8B0000",
"5.	c #BF0000",
"6.	c #CB0000",
"7.	c #D70000",
"8.	c #9B0000",
"9.	c #4F0000",
"0.	c #5B0000",
"a.	c #8B735B",
"b.	c #730000",
"c.	c #B30000",
"d.	c #9F876F",
"e.	c #B79F87",
"f.	c #6F7357",
"g.	c #F1F100",
"h.	c #F1F1F1",
"i.	c #836B57",
"j.	c #2F2F2F",
"k.	c #53573B",
"l.	c #4B4B4B",
"m.	c #434343",
"n.	c #67533F",
"o.	c #F10000",
"p.	c #3B3B3B",
"q.	c #670000",
"r.	c #272727",
"s.	c #232323",
"t.	c #530707",
"u.	c #574333",
". . . . . . . . . . . . . . . . . . . . . . . . . . . . . . . . . . . . . . . . . . . . . . . . . . . . . . . . . . . . . . . . ",
". . . . . . . . . . . . . . . . . . . . . . . . . . . . . . . . . . . . . . . . . . . . . . . . . . . . . . . . . . . . . . . . ",
". . . . . . . . . . . . . . . . . . . . . . . . . . . . . . . . . . . . . . . . . . . . . . . . . . . . . . . . . . . . . . . . ",
". . . . . . . . . . . . . . . . . . . . . . . . . . . . . . . . . . . . . . . . . . . . . . . . . . . . . . . . . . . . . . . . ",
". . . . . . . . . . . . . . . . . . . . . . . . . . . . . . . . . . . . . . . . . . . . . . . . . . . . . . . . . . . . . . . . ",
". . . . . . . . . . . . . . . . . . . . . . . . . . . . . . . . . . . . . . . . . . . . . . . . . . . . . . . . . . . . . . . . ",
". . . . . . . . . . . . . . . . . . . . . . . . . . . . . . . . . . . . . . . . . . . . . . . . . . . . . . . . . . . . . . . . ",
". . . . . . . . . . . . . . . . . . . . . . . . . . . . . . . . . . . . . . . . . . . . . . . . . . . . . . . . . . . . . . . . ",
". . . . . . . . . . . . . . . . . . . . . . . . . . . . . . . . . . . . . . . . . . . . . . . . . . . . . . . . . . . . . . . . ",
". . . . . . . . . . . . . . . . . . . . . . . . . . . . . . . . . . . . . . . . . . . . . . . . . . . . . . . . . . . . . . . . ",
". . . . . . . . . . . . . . . . . . . . . . . . . . . . . . . . . . . . . . . . . . . . . . . . . . . . . . . . . . . . . . . . ",
". . . . . . . . . . . . . . . . . . . . . . . . . . . . . . . . . . . . . . . . . . . . . . . . . . . . . . . . . . . . . . . . ",
". . . . . . . . . . . . . . . . . . . . . . . . . . . . . . . . . . . . . . . . . . . . . . . . . . . . . . . . . . . . . . . . ",
". . . . . . . . . . . . . . . . . . . . . . . . . . . . . . . . . . . . . . . . . . . . . . . . . . . . . . . . . . . . . . . . ",
". . . . . . . . . . . . . . . . . . . . . . . . . . . . . . . . . . . . . . . . . . . . . . . . . . . . . . . . . . . . . . . . ",
". . . . . . . . . . . . . . . . . . . . . . . . . . . . . . . . . . . . . . . . . . . . . . . . . . . . . . . . . . . . . . . . ",
". . . . . . . . . . . . . . . . . . . . . . . . . . . . . . . . . . . . . . . . . . . . . . . . . . . . . . . . . . . . . . . . ",
". . . . . . . . . . . . . . . . . . . . . . . . . . . . . . . . . . . . . . . . . . . . . . . . . . . . . . . . . . . . . . . . ",
". . . . . . . . . . . . . . . . . . . . . . . . . . . . . . . . . . . . . . . . . . . . . . . . . . . . . . . . . . . . . . . . ",
". . . . . . . . . . . . . . . . . . . . . . . . . . . . . . . . . . . . . . . . . . . . . . . . . . . . . . . . . . . . . . . . ",
". . . . . . . . . . . . . . . . . . . . . . . . . . . . . . . . . . . . . . . . . . . . . . . . . . . . . . . . . . . . . . . . ",
". . . . . . . . . . . . . . . . . . . . . . . . . . . . . . . . . . . . . . . . . . . . . . . . . . . . . . . . . . . . . . . . ",
". . . . . . . . . . . . . . . . . . . . . . . . . . . . . . . . . . . . . . . . . . . . . . . . . . . . . . . . . . . . . . . . ",
". . . . . . . . . . . . . . . . . . . . . . . . . . . . . . . . . . . . . . . . . . . . . . . . . . . . . . . . . . . . . . . . ",
". . . . . . . . . . . . . . . . . . . . . . . . . . . . . . . . . . . . . . . . . . . . . . . . . . . . . . . . . . . . . . . . ",
". . . . . . . . . . . . . . . . . . . . . . . . . . . . . . . . . . . . . . . . . . . . . . . . . . . . . . . . . . . . . . . . ",
". . . . . . . . . . . . . . . . . . . . . . . . . . . . . . . . . . . . . . . . . . . . . . . . . . . . . . . . . . . . . . . . ",
". . . . . . . . . . . . . . . . . . . . . . . . . . . . . . . . . . . . . . . . . . . . . . . . . . . . . . . . . . . . . . . . ",
". . . . . . . . . . . . . . . . . . . . . . . . . . . . . . . . . . . . . . . . . . . . . . . . . . . . . . . . . . . . . . . . ",
". . . . . . . . . . . . . . . . . . . . . . . . . . . . . . . . . . . . . . . . . . . . . . . . . . . . . . . . . . . . . . . . ",
". . . . . . . . . . . . . . . . . . . . . . . . . . . . . . . . v . . . . . . . . . . . . . . . . . . . . . . . . . . . . . . . ",
". . . . . . . . . . . . . . . . . . . . . . . . . . . . . . . v m v . . . . . . . . . . . . . . . . . . . . . . . . . . . . . . ",
". . . . . . . . . . . . . . . . . . . . . . . . . . . . . . . v 4 v . . . . . . . . . . . . . . . . . . . . . . . . . . . . . . ",
". . . . . . . . . . . . . . . . . . . . . . . . . . . . . . v 4 7 m v . . . . . . . . . . . . . . . . . . . . . . . . . . . . . ",
". . . . . . . . . . . . . . . . . . . . . . . . . . . . . v m 7 s 7 m v . . . . . . . . . . . . . . . . . . . . . . . . . . . . ",
". . . . . . . . . . . . . . . . . . . . . . . . . . . . v v 4 s p s 4 m v . . . . v v v . . . . . . . . . . . . . . . . . . . . ",
". . . . . . . . . . . . . . . . . . . . . . . . . . . v m 4 s p 9 p s 4 m v . v w x x v . . . . . . . . . . . . . . . . . . . . ",
". . . . . . . . . . . . . . . . . t t 2 . . . . . v v m 4 s p 9 y 9 p s 4 z v m 4 4 x w . . . . . . . . . . . . . . . . . . . . ",
". . . . . . . . . . . . . . . . . t l k v v . . v m k 4 s p 9 A @ B 9 p s 4 z 7 7 4 w . . . . . . . . . . . . . . . . . . . . . ",
". . . . . . . . . . . . . . . . . 2 k 4 4 x v z m 7 4 s p 9 A C @ C A 9 p 6 7 7 7 x v . . . . . . . . . . . . . . . . . . . . . ",
". . . . . . . . . . . . . . . . . . v 4 7 7 4 x k 4 7 6 9 9 B @ @ @ y A 9 p 6 7 4 w v v v v v . . . . . . . . . . . . . . . . . ",
". . . . . . . . . . . . . . . . . . . k 7 p s 7 4 4 s p 9 A y @ @ @ y B 9 9 p 7 x x 4 s 4 m v . . . . . . . . . . . . . . . . . ",
". . . . . . . . . . . . . . . . . . . z 4 s 9 p 6 7 p 9 9 B y @ F G y B 9 9 9 s s s p 9 s x v . . . . . . . . . . . . . . . . . ",
". . . . . . . . . . . . . . . . . . . v x 7 p @ B 6 p 9 B I E @ F G E I B 9 9 p p @ y p x v . . . . . . . . . . . . . . . . . . ",
". . . . . . . . . . . . . . . . . . . v x 7 s @ @ @ B + + + + + + + + + + + B @ @ @ y s v . . . . . . . . . . . . . . . . . . . ",
". . . . . . . . . . . . . . . . . . . w 4 7 6 @ @ a = = = = = = = = = = = = = a @ @ 6 n w v M M . . . . . . . . . . . . . . . . ",
". . . . . . . . . . . . . . . v v v w z 4 s p B a # > > > > > > > > > > > > > # a C 9 6 4 4 x z w M M . . . . . . . . . . . . . ",
". . . . . . . . . . . v v w z x 4 4 7 s 6 p 9 _ # > c b % % b E N % b % % b c > # _ 9 9 p 6 s 7 o 4 x z w M M . . . . . . . . . ",
". . . . . . . v v w z x x 4 4 7 s p 9 9 9 9 9 = > c L N Q H R D S E L K Q % b c > % 9 9 9 9 9 p s s 7 4 4 4 x w v M M . . . . . ",
". . . . . . . . . . . v w m m x 4 4 s 6 p 9 + # % ; N D F E P @ F E L K I Q b b b > = 9 p 6 s 7 o 4 x m w v v . . . . . . . . . ",
". . . . . . . . . . . . . v v w w z x 4 6 9 # K I % I @ F T S @ F T K b Q P % b L b > 9 6 o 4 x l 2 v v . . . . . . . . . . . . ",
". . . . . . . . . . . . . . . . . . w 4 s s b I I Q @ D S G F @ F P % b E U E b % b > 6 s 4 z v . . . . . . . . . . . . . . . . ",
". . . . . . . . . . . . . . . . . . w x 4 7 b @ V I @ D U I F @ F G N b R I G % b > b 7 4 z . . . . . . . . . . . . . . . . . . ",
". . . . . . . . . . . . . . . . . v m w x v I D V D @ F T I D @ D G Q % K Q I % b % K v m v . . . . . . . . . . . . . . . . . . ",
". . . . . . . . . . . . . . . . . . v . . x @ W S @ D F @ @ D D F S P Q E E U Q b K K x w . . . . . . . . . . . . . . . . . . . ",
". . . . . . . . . . . . . . . . . . . . . I D V D @ F I @ D @ D F S U T R R U U N b % % X . . . . . . . . . . . . . . . . . . . ",
". . . . . . . . . . . . . . . . . . . . . D F W F F F J D J @ D F S U G H K S D U H L K . . . . . . . . . . . . . . . . . . . . ",
". . . . . . . . . . . . . . . . . . . . I F J D @ J D @ D @ @ D F S U G N K E G Q G Q L L H . . . . . . . . . . . . . . . . . . ",
". . . . . . . . . . . . . . . . . . . Q F @ F @ @ D D @ D @ @ D F S U G Q K K T G Q R N c L H . . . . . . . . . . . . . . . . . ",
". . . . . . . . . . . . . . . . . . Q F D J F @ J D J D D @ @ D F S U G T H K E G T O H L c L H . . . . . . . . . . . . . . . . ",
". . . . . . . . . . . . . . . . . Q I D @ F D @ J D @ D J @ @ D F S U G P N K R T G Q R H L c L H . . . . . . . . . . . . . . . ",
". . . . . . . . . . . . . . . . Q I F J J F J @ D D @ D @ @ @ D F S U G P N K K E G T O H K L c L . . . . . . . . . . . . . . . ",
". . . . . . . . . . . . . . . . I F J @ F D @ J D J D D @ @ @ D F S U G G Q H K R T G Q O H L c c H . . . . . . . . . . . . . . ",
". . . . . . . . . . . . . . . I F D J @ F J @ J D @ D J @ @ @ D F S U G G Q N K R E G Q E H H L c L . . . . . . . . . . . . . . "};
