/* XPM */
static char * weapon04_xpm[] = {
"64 64 152 2",
"  	c #008080",
". 	c #980088",
"+ 	c #A8A8A8",
"@ 	c #FCFCFC",
"# 	c #646464",
"$ 	c #D0D0D0",
"% 	c #545454",
"& 	c #DCDCDC",
"* 	c #C0C0C0",
"= 	c #7C7C7C",
"- 	c #8C8C8C",
"; 	c #383838",
"> 	c #484848",
", 	c #FC9C60",
"' 	c #FCCCB0",
") 	c #FCBC9C",
"! 	c #FCB080",
"~ 	c #E88C58",
"{ 	c #A86840",
"] 	c #FCA470",
"^ 	c #FCB890",
"/ 	c #BC7848",
"( 	c #DC8854",
"_ 	c #989898",
": 	c #F0945C",
"< 	c #D08050",
"[ 	c #C87C4C",
"} 	c #9C6038",
"| 	c #885830",
"1 	c #B47044",
"2 	c #980000",
"3 	c #707070",
"4 	c #FC0000",
"5 	c #EC0000",
"6 	c #FC9C9C",
"7 	c #FC5454",
"8 	c #FC5C5C",
"9 	c #FCFC54",
"0 	c #000000",
"a 	c #B4B4B4",
"b 	c #2C2C2C",
"c 	c #202020",
"d 	c #543C1C",
"e 	c #FCD8C4",
"f 	c #80502C",
"g 	c #FCC4A4",
"h 	c #744C28",
"i 	c #A0643C",
"j 	c #905C34",
"k 	c #C80000",
"l 	c #B00000",
"m 	c #A80000",
"n 	c #FC2020",
"o 	c #FC4040",
"p 	c #FCB8B8",
"q 	c #FCD8D8",
"r 	c #ECECEC",
"s 	c #FC7C7C",
"t 	c #880000",
"u 	c #E00000",
"v 	c #7C0000",
"w 	c #A40000",
"x 	c #D40000",
"y 	c #FCFCB8",
"z 	c #BC0000",
"A 	c #FCFC7C",
"B 	c #FCFC9C",
"C 	c #FCFCD8",
"D 	c #B8E8E8",
"E 	c #008484",
"F 	c #9CDCDC",
"G 	c #20B0B0",
"H 	c #006C6C",
"I 	c #48C0C0",
"J 	c #D8F4F4",
"K 	c #005858",
"L 	c #004040",
"M 	c #580000",
"N 	c #007474",
"O 	c #007C7C",
"P 	c #00A4A4",
"Q 	c #008C8C",
"R 	c #007070",
"S 	c #74C8C8",
"T 	c #009898",
"U 	c #20B4B4",
"V 	c #009C9C",
"W 	c #00B4B4",
"X 	c #700000",
"Y 	c #6C4824",
"Z 	c #5C4020",
"` 	c #575757",
" .	c #4F4F4F",
"..	c #5B5B5B",
"+.	c #636363",
"@.	c #6B6B6B",
"#.	c #373737",
"$.	c #7B634F",
"%.	c #8B8B8B",
"&.	c #939393",
"*.	c #979797",
"=.	c #9F9F9F",
"-.	c #BFA78F",
";.	c #A7A7A7",
">.	c #ABABAB",
",.	c #AF977F",
"'.	c #A78F77",
").	c #777777",
"!.	c #838383",
"~.	c #BFBFBF",
"{.	c #6F6F6F",
"].	c #7F7F7F",
"^.	c #937B63",
"/.	c #474F33",
"(.	c #0E0E0E",
"_.	c #430000",
":.	c #B3B3B3",
"<.	c #474747",
"[.	c #F1AE43",
"}.	c #A70000",
"|.	c #E30000",
"1.	c #EF0000",
"2.	c #7F0000",
"3.	c #7B7F63",
"4.	c #8B0000",
"5.	c #BF0000",
"6.	c #CB0000",
"7.	c #D70000",
"8.	c #9B0000",
"9.	c #4F0000",
"0.	c #5B0000",
"a.	c #8B735B",
"b.	c #730000",
"c.	c #B30000",
"d.	c #9F876F",
"e.	c #B79F87",
"f.	c #6F7357",
"g.	c #F1F100",
"h.	c #F1F1F1",
"i.	c #836B57",
"j.	c #2F2F2F",
"k.	c #53573B",
"l.	c #4B4B4B",
"m.	c #434343",
"n.	c #67533F",
"o.	c #F10000",
"p.	c #3B3B3B",
"q.	c #670000",
"r.	c #272727",
"s.	c #232323",
"t.	c #530707",
"u.	c #574333",
". . . . . . . . . . . . . . . . . . . . . . . . . . . . . . . . . . . . . . . . . . . . . . . . . . . . . . . . . . . . . . . . ",
". . . . . . . . . . . . . . . . . . . . . . . . . . . . . . . . . . . . . . . . . . . . . . . . . . . . . . . . . . . . . . . . ",
". . . . . . . . . . . . . . . . . . . . . . . . . . . . . . . . . . . . . . . . . . . . . . . . . . . . . . . . . . . . . . . . ",
". . . . . . . . . . . . . . . . . . . . . . . . . . . . . . . . . . . . . . . . . . . . . . . . . . . . . . . . . . . . . . . . ",
". . . . . . . . . . . . . . . . . . . . . . . . . . . . . . . . . . . . . . . . . . . . . . . . . . . . . . . . . . . . . . . . ",
". . . . . . . . . . . . . . . . . . . . . . . . . . . . . . . . . . . . . . . . . . . . . . . . . . . . . . . . . . . . . . . . ",
". . . . . . . . . . . . . . . . . . . . . . . . . . . . . . . . . . . . . . . . . . . . . . . . . . . . . . . . . . . . . . . . ",
". . . . . . . . . . . . . . . . . . . . . . . . . . . . . . . . . . . . . . . . . . . . . . . . . . . . . . . . . . . . . . . . ",
". . . . . . . . . . . . . . . . . . . . . . . . . . . . . . . . . . . . . . . . . . . . . . . . . . . . . . . . . . . . . . . . ",
". . . . . . . . . . . . . . . . . . . . . . . . . . . . . . . . . . . . . . . . . . . . . . . . . . . . . . . . . . . . . . . . ",
". . . . . . . . . . . . . . . . . . . . . . . . . . . . . . . . . . . . . . . . . . . . . . . . . . . . . . . . . . . . . . . . ",
". . . . . . . . . . . . . . . . . . . . . . . . . . . . . . . . . . . . . . . . . . . . . . . . . . . . . . . . . . . . . . . . ",
". . . . . . . . . . . . . . . . . . . . . . . . . . . . . . . . . . . . . . . . . . . . . . . . . . . . . . . . . . . . . . . . ",
". . . . . . . . . . . . . . . . . . . . . . . . . . . . . . . . . . . . . . . . . . . . . . . . . . . . . . . . . . . . . . . . ",
". . . . . . . . . . . . . . . . . . . . . . . . . . . . . . . . . . . . . . . . . . . . . . . . . . . . . . . . . . . . . . . . ",
". . . . . . . . . . . . . . . . . . . . . . . . . . . . . . . . . . . . . . . . . . . . . . . . . . . . . . . . . . . . . . . . ",
". . . . . . . . . . . . . . . . . . . . . . . . . . . . . . . . . . . . . . . . . . . . . . . . . . . . . . . . . . . . . . . . ",
". . . . . . . . . . . . . . . . . . . . . . . . . . . . . . . . . . . . . . . . . . . . . . . . . . . . . . . . . . . . . . . . ",
". . . . . . . . . . . . . . . . . . . . . . . . . . . . . . . . . . . . . . . . . . . . . . . . . . . . . . . . . . . . . . . . ",
". . . . . . . . . . . . . . . . . . . . . . . . . . . . . . . . . . . . . . . . . . . . . . . . . . . . . . . . . . . . . . . . ",
". . . . . . . . . . . . . . . . . . . . . . . . . . . . . . . . . . . . . . . . . . . . . . . . . . . . . . . . . . . . . . . . ",
". . . . . . . . . . . . . . . . . . . . . . . . . . . . . . . . . . . . . . . . . . . . . . . . . . . . . . . . . . . . . . . . ",
". . . . . . . . . . . . . . . . . . . . . . . . . . . . . . . . . . . . . . . . . . . . . . . . . . . . . . . . . . . . . . . . ",
". . . . . . . . . . . . . . . . . . . . . . . . . . . . . . . . . . . . . . . . . . . . . . . . . . . . . . . . . . . . . . . . ",
". . . . . . . . . . . . . . . . . . . . . . . . . . . . . . . . . . . . . . . . . . . . . . . . . . . . . . . . . . . . . . . . ",
". . . . . . . . . . . . . . . . . . . . . . . . . . . . . . . . . . . . . . . . . . . . . . . . . . . . . . . . . . . . . . . . ",
". . . . . . . . . . . . . . . . . . . . . . . . . . . . . . . . t . . . . . . . . . . . . . . . . . . . . . . . . . . . . . . . ",
". . . . . . . . . . . . . . . . . . . . . . . . . . . . . . . l l t . . . . . . . . . . . . . . . . . . . . . . . . . . . . . . ",
". . . . . . . . . . . . . . . . . . . . . . . . . . . . . . . l u l . . . . . . . . . . . . . . . . . . . . . . . . . . . . . . ",
". . . . . . . . . . . . . . . . . . . . . . . . . . . . . . t u 4 u l . . . . . . . . . . . . . . . . . . . . . . . . . . . . . ",
". . . . . . . . . . . . . . . . . . . . . . . . . . . . . . l u 7 u l . . . . . . . . . . . . . . . . . . . . . . . . . . . . . ",
". . . . . . . . . . . . . . . . . . . . . . . . . . . . . l u 7 9 7 u l . . . . . . . . . . . . . . . . . . . . . . . . . . . . ",
". . . . . . . . . . . . . . . . . . . . . . . . . . . . l u 4 s 9 s 4 l l . . . . . . . . . . . . . . . . . . . . . . . . . . . ",
". . . . . . . . . . . . . . . . . . . . . . . . . . . l u 4 s p 9 s o u l l . . . . . . . . . . . . . . . . . . . . . . . . . . ",
". . . . . . . . . . . . . . . . . . . . . . . . . . t l u o p 9 9 9 s o u l . . . . . . . . . . . . . . . . . . . . . . . . . . ",
". . . . . . . . . . . . . . . . . . . . . . . . . . l u o s 9 9 9 9 9 s o u l . . . . . . . . . . . . . . . . . . . . . . . . . ",
". . . . . . . . . . . . . . . . . . . . . . . . . t k 4 s p 9 9 @ 9 9 p 7 4 l l . . l t t . . . . . . . . . . . . . . . . . . . ",
". . . . . . . . . . . . . . . . . . . . . . . . . k u o s 9 9 @ @ @ 9 9 s o u l l l u u t . . . . . . . . . . . . . . . . . . . ",
". . . . . . . . . . . . . . . . . . . . t t l k k k u s p 9 9 @ @ @ 9 9 p 7 4 u u u 4 4 l . . . . . . . . . . . . . . . . . . . ",
". . . . . . . . . . . . . . . . . . . . t 4 4 4 4 4 4 s p 9 9 @ @ @ 9 9 9 s o u 7 7 o o l . . . . . . . . . . . . . . . . . . . ",
". . . . . . . . . . . . . . . . . . . . u m o 7 7 o o s 9 9 @ @ @ @ @ 9 9 6 s 7 s s s o l . . . . . . . . . . . . . . . . . . . ",
". . . . . . . . . . . . . . . . . . . . . u 7 p 6 s s 6 9 9 @ @ @ @ @ 9 9 p 6 s s 9 s u . . . . . . . . . . . . . . . . . . . . ",
". . . . . . . . . . . . . . . . . . . . . . u 9 9 p p p 9 F F F @ F F F 9 9 p 9 9 p s l . . . . . . . . . . . . . . . . . . . . ",
". . . . . . . . . . . . . . . . . . . . . . u m 9 @ 9 9 F @ J D I @ @ J D 9 9 @ 9 p u l . . . . . . . . . . . . . . . . . . . . ",
". . . . . . . . . . . . . . . . . . . . . . u o p @ 9 = = = = = = = = = = = 9 @ 9 p u . . . . . . . . . . . . . . . . . . . . . ",
". . . . . . . . . . . . . . . . . . . . l u o 7 9 = % % % % % % % % % % % % % = 9 p u l l l . . . . . . . . . . . . . . . . . . ",
". . . . . . . . . . . . . . . . t t l l u o 7 s = % b b b b b b b b b b b b b % = 9 s 7 4 7 u l l l . . . . . . . . . . . . . . ",
". . . . . . . . . . . . . t l u u o 7 7 s p 9 = % b c b K O P O ; O P K ; b c b % = p s s o 4 4 u u l l t t t . . . . . . . . . ",
". . . . . . . . . . t l u u o 7 7 s s p 9 9 9 % b c K T S F @ I O @ D P K L b c b % 9 9 9 p s 4 4 l t t . . . . . . . . . . . . ",
". . . . . . . . . . . . . t t l l u u u u 7 % b ; 3 I T S J @ I T @ J I N L N ; b b = 9 p 7 u u l t . . . . . . . . . . . . . . ",
". . . . . . . . . . . . . . . . . l l u u p % > 3 F I T F J @ I T @ @ S P H K N ; b > 9 p u u . . . . . . . . . . . . . . . . . ",
". . . . . . . . . . . . . . . . . . . u s 9 b % U F T S D @ J I T J @ S P O L E K b b 9 9 p u . . . . . . . . . . . . . . . . . ",
". . . . . . . . . . . . . . . . . . u s 9 p b P @ I T F J @ D I T D @ D I Q L E N ; b 9 9 9 s u . . . . . . . . . . . . . . . . ",
". . . . . . . . . . . . . . . . . l o s s . 0 F D G T F J @ D I T F @ D I P H K E K ; 7 p p p s u . . . . . . . . . . . . . . . ",
". . . . . . . . . . . . . . . . t u u u u u = @ I T S D @ @ D D F S P Q E E N L E N ; u 7 s s s 7 l . . . . . . . . . . . . . . ",
". . . . . . . . . . . . . . . . t t l . . . F @ I T F D @ D @ D F S U T R R N L K E K l u u u l l t t . . . . . . . . . . . . . ",
". . . . . . . . . . . . . . . . . . . . . D F T F F F J D J @ D F S U G H K S D U H L K . . . . . . . . . . . . . . . . . . . . ",
". . . . . . . . . . . . . . . . . . . . I F J D @ J D @ D @ @ D F S U G N K E G Q G Q L L H . . . . . . . . . . . . . . . . . . ",
". . . . . . . . . . . . . . . . . . . Q F @ F @ @ D D @ D @ @ D F S U G Q K K T G Q R N c L H . . . . . . . . . . . . . . . . . ",
". . . . . . . . . . . . . . . . . . Q F D J F @ J D J D D @ @ D F S U G T H K E G T O H L c L H . . . . . . . . . . . . . . . . ",
". . . . . . . . . . . . . . . . . Q I D @ F D @ J D @ D J @ @ D F S U G P N K R T G Q R H L c L H . . . . . . . . . . . . . . . ",
". . . . . . . . . . . . . . . . Q I F J J F J @ D D @ D @ @ @ D F S U G P N K K E G T O H K L c L . . . . . . . . . . . . . . . ",
". . . . . . . . . . . . . . . . I F J @ F D @ J D J D D @ @ @ D F S U G G Q H K R T G Q O H L c c H . . . . . . . . . . . . . . ",
". . . . . . . . . . . . . . . I F D J @ F J @ J D @ D J @ @ @ D F S U G G Q N K R E G Q E H H L c L . . . . . . . . . . . . . . "};
