/* XPM */
static char *key_sprite_32x32[] = {
"32 32 57 1",
"  c #FF0C0E",
". c #FF1B0E",
"+ c #FF2A22",
"- c #FF080A",
"* c #FF101B",
"# c #FF2E31",
"a c #FF151B",
"b c #FF1718",
"c c #FF292C",
"d c #FF1B15",
"e c #FF2810",
"f c #FF000D",
"g c #FF251E",
"h c #FF0407",
"i c #FF1F2C",
"j c #FF0E14",
"k c #FF0C0C",
"l c #FF3030",
"m c #FF1807",
"n c #FF1610",
"o c #FF120D",
"p c #FF230B",
"q c #FF180D",
"r c #FF0E0A",
"s c #FF2E13",
"t c #001F2C",
"u c #03101B",
"v c #26292C",
"w c #251610",
"x c #0C0E14",
"y c #12151B",
"z c #150B16",
"A c #33230B",
"B c #050407",
"C c #260E0A",
"D c #21080A",
"E c #0C1B0E",
"F c #142810",
"G c #2E2116",
"H c #24101B",
"I c #08120D",
"J c #2B180D",
"K c #2E251E",
"L c #33000D",
"M c #170C0C",
"N c #311807",
"O c #2F2A22",
"P c #1C1F24",
"Q c #092E31",
"R c #271B15",
"S c #2E0C0E",
"T c #332E13",
"U c #311718",
"V c #FF1F24",
"W c #FF0B16",
"X c #2F3030",
"Y c #FF2116",
" .+.-*#*#abcd.b.+e+fghd. ijk*alg",
"imk.ncoadpbq-bgrmkoaah.-eg*ho#*a",
"frejih.cc-s.i*j+ ejah+mj*rbfnplo",
"acqtuvwxxyzABBCDEFBGtHDICJIKt.fe",
"qbbByDJLMNOJPMByvyAJCvLCQuBHzfgh",
"fesRwHJQwvvIuGNSyPQPEuOTBRUyHlao",
".o#USJmsb+q+ia*nhc+hsnVi+mSvvc.c",
"VfgRMxe-deenqrrha*pl.*mk*VyOApVa",
"cp-HxC*bqhmf*.mr#hW+s.a*q*LwAgji",
"phnQKC*#csail.#kWiir#sdh.#zwxjnW",
"l+-XuSe.ajAuOMOPRzQnfs*WWsEKNca*",
"effwITVhpgSSKXDGKzzjmsn##bEPCjqj",
"a*fvyJnoqkEXKHyHJzA.rVl-hVXSwgcd",
"samvLGWdVqxNBboVSUP YhAxyxzHzYo+",
"gbmTtAWhh KFyYg#CtUapsGJNINFw-pi",
"bsYHNu.pWdKQti+.HFQhh-NPwvJyMiY.",
"f*+OHPdVVpHCUEBNBACbc +a*aIvEa W",
" * uBIpa*#IBHKFDEByaokmrgbDJUpda",
"*-aSNPsolpwLUCuxNOBaje +j*tET-cc",
"jmVtNUpef.tKIqroDHtYheEDCBBAzajj",
"p**PSzphgfzHB*#rLvCqpavyBMPJOmkf",
"rddIMCdoalHyUdhsOuEV#VySNGuIvcn#",
"baaPAQVc.ccc m+iVnsh+chn*atOJ+bs",
"+pYBKuoaVpp+aV*km*.lp*ahrrJwFed-",
"eqiEyLgijgpnf*q*a.s+Wh#rm.uLNhqb",
"++aPEtqWnjjnW#.hds#riiWk#.Xtysc#",
"h.dSAuSuyvNKETzzuTLwQzRPOMOuAja.",
"gV.JJQvxJxCPEUQQwTNxzzKGDXKSSgph",
"heYDuLFRvKwSXPBDXPCEAzJHyHKXEkqo",
"nh#Wrp#+oYW*WjajphY Vb VobhmjqVd",
"deYah-aip-nemomqYspabir#gYaeg hh",
"ksW+-Vc.YikaqcnVm-hh#e*.+ii#gdWp"
};
