/* XPM */
static char * white_wood_border64_xpm[] = {
"64 64 1367 2",
"  	c #735D49",
". 	c #75654E",
"+ 	c #72624B",
"@ 	c #71604C",
"# 	c #7A6751",
"$ 	c #78654F",
"% 	c #77644F",
"& 	c #74624F",
"* 	c #73624F",
"= 	c #6F604C",
"- 	c #70614D",
"; 	c #736450",
"> 	c #786954",
", 	c #756651",
"' 	c #756551",
") 	c #5C4839",
"! 	c #8B7352",
"~ 	c #816D51",
"{ 	c #7E6A4F",
"] 	c #9D875D",
"^ 	c #7B6749",
"/ 	c #9C8767",
"( 	c #A18C6B",
"_ 	c #A08B6A",
": 	c #968263",
"< 	c #826F59",
"[ 	c #7B6A56",
"} 	c #7B6C5A",
"| 	c #796957",
"1 	c #776755",
"2 	c #6E6059",
"3 	c #68554B",
"4 	c #846C55",
"5 	c #79624D",
"6 	c #7F664F",
"7 	c #826951",
"8 	c #8A7055",
"9 	c #B7A173",
"0 	c #5F4538",
"a 	c #89694F",
"b 	c #7A5947",
"c 	c #745343",
"d 	c #6F4E3D",
"e 	c #795641",
"f 	c #76523D",
"g 	c #937356",
"h 	c #5E473C",
"i 	c #76604C",
"j 	c #796950",
"k 	c #6A5A47",
"l 	c #7B6852",
"m 	c #796650",
"n 	c #72614E",
"o 	c #71614D",
"p 	c #766752",
"q 	c #776853",
"r 	c #776854",
"s 	c #564336",
"t 	c #887253",
"u 	c #7F6B50",
"v 	c #7D694E",
"w 	c #7B664B",
"x 	c #7A654A",
"y 	c #7B674C",
"z 	c #998464",
"A 	c #9F8A6A",
"B 	c #9B8766",
"C 	c #998668",
"D 	c #7E6C57",
"E 	c #7B6955",
"F 	c #786856",
"G 	c #796958",
"H 	c #736763",
"I 	c #6C594F",
"J 	c #877058",
"K 	c #866F58",
"L 	c #866F57",
"M 	c #745D4B",
"N 	c #876D53",
"O 	c #8E7357",
"P 	c #9E8461",
"Q 	c #5E4438",
"R 	c #88684E",
"S 	c #795846",
"T 	c #775747",
"U 	c #80614B",
"V 	c #876A53",
"W 	c #5E483D",
"X 	c #7A6551",
"Y 	c #7E6E54",
"Z 	c #74644D",
"` 	c #685846",
" .	c #75634F",
"..	c #74634F",
"+.	c #72624E",
"@.	c #70604C",
"#.	c #80715D",
"$.	c #534035",
"%.	c #988563",
"&.	c #826E52",
"*.	c #786349",
"=.	c #725E44",
"-.	c #877254",
";.	c #9B8666",
">.	c #988569",
",.	c #7B6B58",
"'.	c #796A58",
").	c #847567",
"!.	c #746867",
"~.	c #6F5B51",
"{.	c #8A745B",
"].	c #89725A",
"^.	c #887159",
"/.	c #6C5849",
"(.	c #836A51",
"_.	c #927759",
":.	c #987E5F",
"<.	c #5F4539",
"[.	c #8B6B51",
"}.	c #80614D",
"|.	c #7A5E4C",
"1.	c #7A5B49",
"2.	c #7B5C4C",
"3.	c #83644E",
"4.	c #886B54",
"5.	c #614A3F",
"6.	c #645143",
"7.	c #786851",
"8.	c #72634D",
"9.	c #6E5E49",
"0.	c #6E5F49",
"a.	c #645443",
"b.	c #6D5C4B",
"c.	c #786651",
"d.	c #776551",
"e.	c #766450",
"f.	c #73624E",
"g.	c #72614D",
"h.	c #72614F",
"i.	c #837460",
"j.	c #4F3C34",
"k.	c #A18E68",
"l.	c #998664",
"m.	c #9A8765",
"n.	c #917E5D",
"o.	c #6E5B43",
"p.	c #8E785A",
"q.	c #8F7C63",
"r.	c #7B6A57",
"s.	c #7A6B59",
"t.	c #978778",
"u.	c #716564",
"v.	c #6A5851",
"w.	c #86715A",
"x.	c #87725A",
"y.	c #89745C",
"z.	c #8C765D",
"A.	c #635145",
"B.	c #957B5D",
"C.	c #967C60",
"D.	c #967D61",
"E.	c #624B3E",
"F.	c #7F624B",
"G.	c #96785E",
"H.	c #795E4E",
"I.	c #896C55",
"J.	c #634D41",
"K.	c #92807C",
"L.	c #8B7A76",
"M.	c #84736F",
"N.	c #83726E",
"O.	c #857470",
"P.	c #81716F",
"Q.	c #82716F",
"R.	c #81716E",
"S.	c #80706E",
"T.	c #5C4E64",
"U.	c #604C6E",
"V.	c #685770",
"W.	c #6E6170",
"X.	c #756875",
"Y.	c #837882",
"Z.	c #776B6F",
"`.	c #796763",
" +	c #786460",
".+	c #79645F",
"++	c #7D6663",
"@+	c #8A716D",
"#+	c #7E6863",
"$+	c #7A6460",
"%+	c #7B6560",
"&+	c #7B665F",
"*+	c #7F6B66",
"=+	c #806C68",
"-+	c #7D6964",
";+	c #7F6B65",
">+	c #7B6763",
",+	c #7B6662",
"'+	c #7A6661",
")+	c #796561",
"!+	c #75625D",
"~+	c #725F59",
"{+	c #715E58",
"]+	c #715F5A",
"^+	c #7B6765",
"/+	c #85706E",
"(+	c #917C79",
"_+	c #8B7875",
":+	c #897572",
"<+	c #85716F",
"[+	c #84706D",
"}+	c #8A7672",
"|+	c #806C66",
"1+	c #85706C",
"2+	c #917B78",
"3+	c #7F6A65",
"4+	c #826C65",
"5+	c #7D6863",
"6+	c #816B66",
"7+	c #7F6A66",
"8+	c #816D68",
"9+	c #806B67",
"0+	c #84706B",
"a+	c #947E7A",
"b+	c #BDABA2",
"c+	c #BAA89F",
"d+	c #B7A49C",
"e+	c #B5A29B",
"f+	c #B6A29B",
"g+	c #B8A59D",
"h+	c #BAA79F",
"i+	c #BBA9A0",
"j+	c #B4A19A",
"k+	c #927F89",
"l+	c #725A85",
"m+	c #816C8A",
"n+	c #A091AC",
"o+	c #A897B9",
"p+	c #BAADBF",
"q+	c #C5B5B8",
"r+	c #B29B95",
"s+	c #AF9792",
"t+	c #B09993",
"u+	c #B19A94",
"v+	c #B39C96",
"w+	c #B49D97",
"x+	c #B69F98",
"y+	c #B7A19A",
"z+	c #AF9892",
"A+	c #AE9791",
"B+	c #AE9691",
"C+	c #AE9792",
"D+	c #B59E97",
"E+	c #B9A39C",
"F+	c #BAA49D",
"G+	c #BCA69F",
"H+	c #BEA9A1",
"I+	c #C0ABA3",
"J+	c #BFAAA2",
"K+	c #BBA59E",
"L+	c #B59F98",
"M+	c #B6A099",
"N+	c #B8A29B",
"O+	c #B8A19A",
"P+	c #B9A39B",
"Q+	c #BCA69E",
"R+	c #BDA7A0",
"S+	c #BEA8A1",
"T+	c #D0C3B6",
"U+	c #CEBFB3",
"V+	c #CBBCB0",
"W+	c #CABAAF",
"X+	c #CDBEB2",
"Y+	c #CFC1B4",
"Z+	c #CEC0B3",
"`+	c #CBBBAF",
" @	c #BDACA7",
".@	c #775E8A",
"+@	c #8A7596",
"@@	c #9B84A3",
"#@	c #C8BACC",
"$@	c #C7B8BB",
"%@	c #C2AFA8",
"&@	c #C4B0A7",
"*@	c #C5B2A9",
"=@	c #C6B3AA",
"-@	c #C7B4AB",
";@	c #C7B5AB",
">@	c #C8B6AC",
",@	c #C9B7AE",
"'@	c #CBBAAF",
")@	c #CDBCB2",
"!@	c #CEBDB3",
"~@	c #CEBDB2",
"{@	c #CDBBB1",
"]@	c #CAB8AF",
"^@	c #C9B7AD",
"/@	c #C8B5AC",
"(@	c #C6B2A9",
"_@	c #CAB7AE",
":@	c #CBBAB0",
"<@	c #CCBBB0",
"[@	c #CFBFB4",
"}@	c #D2C2B7",
"|@	c #D3C4B8",
"1@	c #D2C3B7",
"2@	c #CDBDB2",
"3@	c #CFBEB3",
"4@	c #CEBEB3",
"5@	c #CFBEB4",
"6@	c #D0C1B6",
"7@	c #D1C2B6",
"8@	c #D1C2B7",
"9@	c #D8CDBF",
"0@	c #D7CDBF",
"a@	c #D7CCBE",
"b@	c #D6CBBD",
"c@	c #D8CEC0",
"d@	c #D5CABC",
"e@	c #D2C6B9",
"f@	c #8D7797",
"g@	c #A897A5",
"h@	c #D9CDD0",
"i@	c #D0C1BA",
"j@	c #D2C3B8",
"k@	c #D3C4B9",
"l@	c #D5C6BA",
"m@	c #D7C9BD",
"n@	c #D8CBBF",
"o@	c #D9CCBF",
"p@	c #D6C7BB",
"q@	c #D4C5B9",
"r@	c #D5C7BB",
"s@	c #D6C8BC",
"t@	c #D8CABE",
"u@	c #D9CCC0",
"v@	c #DACDC1",
"w@	c #DACCC0",
"x@	c #D9CBBF",
"y@	c #DAD0C2",
"z@	c #AE9DA6",
"A@	c #B7A8AC",
"B@	c #D7CABE",
"C@	c #DACEC1",
"D@	c #DACFC2",
"E@	c #DBCEC2",
"F@	c #C5B8B4",
"G@	c #C2B3B2",
"H@	c #DBD1C4",
"I@	c #DACEC2",
"J@	c #D4C9BE",
"K@	c #CCC0BA",
"L@	c #DACFC3",
"M@	c #DBCFC3",
"N@	c #DBCCC1",
"O@	c #DBCDC1",
"P@	c #DAD0C3",
"Q@	c #DBD1C3",
"R@	c #DBCDC2",
"S@	c #DACAC0",
"T@	c #DAC9C0",
"U@	c #DACBC1",
"V@	c #DACCC1",
"W@	c #D9CAC0",
"X@	c #DACDC2",
"Y@	c #DBD0C3",
"Z@	c #D9C9C0",
"`@	c #D9C8C0",
" #	c #DACAC1",
".#	c #DAD1C3",
"+#	c #DBD2C5",
"@#	c #DBD0C4",
"##	c #DACCC2",
"$#	c #DBCFC2",
"%#	c #DBCFC4",
"&#	c #DBD0C2",
"*#	c #DACEC3",
"=#	c #DBD1C5",
"-#	c #D9CAC1",
";#	c #D9C9C1",
">#	c #DBD2C4",
",#	c #DACBC2",
"'#	c #DACAC2",
")#	c #DACDC3",
"!#	c #DACBC0",
"~#	c #DAC9BF",
"{#	c #DBCBC1",
"]#	c #D5C5BB",
"^#	c #D6C7BC",
"/#	c #D8C9BE",
"(#	c #D8CCC0",
"_#	c #D7C9BE",
":#	c #D9CDC0",
"<#	c #D8CCBF",
"[#	c #D7CBBF",
"}#	c #D9CEC1",
"|#	c #D8CABF",
"1#	c #D8C8BD",
"2#	c #D9CABF",
"3#	c #DAC9C1",
"4#	c #DAC8BE",
"5#	c #D9C8BE",
"6#	c #D9C7BE",
"7#	c #D8C6BD",
"8#	c #D7C4BB",
"9#	c #CCB8B0",
"0#	c #CDBAB1",
"a#	c #CEBBB2",
"b#	c #CFBDB4",
"c#	c #D0BEB5",
"d#	c #CEBCB3",
"e#	c #CDBBB2",
"f#	c #CFBCB3",
"g#	c #D1C0B6",
"h#	c #D2C1B7",
"i#	c #D3C3B8",
"j#	c #D4C5BA",
"k#	c #D2C2B8",
"l#	c #CEBFB4",
"m#	c #CAB8B0",
"n#	c #CBB6AF",
"o#	c #CEB9B1",
"p#	c #CFBAB3",
"q#	c #CFBBB3",
"r#	c #D0BCB4",
"s#	c #D1BDB5",
"t#	c #D2BEB6",
"u#	c #D3BFB7",
"v#	c #D3BFB6",
"w#	c #D3BEB6",
"x#	c #D3C0B7",
"y#	c #D4C1B8",
"z#	c #D5C1B9",
"A#	c #D4C1B9",
"B#	c #D4C0B8",
"C#	c #D3BDB5",
"D#	c #D1B8B1",
"E#	c #CFB2AD",
"F#	c #CEB2AC",
"G#	c #CEB3AD",
"H#	c #B8A299",
"I#	c #B9A39A",
"J#	c #BAA49B",
"K#	c #BBA59C",
"L#	c #BCA69D",
"M#	c #BBA69D",
"N#	c #BAA59C",
"O#	c #BCA79E",
"P#	c #BDA89F",
"Q#	c #BDA79E",
"R#	c #BAA59B",
"S#	c #BEA89F",
"T#	c #B6A49A",
"U#	c #B3A197",
"V#	c #B2A095",
"W#	c #B29F95",
"X#	c #B3A096",
"Y#	c #B5A198",
"Z#	c #B6A198",
"`#	c #B7A199",
" $	c #BBA49D",
".$	c #BCA59E",
"+$	c #BEA7A0",
"@$	c #BFA9A1",
"#$	c #C0AAA2",
"$$	c #C1AAA3",
"%$	c #C0AAA3",
"&$	c #C1ABA4",
"*$	c #C3ACA5",
"=$	c #C4AEA7",
"-$	c #C5AFA8",
";$	c #C6B0A9",
">$	c #C6AFA8",
",$	c #C5ACA6",
"'$	c #C3A7A2",
")$	c #C1A09C",
"!$	c #C09D9A",
"~$	c #BF9C99",
"{$	c #BE9C98",
"]$	c #9D8478",
"^$	c #9B8275",
"/$	c #9A8274",
"($	c #9A8375",
"_$	c #9B8476",
":$	c #9A8475",
"<$	c #998374",
"[$	c #998375",
"}$	c #988274",
"|$	c #978172",
"1$	c #998273",
"2$	c #998274",
"3$	c #978272",
"4$	c #988373",
"5$	c #998372",
"6$	c #988372",
"7$	c #978271",
"8$	c #93806F",
"9$	c #948171",
"0$	c #917F6F",
"a$	c #8F7E6D",
"b$	c #928070",
"c$	c #928170",
"d$	c #8F7F6E",
"e$	c #8C7D6B",
"f$	c #887A67",
"g$	c #857763",
"h$	c #867763",
"i$	c #887966",
"j$	c #897A68",
"k$	c #8B7A69",
"l$	c #8C7A69",
"m$	c #8D7B6B",
"n$	c #8E7B6B",
"o$	c #907D6D",
"p$	c #998376",
"q$	c #997F77",
"r$	c #9F847D",
"s$	c #A68B84",
"t$	c #A98E87",
"u$	c #AB9088",
"v$	c #AB9089",
"w$	c #AC9189",
"x$	c #AC918A",
"y$	c #AC9089",
"z$	c #A98D86",
"A$	c #A78A83",
"B$	c #A58881",
"C$	c #A3867F",
"D$	c #A2847D",
"E$	c #A3857E",
"F$	c #A1837C",
"G$	c #9F817A",
"H$	c #9F817B",
"I$	c #9E817A",
"J$	c #A98B64",
"K$	c #9F8260",
"L$	c #917659",
"M$	c #897156",
"N$	c #866E54",
"O$	c #90765A",
"P$	c #967A5D",
"Q$	c #987C5E",
"R$	c #9E8060",
"S$	c #9E8061",
"T$	c #A18263",
"U$	c #A18364",
"V$	c #A38364",
"W$	c #93775B",
"X$	c #8E7459",
"Y$	c #876F55",
"Z$	c #836E55",
"`$	c #826E55",
" %	c #836F55",
".%	c #8A775B",
"+%	c #8F7C60",
"@%	c #89775C",
"#%	c #88765B",
"$%	c #87755A",
"%%	c #87745A",
"&%	c #817055",
"*%	c #7F6E51",
"=%	c #7E6B50",
"-%	c #7F6F51",
";%	c #968965",
">%	c #7E6A4A",
",%	c #7E6A49",
"'%	c #826D4C",
")%	c #7F6849",
"!%	c #806949",
"~%	c #826B4B",
"{%	c #866E4D",
"]%	c #BA9C63",
"^%	c #8D734D",
"/%	c #B19F6F",
"(%	c #A08660",
"_%	c #967A59",
":%	c #8D7256",
"<%	c #8B7056",
"[%	c #8D7257",
"}%	c #8A7056",
"|%	c #896F55",
"1%	c #876D54",
"2%	c #846C52",
"3%	c #846D51",
"4%	c #907B54",
"5%	c #745A48",
"6%	c #967958",
"7%	c #A1825D",
"8%	c #977856",
"9%	c #967756",
"0%	c #977857",
"a%	c #9B7D59",
"b%	c #A0815B",
"c%	c #A1825C",
"d%	c #937453",
"e%	c #8F7252",
"f%	c #80674B",
"g%	c #705A46",
"h%	c #755E48",
"i%	c #7A624A",
"j%	c #81664D",
"k%	c #8C6D51",
"l%	c #967557",
"m%	c #9D7A5A",
"n%	c #A3815F",
"o%	c #A68461",
"p%	c #AB8862",
"q%	c #A4835F",
"r%	c #A1805C",
"s%	c #A2815D",
"t%	c #9F7F5C",
"u%	c #927A5C",
"v%	c #8D775B",
"w%	c #877156",
"x%	c #836E54",
"y%	c #7C684E",
"z%	c #7C694F",
"A%	c #7B684D",
"B%	c #7A674C",
"C%	c #79664A",
"D%	c #7A6549",
"E%	c #786348",
"F%	c #7C684B",
"G%	c #897958",
"H%	c #735E41",
"I%	c #8D764E",
"J%	c #7B6141",
"K%	c #795E3F",
"L%	c #7A6040",
"M%	c #7F6847",
"N%	c #9E8254",
"O%	c #68503A",
"P%	c #7B6048",
"Q%	c #7A5F49",
"R%	c #7A5E48",
"S%	c #7E634B",
"T%	c #83684D",
"U%	c #886C50",
"V%	c #886D50",
"W%	c #886C51",
"X%	c #8C7054",
"Y%	c #A2895D",
"Z%	c #BCA765",
"`%	c #937B53",
" &	c #917351",
".&	c #725842",
"+&	c #B59165",
"@&	c #A17F5A",
"#&	c #907353",
"$&	c #917353",
"%&	c #947555",
"&&	c #977756",
"*&	c #927758",
"=&	c #917657",
"-&	c #907657",
";&	c #8F7558",
">&	c #947C5F",
",&	c #90775B",
"'&	c #81684E",
")&	c #86694E",
"!&	c #886A4E",
"~&	c #8E6E4F",
"{&	c #947151",
"]&	c #987554",
"^&	c #977554",
"/&	c #947355",
"(&	c #947356",
"_&	c #917357",
":&	c #8C7156",
"<&	c #806B52",
"[&	c #7E6A50",
"}&	c #79664B",
"|&	c #796449",
"1&	c #786347",
"2&	c #7D6949",
"3&	c #796446",
"4&	c #756044",
"5&	c #776345",
"6&	c #7A6544",
"7&	c #8D794B",
"8&	c #765B3D",
"9&	c #866B4A",
"0&	c #6A503C",
"a&	c #745945",
"b&	c #735845",
"c&	c #755A45",
"d&	c #7A5F48",
"e&	c #7C6149",
"f&	c #81664B",
"g&	c #85694E",
"h&	c #8D7351",
"i&	c #8A6F51",
"j&	c #A68D6A",
"k&	c #85684B",
"l&	c #806349",
"m&	c #826449",
"n&	c #9F7E59",
"o&	c #967956",
"p&	c #856A4E",
"q&	c #83684C",
"r&	c #937858",
"s&	c #8A6E51",
"t&	c #876D51",
"u&	c #876E52",
"v&	c #876A4E",
"w&	c #8F6E50",
"x&	c #8F6E51",
"y&	c #8F6F52",
"z&	c #907156",
"A&	c #907256",
"B&	c #8E7156",
"C&	c #897055",
"D&	c #7E6950",
"E&	c #79654A",
"F&	c #796447",
"G&	c #7A6444",
"H&	c #7B6645",
"I&	c #8C784D",
"J&	c #6F5939",
"K&	c #826641",
"L&	c #7D6140",
"M&	c #634936",
"N&	c #7E6145",
"O&	c #745844",
"P&	c #755844",
"Q&	c #775942",
"R&	c #7A5E47",
"S&	c #7D6249",
"T&	c #80654A",
"U&	c #83684B",
"V&	c #886D4E",
"W&	c #84674B",
"X&	c #8F7452",
"Y&	c #8E6E50",
"Z&	c #8F6F51",
"`&	c #9A7D58",
" *	c #735942",
".*	c #7D634B",
"+*	c #7C6146",
"@*	c #8A6E50",
"#*	c #866B4F",
"$*	c #866A4F",
"%*	c #866A4E",
"&*	c #A2825A",
"**	c #A9895D",
"=*	c #947352",
"-*	c #8C6C4F",
";*	c #8A6C4F",
">*	c #84694E",
",*	c #846B50",
"'*	c #7F6950",
")*	c #634F3F",
"!*	c #77644A",
"~*	c #856C4B",
"{*	c #8E714B",
"]*	c #6D5638",
"^*	c #786343",
"/*	c #776241",
"(*	c #866C40",
"_*	c #806541",
":*	c #7E6140",
"<*	c #664C38",
"[*	c #7B5E44",
"}*	c #765943",
"|*	c #785B43",
"1*	c #7C5F47",
"2*	c #7D6248",
"3*	c #7C6247",
"4*	c #7B6146",
"5*	c #795F46",
"6*	c #785F46",
"7*	c #83664B",
"8*	c #957B57",
"9*	c #87694C",
"0*	c #957755",
"a*	c #977956",
"b*	c #9B7D5A",
"c*	c #7E6349",
"d*	c #412D2B",
"e*	c #45322E",
"f*	c #4D3931",
"g*	c #4A3630",
"h*	c #4E3A32",
"i*	c #4E3931",
"j*	c #503B32",
"k*	c #4F3A32",
"l*	c #4F3B32",
"m*	c #503B33",
"n*	c #523D34",
"o*	c #523C33",
"p*	c #543E34",
"q*	c #554035",
"r*	c #543F35",
"s*	c #4E3B33",
"t*	c #4C3932",
"u*	c #4F3B33",
"v*	c #4A3832",
"w*	c #3E2C2D",
"x*	c #483731",
"y*	c #4A3932",
"z*	c #4C3B33",
"A*	c #4D3B32",
"B*	c #47352F",
"C*	c #49372F",
"D*	c #3F2E2D",
"E*	c #483730",
"F*	c #4A3831",
"G*	c #4B3931",
"H*	c #4A3830",
"I*	c #493830",
"J*	c #4B3A31",
"K*	c #45332E",
"L*	c #5F4A34",
"M*	c #533F32",
"N*	c #543F32",
"O*	c #564033",
"P*	c #513C31",
"Q*	c #3A292B",
"R*	c #422F2E",
"S*	c #412E2D",
"T*	c #46322F",
"U*	c #503C34",
"V*	c #564036",
"W*	c #543F36",
"X*	c #533E36",
"Y*	c #4F3B34",
"Z*	c #4F3B35",
"`*	c #4E3A35",
" =	c #513D36",
".=	c #533D36",
"+=	c #5E463A",
"@=	c #563F36",
"#=	c #5E4739",
"$=	c #644D3C",
"%=	c #634C3C",
"&=	c #634D3C",
"*=	c #3F2C2B",
"==	c #45312C",
"-=	c #4B362D",
";=	c #432F2C",
">=	c #402D2B",
",=	c #412E2B",
"'=	c #43302D",
")=	c #4B3730",
"!=	c #48342E",
"~=	c #47332E",
"{=	c #42302D",
"]=	c #422F2D",
"^=	c #412F2D",
"/=	c #3C2B2C",
"(=	c #48352F",
"_=	c #44312D",
":=	c #402E2D",
"<=	c #3F2D2C",
"[=	c #473430",
"}=	c #44312F",
"|=	c #3F2C2D",
"1=	c #402D2D",
"2=	c #44312E",
"3=	c #45312E",
"4=	c #43302E",
"5=	c #432F2E",
"6=	c #44302E",
"7=	c #392829",
"8=	c #49342D",
"9=	c #574133",
"0=	c #6C5640",
"a=	c #5A4635",
"b=	c #554032",
"c=	c #543F31",
"d=	c #564232",
"e=	c #4E3A30",
"f=	c #46322C",
"g=	c #786247",
"h=	c #5C4939",
"i=	c #5B4838",
"j=	c #594637",
"k=	c #584536",
"l=	c #574436",
"m=	c #533F33",
"n=	c #6B5641",
"o=	c #654F3B",
"p=	c #614B39",
"q=	c #5F4938",
"r=	c #5C4736",
"s=	c #5F4A38",
"t=	c #533E32",
"u=	c #503C31",
"v=	c #554033",
"w=	c #4C3830",
"x=	c #523E33",
"y=	c #544034",
"z=	c #533E33",
"A=	c #544033",
"B=	c #604D3F",
"C=	c #746252",
"D=	c #5B453A",
"E=	c #7A6246",
"F=	c #69543D",
"G=	c #4F3A31",
"H=	c #574134",
"I=	c #513C32",
"J=	c #594336",
"K=	c #422E2E",
"L=	c #806C53",
"M=	c #75624E",
"N=	c #543F34",
"O=	c #533E34",
"P=	c #574135",
"Q=	c #594437",
"R=	c #564135",
"S=	c #5D4839",
"T=	c #624939",
"U=	c #A0825D",
"V=	c #766147",
"W=	c #6A5841",
"X=	c #68553F",
"Y=	c #6B5942",
"Z=	c #7C6A54",
"`=	c #766345",
" -	c #624B34",
".-	c #9B8158",
"+-	c #847053",
"@-	c #74624B",
"#-	c #716049",
"$-	c #705F48",
"%-	c #705E48",
"&-	c #705F49",
"*-	c #715F49",
"=-	c #71604A",
"--	c #6E5D47",
";-	c #5E4C3C",
">-	c #907C5C",
",-	c #806B50",
"'-	c #7D674D",
")-	c #7B654C",
"!-	c #78634A",
"~-	c #816B4F",
"{-	c #6E573F",
"]-	c #654E3A",
"^-	c #67503A",
"/-	c #664F3A",
"(-	c #766247",
"_-	c #695744",
":-	c #6A5845",
"<-	c #695644",
"[-	c #655341",
"}-	c #635140",
"|-	c #715F4B",
"1-	c #A59375",
"2-	c #82715E",
"3-	c #654E42",
"4-	c #6C5547",
"5-	c #6A5243",
"6-	c #634C3E",
"7-	c #604A3C",
"8-	c #5D483B",
"9-	c #9E805A",
"0-	c #80694C",
"a-	c #624A37",
"b-	c #725A42",
"c-	c #4D3831",
"d-	c #927857",
"e-	c #78614B",
"f-	c #695342",
"g-	c #675140",
"h-	c #654F3E",
"i-	c #705944",
"j-	c #725B45",
"k-	c #7A6249",
"l-	c #564236",
"m-	c #7C634A",
"n-	c #977E5C",
"o-	c #756249",
"p-	c #746148",
"q-	c #715F46",
"r-	c #705E45",
"s-	c #A49267",
"t-	c #5A4331",
"u-	c #A0865B",
"v-	c #826D52",
"w-	c #7B6951",
"x-	c #78674F",
"y-	c #7A6951",
"z-	c #7A6A51",
"A-	c #7B6A52",
"B-	c #635443",
"C-	c #917D5F",
"D-	c #8A7559",
"E-	c #867154",
"F-	c #826C50",
"G-	c #866F51",
"H-	c #826A4C",
"I-	c #6C533C",
"J-	c #6E563D",
"K-	c #70573E",
"L-	c #634C38",
"M-	c #A79163",
"N-	c #73614A",
"O-	c #74624A",
"P-	c #725F49",
"Q-	c #6C5946",
"R-	c #6F5D49",
"S-	c #A39174",
"T-	c #918069",
"U-	c #81715F",
"V-	c #685144",
"W-	c #6F584A",
"X-	c #6C5446",
"Y-	c #6A5242",
"Z-	c #896D4E",
"`-	c #937554",
" ;	c #987D5B",
".;	c #795F43",
"+;	c #846A4B",
"@;	c #563F33",
"#;	c #A2855D",
"$;	c #7D654E",
"%;	c #715B47",
"&;	c #6B5644",
"*;	c #695240",
"=;	c #755D47",
"-;	c #7B634B",
";;	c #80674C",
">;	c #5C4638",
",;	c #765D47",
"';	c #7E694E",
");	c #76634A",
"!;	c #746249",
"~;	c #7A674E",
"{;	c #8F7C5C",
"];	c #96855D",
"^;	c #98805A",
"/;	c #806C52",
"(;	c #7A6850",
"_;	c #796850",
":;	c #7C6C53",
"<;	c #7C6B53",
"[;	c #5E4F3F",
"};	c #8D785C",
"|;	c #8B765A",
"1;	c #836C50",
"2;	c #8F7756",
"3;	c #896F4F",
"4;	c #71583F",
"5;	c #755C41",
"6;	c #785E42",
"7;	c #9E885C",
"8;	c #77644B",
"9;	c #76634B",
"0;	c #72604B",
"a;	c #98866C",
"b;	c #92806A",
"c;	c #8B7964",
"d;	c #7E6E5C",
"e;	c #604B42",
"f;	c #6D5648",
"g;	c #705949",
"h;	c #947755",
"i;	c #947856",
"j;	c #947A56",
"k;	c #5C4435",
"l;	c #A5885F",
"m;	c #79624C",
"n;	c #6A5442",
"o;	c #6F5743",
"p;	c #81684D",
"q;	c #5B4537",
"r;	c #725A47",
"s;	c #7E694F",
"t;	c #79664C",
"u;	c #7B684E",
"v;	c #7A674D",
"w;	c #816C51",
"x;	c #8F7B5B",
"y;	c #866F50",
"z;	c #7F6B51",
"A;	c #7B694F",
"B;	c #5C4D3E",
"C;	c #897458",
"D;	c #856F53",
"E;	c #856E51",
"F;	c #937955",
"G;	c #775D42",
"H;	c #9D875F",
"I;	c #9F875C",
"J;	c #897352",
"K;	c #74624C",
"L;	c #8E7D65",
"M;	c #8B7A65",
"N;	c #8B7A63",
"O;	c #A5906B",
"P;	c #5D4840",
"Q;	c #6D5647",
"R;	c #846B52",
"S;	c #82684E",
"T;	c #84694F",
"U;	c #967A56",
"V;	c #624836",
"W;	c #987B56",
"X;	c #755E4A",
"Y;	c #675240",
"Z;	c #725A44",
"`;	c #745C46",
" >	c #786049",
".>	c #81674C",
"+>	c #5C4639",
"@>	c #735B49",
"#>	c #7D6C52",
"$>	c #7E6D53",
"%>	c #79664D",
"&>	c #816D52",
"*>	c #806C51",
"=>	c #7F6F54",
"->	c #847356",
";>	c #574839",
">>	c #877255",
",>	c #836D51",
"'>	c #7F694D",
")>	c #887152",
"!>	c #897252",
"~>	c #846C4C",
"{>	c #A28D64",
"]>	c #A39068",
"^>	c #877253",
"/>	c #8E7E67",
"(>	c #907F68",
"_>	c #8D7A63",
":>	c #A8926D",
"<>	c #857261",
"[>	c #5C4740",
"}>	c #7A624D",
"|>	c #856B51",
"1>	c #81674E",
"2>	c #82674E",
"3>	c #8F7353",
"4>	c #644A38",
"5>	c #8E7050",
"6>	c #755B47",
"7>	c #6E5946",
"8>	c #685240",
"9>	c #785E48",
"0>	c #735943",
"a>	c #745B45",
"b>	c #7D644B",
"c>	c #5E483A",
"d>	c #6D5544",
"e>	c #7D6A50",
"f>	c #786750",
"g>	c #907F5C",
"h>	c #917F5E",
"i>	c #564637",
"j>	c #826D50",
"k>	c #806A4E",
"l>	c #7D674B",
"m>	c #7C664A",
"n>	c #8F7958",
"o>	c #A18D67",
"p>	c #836F52",
"q>	c #675941",
"r>	c #968A6C",
"s>	c #93846D",
"t>	c #8C7B66",
"u>	c #877661",
"v>	c #887661",
"w>	c #7F6D5C",
"x>	c #7B695B",
"y>	c #715A4A",
"z>	c #80674E",
"A>	c #896D51",
"B>	c #927657",
"C>	c #634A37",
"D>	c #8D6F4F",
"E>	c #6F5845",
"F>	c #6B5442",
"G>	c #735743",
"H>	c #725742",
"I>	c #6F533F",
"J>	c #765C45",
"K>	c #5D4739",
"L>	c #6D5543",
"M>	c #7E6C52",
"N>	c #7A664D",
"O>	c #79654D",
"P>	c #7A664E",
"Q>	c #7B684F",
"R>	c #79674F",
"S>	c #77674F",
"T>	c #9E8E68",
"U>	c #4F3F33",
"V>	c #7C674A",
"W>	c #7B6649",
"X>	c #857051",
"Y>	c #897354",
"Z>	c #958160",
"`>	c #988362",
" ,	c #695A42",
".,	c #9B906C",
"+,	c #988A71",
"@,	c #8E7D67",
"#,	c #867561",
"$,	c #816F5D",
"%,	c #7E6C5B",
"&,	c #7B6959",
"*,	c #7A6A5B",
"=,	c #5F4941",
"-,	c #6E5749",
";,	c #7B624D",
">,	c #7F664E",
",,	c #7F654E",
"',	c #927656",
"),	c #624937",
"!,	c #8A6B4C",
"~,	c #785B47",
"{,	c #715845",
"],	c #6E5543",
"^,	c #6D4F3D",
"/,	c #6C4E3C",
"(,	c #70533F",
"_,	c #594337",
":,	c #715945",
"<,	c #78664D",
"[,	c #7A694F",
"},	c #7B674E",
"|,	c #78634C",
"1,	c #76644D",
"2,	c #74644E",
"3,	c #72624D",
"4,	c #847259",
"5,	c #64523E",
"6,	c #695641",
"7,	c #7D684B",
"8,	c #786446",
"9,	c #796547",
"0,	c #7F6C4E",
"a,	c #8A7556",
"b,	c #907B5C",
"c,	c #9E8A68",
"d,	c #867255",
"e,	c #736248",
"f,	c #8B805F",
"g,	c #9A8F6C",
"h,	c #8F806A",
"i,	c #82715F",
"j,	c #7A6858",
"k,	c #786656",
"l,	c #766454",
"m,	c #736356",
"n,	c #624C43",
"o,	c #735A4C",
"p,	c #7D644E",
"q,	c #876C50",
"r,	c #8C6F51",
"s,	c #947756",
"t,	c #5F4735",
"u,	c #8B6B4D",
"v,	c #7A5B47",
"w,	c #6D513E",
"x,	c #6F4F3C",
"y,	c #574035",
"z,	c #6C5540",
"A,	c #75644C",
"B,	c #7C6B51",
"C,	c #78644C",
"D,	c #76624C",
"E,	c #74634D",
"F,	c #74634E",
"G,	c #70604B",
"H,	c #7E6C55",
"I,	c #6F5A42",
"J,	c #8F7754",
"K,	c #735F45",
"L,	c #746044",
"M,	c #756347",
"N,	c #8B7757",
"O,	c #9B8665",
"P,	c #A28D6B",
"Q,	c #8B7759",
"R,	c #75674C",
"S,	c #9E916C",
"T,	c #70624B",
"U,	c #887864",
"V,	c #6F5E53",
"W,	c #655044",
"X,	c #795F4E",
"Y,	c #7E654E",
"Z,	c #81674F",
"`,	c #82684F",
" '	c #8B6F51",
".'	c #604735",
"+'	c #8B6C4E",
"@'	c #755743",
"#'	c #70523F",
"$'	c #6D4E3C",
"%'	c #704E39",
"&'	c #584136",
"*'	c #6D5641",
"='	c #75634B",
"-'	c #73624A",
";'	c #77654C",
">'	c #7C6A51",
",'	c #79654C",
"''	c #75614A",
")'	c #74614C",
"!'	c #73614C",
"~'	c #72614C",
"{'	c #71614C",
"]'	c #70614B",
"^'	c #7D6C56",
"/'	c #685440",
"('	c #8D7452",
"_'	c #8E7553",
":'	c #796347",
"<'	c #715E43",
"['	c #7C6848",
"}'	c #7F6E4D",
"|'	c #917D5D",
"1'	c #8F7B5D",
"2'	c #928263",
"3'	c #806E57",
"4'	c #8A7B5F",
"5'	c #816F5E",
"6'	c #7D6B5B",
"7'	c #786757",
"8'	c #6D5D52",
"9'	c #665144",
"0'	c #7E644E",
"a'	c #826850",
"b'	c #826950",
"c'	c #AD9267",
"d'	c #614735",
"e'	c #8C6C4E",
"f'	c #7B5C47",
"g'	c #765844",
"h'	c #715341",
"i'	c #6D4E3B",
"j'	c #714E39",
"k'	c #5A4236",
"l'	c #6E5743",
"m'	c #75644B",
"n'	c #76654C",
"o'	c #816E56",
"p'	c #90806A",
"q'	c #705F4B",
"r'	c #70614C",
"s'	c #7C6B55",
"t'	c #65523E",
"u'	c #8D7555",
"v'	c #856E50",
"w'	c #836B4C",
"x'	c #86724D",
"y'	c #726043",
"z'	c #9A8665",
"A'	c #8D795B",
"B'	c #907E62",
"C'	c #7F6D56",
"D'	c #806F5B",
"E'	c #756353",
"F'	c #6E5E54",
"G'	c #655043",
"H'	c #816850",
"I'	c #C7AD79",
"J'	c #624735",
"K'	c #8D6D4E",
"L'	c #785945",
"M'	c #725442",
"N'	c #5A4136",
"  . + + + @ # $ % & * = = = = - = = ; > , ' ) ! ~ { { ] ^ / ( ( _ : < [ } } | 1 1 1 1 2 3 4 4 4 4 5 6 7 8 9 0 a b b c d e f g h ",
"i j + + + k l m $ * * = = = n o = = p q , r s t u v w x y z A _ B C D E } } F 1 1 1 G H I J K 4 L M 6 N O P Q R b b S T e U V W ",
"X Y Z + + `  .# $  ...+.+.* * * - @.#.> , r $.%.&.{ *.=.-.z / / ;.>.E E ,.} '.1 1 1 ).!.~.{.].^.]./.(.8 _.:.<.[.}.|.1.2.3.4.4.5.",
"6.7.8.9.0.a.b.c.d.e.f.g.n n h.* * * i.> p ; j.k.l.m.n.o.p.;./ / / q.E E r.} } } s.| t.u.v.w.x.y.z.A.8 B.C.D.E.F.G.|.|.H.I.4.4.J.",
"K.L.M.N.N.O.P.Q.R.S.S.T.U.V.W.X.Y.Z.`. +.+++@+#+$+%+&+*+=+-+;+>+,+'+)+)+)+!+~+{+~+]+^+/+(+_+:+<+[+}+|+.+ +1+2+3+4+5+6+7+8+9+0+a+",
"b+c+d+e+f+g+h+i+i+c+j+k+l+m+n+o+p+q+r+s+t+r+r+u+u+v+w+x+y+y+x+w+r+t+z+s+A+B+B+C+t+v+D+y+E+F+G+H+I+J+K+L+M+N+F+F+N+M+O+P+F+Q+R+S+",
"T+U+V+W+V+X+Y+T+T+Z+`+ @.@+@@@#@$@%@&@*@=@-@-@;@>@,@'@)@!@~@{@]@^@>@/@-@=@(@*@*@=@/@_@:@<@)@[@}@|@1@[@2@)@~@3@[@4@4@5@[@6@7@8@}@",
"9@0@a@b@a@a@a@a@c@9@d@e@f@g@h@i@j@j@|@|@|@k@k@|@k@l@m@n@o@n@m@m@p@l@q@q@q@q@k@k@q@l@r@s@m@t@n@u@v@w@x@t@t@t@x@u@n@n@x@u@u@u@u@w@",
"y@y@y@y@y@y@y@y@y@y@y@c@z@A@B@C@D@u@x@x@n@x@u@u@v@C@D@D@D@E@E@E@v@v@w@u@u@x@n@n@u@v@v@v@E@E@E@E@E@E@E@E@E@E@E@E@E@E@E@E@E@E@E@E@",
"y@y@y@y@y@y@y@y@y@y@y@y@F@G@H@H@H@I@v@v@E@E@E@E@D@D@D@D@D@E@E@E@E@E@E@E@E@E@E@E@E@E@E@E@E@E@E@E@E@E@E@E@E@E@E@E@E@E@E@E@E@E@E@E@",
"y@y@y@y@y@y@y@y@y@y@y@y@J@K@H@H@H@D@E@E@E@E@E@D@D@D@D@D@E@E@D@D@D@D@E@E@E@E@E@E@E@E@E@E@E@E@E@E@E@E@E@E@E@E@E@E@E@E@E@E@E@E@E@E@",
"y@y@y@y@y@y@y@y@y@y@y@y@y@L@H@H@H@M@E@E@N@O@D@D@D@D@D@D@E@D@D@D@D@D@D@E@E@E@E@E@E@E@E@E@E@E@E@E@E@E@E@E@E@E@E@E@E@E@E@E@E@E@E@E@",
"y@y@y@y@y@y@y@y@y@y@y@P@y@Q@H@H@H@E@R@S@T@U@D@D@D@D@D@D@D@E@D@D@D@D@D@D@E@E@E@E@E@E@E@E@E@E@E@E@E@E@E@E@E@E@E@E@E@E@E@E@E@E@E@E@",
"y@y@y@y@y@y@y@y@y@y@Q@y@P@H@H@H@H@R@T@T@T@E@D@D@D@D@D@D@D@D@D@D@D@D@D@D@D@E@E@E@E@E@E@E@E@E@E@E@E@E@E@E@E@E@E@E@E@E@E@E@E@E@E@E@",
"y@y@y@y@y@y@y@y@y@Q@H@Q@H@H@H@H@H@V@T@T@S@D@D@D@D@D@D@D@D@D@D@D@D@D@D@D@D@D@E@E@E@E@E@E@E@E@E@E@E@E@E@E@E@E@E@E@E@E@E@E@E@E@E@E@",
"y@y@y@y@y@y@y@y@H@H@H@H@H@H@H@H@E@T@T@T@N@D@D@D@D@D@D@D@D@D@D@D@D@D@D@D@D@D@D@E@E@E@E@E@E@E@E@E@E@E@E@E@E@E@E@E@E@E@E@E@E@E@E@E@",
"y@y@y@y@y@y@y@v@W@U@X@Y@H@H@H@M@T@T@T@S@E@D@D@D@D@D@D@D@D@D@D@D@D@D@D@D@D@D@D@D@E@E@E@E@E@E@E@E@E@E@E@E@E@E@E@E@E@v@V@V@V@V@R@E@",
"y@y@y@y@y@y@y@Z@`@`@`@`@Z@U@E@ #T@T@T@T@U@D@D@D@D@D@D@D@D@D@D@D@D@D@D@D@D@D@D@D@D@E@E@E@E@E@E@E@E@E@E@E@E@E@E@E@E@E@E@R@V@V@V@E@",
"H@H@P@y@y@.#V@`@`@`@`@`@`@`@T@T@T@T@T@T@O@D@D@D@D@D@D@D@D@D@D@D@D@D@D@D@D@D@D@D@D@E@E@E@E@E@E@E@C@E@E@E@E@E@E@E@E@E@R@v@V@V@V@V@",
"I@+#H@.#.#@#`@`@`@`@`@`@T@T@T@T@T@T@S@N@E@E@D@D@D@D@D@D@D@D@D@D@D@D@D@D@D@D@D@D@E@E@E@E@E@E@E@E@C@C@C@C@E@E@E@E@E@E@v@V@V@V@V@V@",
"U@@#+#+#+###`@`@`@`@`@`@T@`@T@T@T@ #R@E@E@E@D@D@D@D@D@D@D@D@D@D@D@D@D@D@D@D@D@E@E@E@E@E@E@E@C@C@C@C@C@C@E@E@E@E@E@E@R@V@V@V@V@V@",
"U@##+#+#@#`@`@`@`@`@T@T@`@`@`@S@R@E@E@E@E@E@D@D@D@D@D@D@D@D@D@D@D@D@D@D@D@D@D@$#E@E@E@E@E@C@C@C@C@C@C@C@C@C@E@E@E@E@V@V@V@V@V@V@",
"U@U@%#+#U@`@`@`@`@`@`@`@`@`@U@$#Q@&#E@E@E@D@D@D@D@D@D@D@D@D@D@D@D@D@D@D@D@D@D@E@E@E@E@E@E@C@C@C@C@C@C@C@C@C@E@E@E@E@E@E@E@V@V@V@",
"U@U@*#=###-#-#-#;#Z@Z@Z@Z@X@Q@Q@Q@Q@Q@Y@D@D@D@D@D@D@D@D@D@D@D@D@D@D@D@D@D@D@D@E@E@E@E@E@E@C@C@C@C@C@C@C@C@C@E@E@E@E@E@E@E@R@V@V@",
"U@V@=#+#+#+#+#+#+#+#+#+#+#>#Q@Q@Q@Q@Q@Q@Q@Y@D@D@D@D@D@D@D@D@D@D@D@D@D@D@D@D@D@E@E@E@E@E@E@C@C@C@C@C@C@C@C@C@E@E@E@C@C@C@C@E@R@V@",
"U@@#+#+#+#+#+#+#+#+#+#+#>#H@Q@Q@Q@Q@Q@Q@Q@Q@y@D@D@D@D@D@D@D@D@D@D@D@D@D@D@D@D@E@E@E@E@E@C@C@C@C@C@C@C@C@C@C@C@E@E@C@C@C@v@v@R@V@",
"*#+#+#+#+#+#+#+#+#+#+#>#>#Q@Q@Q@Q@Q@Q@Q@Q@Q@D@D@D@D@D@D@D@D@D@D@D@D@D@D@D@D@D@E@E@E@E@E@C@C@C@C@C@C@C@C@C@C@E@C@C@C@C@C@v@V@v@R@",
"+#+#+#+#+#+#+#+#>#+#+#H@H@Q@Q@Q@Q@Q@Q@Q@Y@Y@D@D@D@D@D@D@D@D@D@D@D@D@D@D@D@D@D@D@E@E@E@C@C@C@C@C@C@C@C@C@C@C@C@C@C@C@C@v@V@V@R@M@",
"+#+#+#+#+#+#+#>#H@Q@H@Q@Q@Q@Q@Q@Q@Q@Q@y@D@D@D@D@D@D@D@D@D@D@D@D@D@D@D@D@D@D@D@E@E@E@E@C@C@C@C@C@C@C@C@C@C@C@C@C@C@C@C@V@V@V@E@=#",
"+#+#+#+#+#+#+#H@Q@Q@Q@Q@Q@Q@Q@Q@Q@Q@Q@D@D@D@D@D@D@D@D@D@D@D@D@D@D@D@D@D@D@D@D@E@E@E@E@v@C@C@C@C@C@C@C@C@C@C@C@C@C@C@v@V@V@v@@#=#",
"+#H@+#+#+#+#+#>#H@Q@Q@Q@Q@Q@Q@Q@Q@Y@D@D@D@D@D@D@D@D@D@D@D@D@D@D@D@D@D@D@D@D@E@E@E@E@E@C@C@C@C@C@C@C@C@C@C@C@C@C@C@v@V@v@E@@#=#=#",
"Q@Q@H@+#+#+#+#+#+#>#H@Q@Q@Q@Q@Q@Q@y@D@D@D@D@D@D@D@D@D@D@D@D@D@D@D@D@D@D@D@D@E@E@E@E@E@V@v@V@v@C@C@C@C@C@C@C@C@v@V@V@V@E@@#=#=#=#",
"Q@Q@+#+#+#+#+#+#>#Q@H@Q@Q@Q@Q@Q@Y@D@D@D@D@D@D@D@D@D@D@D@D@D@D@D@D@D@D@D@D@D@E@E@E@E@E@V@V@V@V@V@V@v@C@C@C@C@V@V@V@V@U@V@=#=#=#=#",
"Q@Q@>#+#+#+#+#H@Q@Q@H@Q@Q@Q@Q@Y@D@D@D@D@D@D@D@D@D@D@D@D@D@D@D@D@D@D@D@D@D@D@E@E@E@E@E@V@V@V@V@V@V@V@V@v@v@V@V@V@,#'#,#U@)#=#=#=#",
"Q@Q@>#+#+#+#+#Q@Q@Q@Q@Q@Q@Q@y@D@D@D@D@D@D@D@D@D@D@D@D@D@D@D@D@D@D@D@D@D@D@D@E@E@E@E@R@V@V@V@V@V@V@V@V@V@'#'#'#'#'#'#'#'#'#@#=#=#",
"Q@Q@>#+#+#>#Q@Q@Q@Q@Q@Q@Q@y@D@D@D@D@D@D@D@D@D@D@D@D@D@D@D@D@D@D@D@D@D@D@D@D@E@E@E@E@R@V@V@V@V@V@V@V@V@U@'#'#'#'#'#'#'#,#V@,#@#=#",
"Q@Q@H@+#>#Q@Q@Q@Q@Q@Q@Q@Y@D@D@D@D@D@D@D@D@D@D@D@D@D@D@D@D@D@D@D@D@D@D@D@D@D@E@E@E@E@R@V@V@V@V@V@,#'#'#'#'#'#'#'#'#'#'#S@!#U@V@@#",
"Y@Q@Q@Q@Q@Q@Q@Q@Q@Q@Y@D@D@D@D@D@D@D@D@D@D@D@D@D@D@D@D@D@D@D@D@D@D@D@D@D@D@D@E@E@E@E@R@V@V@V@V@V@'#'#'#'#'#'#'#'#'#'#T@~#~#S@~#!#",
"{#$#Q@Q@Q@Q@Q@Q@Q@Y@D@D@D@D@D@D@D@D@D@D@D@D@D@D@D@D@D@D@D@D@D@D@D@D@D@D@D@D@E@E@E@E@E@V@V@V@V@'#'#'#'#'#'#'#'#'#'# #~#~#~#~#~#~#",
"{#{#E@Q@Q@Q@Q@Q@Q@y@D@D@D@D@D@D@D@D@D@D@D@D@D@D@D@D@D@D@D@D@D@D@D@D@D@D@D@D@E@E@E@E@R@V@V@,#'#'#'#'#'#'#'#'#'#'#T@~#~#~#~#~#~#~#",
"{#{#{#D@Y@Q@Y@D@y@D@D@D@D@D@D@D@D@D@D@D@D@D@D@D@D@D@D@D@D@D@D@D@D@D@D@D@D@D@E@E@E@E@R@V@,#'#'#'#'#'#'#'#'# # #T@~#~#~#~#~#~#~#~#",
"]#]#^#/#n@(#n@B@_#:#(#(#(#<#n@n@n@B@B@[#n@[#(#:#(#(#(#(#:#}#D@D@D@}#n@(#|#/#/#1#1#/#2#W@,#'# #3#T@3#T@ #~#4#4#4#5#6#6#6#5#4#7#8#",
"_@9#0#a#b#c#c#d#e#b#b#f#b#d#d#d#d#f#f#d#a#a#d#f#b#c#c#g#h#i#j#k#l#:@]@m#9#n#9#o#p#q#r#s#t#u#u#v#w#u#x#y#z#A#y#y#x#B#y#C#D#E#F#G#",
"H#I#J#K#L#L#L#M#N#M#O#P#P#Q#L#M#L#M#R#J#K#K#J#N#M#L#P#S#P#M#T#U#V#W#W#X#Y#Z#`#P+ $.$+$@$#$$$$$%$%$&$*$=$-$;$>$-$,$'$)$!$!$~${$~$",
"]$^$/$($($_$:$<$:$[$}$|$|$1$2$<$|$3$4$5$6$7$8$9$0$a$b$c$d$e$f$g$h$i$f$j$k$l$m$n$o$3$p$q$r$s$t$u$v$w$x$y$z$A$B$C$D$D$E$F$G$G$H$I$",
"J$K$L$M$N$M$O$P$Q$R$S$T$U$V$S$W$X$Y$Z$`$ % %.%+%+%@%#%$%%%&%*%=%-%;%>%,%'%)%!%~%{%]%^%/%(%_%:%<%[%}%|%1%2%3%4%5%6%7%8%9%0%a%b%c%",
"d%e%f%g%g%g%g%h%i%j%k%l%m%n%o%p%q%r%s%t%u%v%w%x%y%z%A%A%B%C%D%E%F%G%H%H%I%J%K%L%M%N%O%P%Q%R%S%T%U%V%W%X%Y%Z%`% &.&+&@&#&$&%&9%&&",
"*&=&-&;&>&,&'&)&!&~&{&]&^&/&(&_&_&:&Y$N$<&<&<&[&B%}&|&1&1&2&3&4&H%5&H%6&7&8&K%K%L%9&0&a&b&b&c&d&e&f&f&g&h&i&j&k&l&m&n&#&o&p&q&r&",
"s&t&u&u&u&u&t&v&v&v&!&w&x&y&z&A&B&C&Y$Y$<&<&D&E&1&1&1&F&G&H&H%H%H%H%H%I&J&K&K%K%L&M&N&b&O&P&Q&R&d&S&f&T&U&V&W&X&W&l&Y&Z&o&`& *.*",
"+*@*#*#*$*%*%*%*v&v&&***=*-*;*v&>*>*>*,*'*)*!*E%1&1&~*{*]*^*H%H%H%H%H%/*(*_*K%K%:*<*[*}*Q&Q&|*1*2*3*4*4*5*6*7*8*W&9*Y&Y&0*a*b*c*",
"d*e*f*g*h*i*i*i*j*k*l*m*n*o*p*q*r*s*t*u*v*w*x*y*z*A*B*C*D*E*F*G*H*I*J*K*L*M*N*O*P*Q*R*R*S*T*U*V*W*r*W*X*Y*Z*`*`* =.=+=@=#=$=%=&=",
"*=*===-=;=*=>=,=*=*=*='=)=!=~=~=e*{=]=S*^=S*/=~=(=!=e*_='={=^=^=]='=:=:=^=^=]=]='=_=<=Q*[=}=|=|=|=|=|=|=|=1=|=2=3=4=4=4=5=]=6=7=",
"8=9=0=a=b=c=d=c=e=f=*=9=g=h=i=i=i=j=k=k=l=m=_=n=o=p=q=r=s=t=u=v=N*N*w=x=m=y=y=z=y=A=B=C=D=E=F=k*k*G=H=I=G=J=K=L=M=N=O=P=Q=R=S='=",
"T=U=V=W=X=X=Y=Z=`= -f=.-+-@-#-$-%-&-*-#-=---;->-,-'-)-!-~-{-]-^-]-/-9=(-_-:-<-[-}-|-1-2-3-4-5-6-7-8-9-0-a-b-c-d-e-f-g-h-i-j-k-l-",
"m-n-o-p-q-q-q-r-p-s-t-u-v-w-x-x-x-x-y-z-A-A-B-C-D-E-F-F-G-H-I-J-K-K-L-M-N-O-P-Q-R-S-T-U-V-W-4-X-Y-Z-`- ;.;+;@;#;$;%;&;*;=;-;;;>;",
",;';););o-!;););~;{;];^;v-/;(;_;_;_;z-:;:;<;[;};|;E-F-F-1;2;3;4;5;6;K-7;8;9;*-0;a;b;c;d;e;W-f;4-g;h;s&s&i;j;k;l;m;%;n;o;=;i%p;q;",
"r;s;t;u;v;););u;w;v-x;y;v-z;z%A;_;_;_;:;:;:;B;|;C;D;F-F-F-E;F;G;.;H;I;J;8;N-K;L;T-M;N;O;P;W-f;Q;R;S;T;s&s&U;V;W;X;g%Y;Z;`; >.>+>",
"@>z;#>$>z%t;%>z;w;v-&>w;*>z%z%(;_;_;_;y-=>->;>C;>>,>F-'>F-)>!>~>{>]>^>v;O-#-/>(>M;_>:><>[>f;4-}>|>1>2>s&s&3>4>5>6>7>8>9>0>a>b>c>",
"d>z;$>$>e>v;z%u z%u z%z%z%z%(;_;f>_;_;_;g>h>i>E-j>k>l>m>G-!>!>n>o>p>y%N-q>r>s>t>u>v>w>x>P;4-y>z>1>1>1>A>s&B>C>D>6>E>F>G>H>I>J>K>",
"L>z%#>$>M>~;z%z%z%N>O>P>Q>_;R>f>. . S>_;_;T>U>w l>V>l>W>X>!>Y>Z>`>+-y% ,.,+,@,#,$,%,&,*,=,-,;,>,,,1>1>s&s&',),!,~,{,],^,I>/,(,_,",
":,<,[,$>$>Q>z%z%},|,|,|,|,|,1,2,2,2,3,_;_;4,5,6,7,8,m>9,0,a,b,_ c,d,e,f,g,h,i,w>j,k,l,m,n,o,p,p,p,1>1>q,r,s,t,u,v,O&w,/,/,/,x,y,",
"z,9;A,B,$>A;z%z%C,|,|,|,D,E,F,F,2,3,G,_;_;H,I,J,K,L,8,8,M,N,O,P,P,Q,R,S,T,U,%,&,k,C=C=V,W,X,p,Y,Z,`,1>#* 's,.'+'v,@'#'/,/,$'%'&'",
"*'='-';'>'e>,'''|,|,)'!'@ @ @ ~'{'@ ]'_;_;^'/'('_':'<'['}'|'( P,P,1'2'3'4'5'6'7'l,C=C=8'9'p,0'a'R;b'1>T; 'c'd'e'f'g'h'/,i'%'j'k'",
"l'='#-m'n'u;o'p'|,!'@ @ @ @ @ @ @ q'r'_;_;s't'('u'v'w'x'y'z'P,P,P,A'B'C'D'w>&,7'E'C=C=F'G'0'H'R;R;`,1>S;s&I'J'K'f'L'M'i'j'j'j'N'"};
